%
(finger-box generated by box-creator)
(GRBL compatible, millimetres, absolute positioning)
(stock 600.000 x 400.000 mm)
G21
G90
G94
G0 Z5.000
S18000 M3
(stock sheet 1)
(corner relief diameter 3.175 mm)
(relief holes for front)
G0 X12.254 Y7.588
G0 Z0.500
G1 Z-1.500 F180
G1 X12.254 Y7.588 F650
G1 Z-3.000 F180
G1 X12.254 Y7.588 F650
G1 Z-4.500 F180
G1 X12.254 Y7.588 F650
G1 Z-6.000 F180
G1 X12.254 Y7.588 F650
G1 Z-6.350 F180
G1 X12.254 Y7.588 F650
G0 Z5.000
G0 X22.921 Y7.588
G0 Z0.500
G1 Z-1.500 F180
G1 X22.921 Y7.588 F650
G1 Z-3.000 F180
G1 X22.921 Y7.588 F650
G1 Z-4.500 F180
G1 X22.921 Y7.588 F650
G1 Z-6.000 F180
G1 X22.921 Y7.588 F650
G1 Z-6.350 F180
G1 X22.921 Y7.588 F650
G0 Z5.000
G0 X33.587 Y7.588
G0 Z0.500
G1 Z-1.500 F180
G1 X33.587 Y7.588 F650
G1 Z-3.000 F180
G1 X33.587 Y7.588 F650
G1 Z-4.500 F180
G1 X33.587 Y7.588 F650
G1 Z-6.000 F180
G1 X33.587 Y7.588 F650
G1 Z-6.350 F180
G1 X33.587 Y7.588 F650
G0 Z5.000
G0 X44.254 Y7.588
G0 Z0.500
G1 Z-1.500 F180
G1 X44.254 Y7.588 F650
G1 Z-3.000 F180
G1 X44.254 Y7.588 F650
G1 Z-4.500 F180
G1 X44.254 Y7.588 F650
G1 Z-6.000 F180
G1 X44.254 Y7.588 F650
G1 Z-6.350 F180
G1 X44.254 Y7.588 F650
G0 Z5.000
G0 X54.921 Y7.588
G0 Z0.500
G1 Z-1.500 F180
G1 X54.921 Y7.588 F650
G1 Z-3.000 F180
G1 X54.921 Y7.588 F650
G1 Z-4.500 F180
G1 X54.921 Y7.588 F650
G1 Z-6.000 F180
G1 X54.921 Y7.588 F650
G1 Z-6.350 F180
G1 X54.921 Y7.588 F650
G0 Z5.000
G0 X65.588 Y7.588
G0 Z0.500
G1 Z-1.500 F180
G1 X65.588 Y7.588 F650
G1 Z-3.000 F180
G1 X65.588 Y7.588 F650
G1 Z-4.500 F180
G1 X65.588 Y7.588 F650
G1 Z-6.000 F180
G1 X65.588 Y7.588 F650
G1 Z-6.350 F180
G1 X65.588 Y7.588 F650
G0 Z5.000
G0 X76.254 Y7.588
G0 Z0.500
G1 Z-1.500 F180
G1 X76.254 Y7.588 F650
G1 Z-3.000 F180
G1 X76.254 Y7.588 F650
G1 Z-4.500 F180
G1 X76.254 Y7.588 F650
G1 Z-6.000 F180
G1 X76.254 Y7.588 F650
G1 Z-6.350 F180
G1 X76.254 Y7.588 F650
G0 Z5.000
G0 X86.921 Y7.588
G0 Z0.500
G1 Z-1.500 F180
G1 X86.921 Y7.588 F650
G1 Z-3.000 F180
G1 X86.921 Y7.588 F650
G1 Z-4.500 F180
G1 X86.921 Y7.588 F650
G1 Z-6.000 F180
G1 X86.921 Y7.588 F650
G1 Z-6.350 F180
G1 X86.921 Y7.588 F650
G0 Z5.000
G0 X97.588 Y7.588
G0 Z0.500
G1 Z-1.500 F180
G1 X97.588 Y7.588 F650
G1 Z-3.000 F180
G1 X97.588 Y7.588 F650
G1 Z-4.500 F180
G1 X97.588 Y7.588 F650
G1 Z-6.000 F180
G1 X97.588 Y7.588 F650
G1 Z-6.350 F180
G1 X97.588 Y7.588 F650
G0 Z5.000
G0 X108.254 Y7.588
G0 Z0.500
G1 Z-1.500 F180
G1 X108.254 Y7.588 F650
G1 Z-3.000 F180
G1 X108.254 Y7.588 F650
G1 Z-4.500 F180
G1 X108.254 Y7.588 F650
G1 Z-6.000 F180
G1 X108.254 Y7.588 F650
G1 Z-6.350 F180
G1 X108.254 Y7.588 F650
G0 Z5.000
G0 X118.921 Y7.588
G0 Z0.500
G1 Z-1.500 F180
G1 X118.921 Y7.588 F650
G1 Z-3.000 F180
G1 X118.921 Y7.588 F650
G1 Z-4.500 F180
G1 X118.921 Y7.588 F650
G1 Z-6.000 F180
G1 X118.921 Y7.588 F650
G1 Z-6.350 F180
G1 X118.921 Y7.588 F650
G0 Z5.000
G0 X129.588 Y7.588
G0 Z0.500
G1 Z-1.500 F180
G1 X129.588 Y7.588 F650
G1 Z-3.000 F180
G1 X129.588 Y7.588 F650
G1 Z-4.500 F180
G1 X129.588 Y7.588 F650
G1 Z-6.000 F180
G1 X129.588 Y7.588 F650
G1 Z-6.350 F180
G1 X129.588 Y7.588 F650
G0 Z5.000
G0 X140.254 Y7.588
G0 Z0.500
G1 Z-1.500 F180
G1 X140.254 Y7.588 F650
G1 Z-3.000 F180
G1 X140.254 Y7.588 F650
G1 Z-4.500 F180
G1 X140.254 Y7.588 F650
G1 Z-6.000 F180
G1 X140.254 Y7.588 F650
G1 Z-6.350 F180
G1 X140.254 Y7.588 F650
G0 Z5.000
G0 X150.921 Y7.588
G0 Z0.500
G1 Z-1.500 F180
G1 X150.921 Y7.588 F650
G1 Z-3.000 F180
G1 X150.921 Y7.588 F650
G1 Z-4.500 F180
G1 X150.921 Y7.588 F650
G1 Z-6.000 F180
G1 X150.921 Y7.588 F650
G1 Z-6.350 F180
G1 X150.921 Y7.588 F650
G0 Z5.000
G0 X161.588 Y11.588
G0 Z0.500
G1 Z-1.500 F180
G1 X161.588 Y11.588 F650
G1 Z-3.000 F180
G1 X161.588 Y11.588 F650
G1 Z-4.500 F180
G1 X161.588 Y11.588 F650
G1 Z-6.000 F180
G1 X161.588 Y11.588 F650
G1 Z-6.350 F180
G1 X161.588 Y11.588 F650
G0 Z5.000
G0 X161.588 Y21.587
G0 Z0.500
G1 Z-1.500 F180
G1 X161.588 Y21.587 F650
G1 Z-3.000 F180
G1 X161.588 Y21.587 F650
G1 Z-4.500 F180
G1 X161.588 Y21.587 F650
G1 Z-6.000 F180
G1 X161.588 Y21.587 F650
G1 Z-6.350 F180
G1 X161.588 Y21.587 F650
G0 Z5.000
G0 X161.588 Y31.587
G0 Z0.500
G1 Z-1.500 F180
G1 X161.588 Y31.587 F650
G1 Z-3.000 F180
G1 X161.588 Y31.587 F650
G1 Z-4.500 F180
G1 X161.588 Y31.587 F650
G1 Z-6.000 F180
G1 X161.588 Y31.587 F650
G1 Z-6.350 F180
G1 X161.588 Y31.587 F650
G0 Z5.000
G0 X161.588 Y41.587
G0 Z0.500
G1 Z-1.500 F180
G1 X161.588 Y41.587 F650
G1 Z-3.000 F180
G1 X161.588 Y41.587 F650
G1 Z-4.500 F180
G1 X161.588 Y41.587 F650
G1 Z-6.000 F180
G1 X161.588 Y41.587 F650
G1 Z-6.350 F180
G1 X161.588 Y41.587 F650
G0 Z5.000
G0 X161.588 Y51.587
G0 Z0.500
G1 Z-1.500 F180
G1 X161.588 Y51.587 F650
G1 Z-3.000 F180
G1 X161.588 Y51.587 F650
G1 Z-4.500 F180
G1 X161.588 Y51.587 F650
G1 Z-6.000 F180
G1 X161.588 Y51.587 F650
G1 Z-6.350 F180
G1 X161.588 Y51.587 F650
G0 Z5.000
G0 X161.588 Y61.587
G0 Z0.500
G1 Z-1.500 F180
G1 X161.588 Y61.587 F650
G1 Z-3.000 F180
G1 X161.588 Y61.587 F650
G1 Z-4.500 F180
G1 X161.588 Y61.587 F650
G1 Z-6.000 F180
G1 X161.588 Y61.587 F650
G1 Z-6.350 F180
G1 X161.588 Y61.587 F650
G0 Z5.000
G0 X161.588 Y71.588
G0 Z0.500
G1 Z-1.500 F180
G1 X161.588 Y71.588 F650
G1 Z-3.000 F180
G1 X161.588 Y71.588 F650
G1 Z-4.500 F180
G1 X161.588 Y71.588 F650
G1 Z-6.000 F180
G1 X161.588 Y71.588 F650
G1 Z-6.350 F180
G1 X161.588 Y71.588 F650
G0 Z5.000
G0 X150.921 Y71.588
G0 Z0.500
G1 Z-1.500 F180
G1 X150.921 Y71.588 F650
G1 Z-3.000 F180
G1 X150.921 Y71.588 F650
G1 Z-4.500 F180
G1 X150.921 Y71.588 F650
G1 Z-6.000 F180
G1 X150.921 Y71.588 F650
G1 Z-6.350 F180
G1 X150.921 Y71.588 F650
G0 Z5.000
G0 X140.254 Y71.588
G0 Z0.500
G1 Z-1.500 F180
G1 X140.254 Y71.588 F650
G1 Z-3.000 F180
G1 X140.254 Y71.588 F650
G1 Z-4.500 F180
G1 X140.254 Y71.588 F650
G1 Z-6.000 F180
G1 X140.254 Y71.588 F650
G1 Z-6.350 F180
G1 X140.254 Y71.588 F650
G0 Z5.000
G0 X129.588 Y71.588
G0 Z0.500
G1 Z-1.500 F180
G1 X129.588 Y71.588 F650
G1 Z-3.000 F180
G1 X129.588 Y71.588 F650
G1 Z-4.500 F180
G1 X129.588 Y71.588 F650
G1 Z-6.000 F180
G1 X129.588 Y71.588 F650
G1 Z-6.350 F180
G1 X129.588 Y71.588 F650
G0 Z5.000
G0 X118.921 Y71.588
G0 Z0.500
G1 Z-1.500 F180
G1 X118.921 Y71.588 F650
G1 Z-3.000 F180
G1 X118.921 Y71.588 F650
G1 Z-4.500 F180
G1 X118.921 Y71.588 F650
G1 Z-6.000 F180
G1 X118.921 Y71.588 F650
G1 Z-6.350 F180
G1 X118.921 Y71.588 F650
G0 Z5.000
G0 X108.254 Y71.588
G0 Z0.500
G1 Z-1.500 F180
G1 X108.254 Y71.588 F650
G1 Z-3.000 F180
G1 X108.254 Y71.588 F650
G1 Z-4.500 F180
G1 X108.254 Y71.588 F650
G1 Z-6.000 F180
G1 X108.254 Y71.588 F650
G1 Z-6.350 F180
G1 X108.254 Y71.588 F650
G0 Z5.000
G0 X97.588 Y71.588
G0 Z0.500
G1 Z-1.500 F180
G1 X97.588 Y71.588 F650
G1 Z-3.000 F180
G1 X97.588 Y71.588 F650
G1 Z-4.500 F180
G1 X97.588 Y71.588 F650
G1 Z-6.000 F180
G1 X97.588 Y71.588 F650
G1 Z-6.350 F180
G1 X97.588 Y71.588 F650
G0 Z5.000
G0 X86.921 Y71.588
G0 Z0.500
G1 Z-1.500 F180
G1 X86.921 Y71.588 F650
G1 Z-3.000 F180
G1 X86.921 Y71.588 F650
G1 Z-4.500 F180
G1 X86.921 Y71.588 F650
G1 Z-6.000 F180
G1 X86.921 Y71.588 F650
G1 Z-6.350 F180
G1 X86.921 Y71.588 F650
G0 Z5.000
G0 X76.254 Y71.588
G0 Z0.500
G1 Z-1.500 F180
G1 X76.254 Y71.588 F650
G1 Z-3.000 F180
G1 X76.254 Y71.588 F650
G1 Z-4.500 F180
G1 X76.254 Y71.588 F650
G1 Z-6.000 F180
G1 X76.254 Y71.588 F650
G1 Z-6.350 F180
G1 X76.254 Y71.588 F650
G0 Z5.000
G0 X65.588 Y71.588
G0 Z0.500
G1 Z-1.500 F180
G1 X65.588 Y71.588 F650
G1 Z-3.000 F180
G1 X65.588 Y71.588 F650
G1 Z-4.500 F180
G1 X65.588 Y71.588 F650
G1 Z-6.000 F180
G1 X65.588 Y71.588 F650
G1 Z-6.350 F180
G1 X65.588 Y71.588 F650
G0 Z5.000
G0 X54.921 Y71.588
G0 Z0.500
G1 Z-1.500 F180
G1 X54.921 Y71.588 F650
G1 Z-3.000 F180
G1 X54.921 Y71.588 F650
G1 Z-4.500 F180
G1 X54.921 Y71.588 F650
G1 Z-6.000 F180
G1 X54.921 Y71.588 F650
G1 Z-6.350 F180
G1 X54.921 Y71.588 F650
G0 Z5.000
G0 X44.254 Y71.588
G0 Z0.500
G1 Z-1.500 F180
G1 X44.254 Y71.588 F650
G1 Z-3.000 F180
G1 X44.254 Y71.588 F650
G1 Z-4.500 F180
G1 X44.254 Y71.588 F650
G1 Z-6.000 F180
G1 X44.254 Y71.588 F650
G1 Z-6.350 F180
G1 X44.254 Y71.588 F650
G0 Z5.000
G0 X33.587 Y71.588
G0 Z0.500
G1 Z-1.500 F180
G1 X33.587 Y71.588 F650
G1 Z-3.000 F180
G1 X33.587 Y71.588 F650
G1 Z-4.500 F180
G1 X33.587 Y71.588 F650
G1 Z-6.000 F180
G1 X33.587 Y71.588 F650
G1 Z-6.350 F180
G1 X33.587 Y71.588 F650
G0 Z5.000
G0 X22.921 Y71.588
G0 Z0.500
G1 Z-1.500 F180
G1 X22.921 Y71.588 F650
G1 Z-3.000 F180
G1 X22.921 Y71.588 F650
G1 Z-4.500 F180
G1 X22.921 Y71.588 F650
G1 Z-6.000 F180
G1 X22.921 Y71.588 F650
G1 Z-6.350 F180
G1 X22.921 Y71.588 F650
G0 Z5.000
G0 X12.254 Y71.588
G0 Z0.500
G1 Z-1.500 F180
G1 X12.254 Y71.588 F650
G1 Z-3.000 F180
G1 X12.254 Y71.588 F650
G1 Z-4.500 F180
G1 X12.254 Y71.588 F650
G1 Z-6.000 F180
G1 X12.254 Y71.588 F650
G1 Z-6.350 F180
G1 X12.254 Y71.588 F650
G0 Z5.000
G0 X7.588 Y61.587
G0 Z0.500
G1 Z-1.500 F180
G1 X7.588 Y61.587 F650
G1 Z-3.000 F180
G1 X7.588 Y61.587 F650
G1 Z-4.500 F180
G1 X7.588 Y61.587 F650
G1 Z-6.000 F180
G1 X7.588 Y61.587 F650
G1 Z-6.350 F180
G1 X7.588 Y61.587 F650
G0 Z5.000
G0 X7.588 Y51.587
G0 Z0.500
G1 Z-1.500 F180
G1 X7.588 Y51.587 F650
G1 Z-3.000 F180
G1 X7.588 Y51.587 F650
G1 Z-4.500 F180
G1 X7.588 Y51.587 F650
G1 Z-6.000 F180
G1 X7.588 Y51.587 F650
G1 Z-6.350 F180
G1 X7.588 Y51.587 F650
G0 Z5.000
G0 X7.588 Y41.587
G0 Z0.500
G1 Z-1.500 F180
G1 X7.588 Y41.587 F650
G1 Z-3.000 F180
G1 X7.588 Y41.587 F650
G1 Z-4.500 F180
G1 X7.588 Y41.587 F650
G1 Z-6.000 F180
G1 X7.588 Y41.587 F650
G1 Z-6.350 F180
G1 X7.588 Y41.587 F650
G0 Z5.000
G0 X7.588 Y31.587
G0 Z0.500
G1 Z-1.500 F180
G1 X7.588 Y31.587 F650
G1 Z-3.000 F180
G1 X7.588 Y31.587 F650
G1 Z-4.500 F180
G1 X7.588 Y31.587 F650
G1 Z-6.000 F180
G1 X7.588 Y31.587 F650
G1 Z-6.350 F180
G1 X7.588 Y31.587 F650
G0 Z5.000
G0 X7.588 Y21.587
G0 Z0.500
G1 Z-1.500 F180
G1 X7.588 Y21.587 F650
G1 Z-3.000 F180
G1 X7.588 Y21.587 F650
G1 Z-4.500 F180
G1 X7.588 Y21.587 F650
G1 Z-6.000 F180
G1 X7.588 Y21.587 F650
G1 Z-6.350 F180
G1 X7.588 Y21.587 F650
G0 Z5.000
G0 X7.588 Y11.588
G0 Z0.500
G1 Z-1.500 F180
G1 X7.588 Y11.588 F650
G1 Z-3.000 F180
G1 X7.588 Y11.588 F650
G1 Z-4.500 F180
G1 X7.588 Y11.588 F650
G1 Z-6.000 F180
G1 X7.588 Y11.588 F650
G1 Z-6.350 F180
G1 X7.588 Y11.588 F650
G0 Z5.000
(relief holes for back)
G0 X192.254 Y7.588
G0 Z0.500
G1 Z-1.500 F180
G1 X192.254 Y7.588 F650
G1 Z-3.000 F180
G1 X192.254 Y7.588 F650
G1 Z-4.500 F180
G1 X192.254 Y7.588 F650
G1 Z-6.000 F180
G1 X192.254 Y7.588 F650
G1 Z-6.350 F180
G1 X192.254 Y7.588 F650
G0 Z5.000
G0 X202.921 Y7.588
G0 Z0.500
G1 Z-1.500 F180
G1 X202.921 Y7.588 F650
G1 Z-3.000 F180
G1 X202.921 Y7.588 F650
G1 Z-4.500 F180
G1 X202.921 Y7.588 F650
G1 Z-6.000 F180
G1 X202.921 Y7.588 F650
G1 Z-6.350 F180
G1 X202.921 Y7.588 F650
G0 Z5.000
G0 X213.588 Y7.588
G0 Z0.500
G1 Z-1.500 F180
G1 X213.588 Y7.588 F650
G1 Z-3.000 F180
G1 X213.588 Y7.588 F650
G1 Z-4.500 F180
G1 X213.588 Y7.588 F650
G1 Z-6.000 F180
G1 X213.588 Y7.588 F650
G1 Z-6.350 F180
G1 X213.588 Y7.588 F650
G0 Z5.000
G0 X224.254 Y7.588
G0 Z0.500
G1 Z-1.500 F180
G1 X224.254 Y7.588 F650
G1 Z-3.000 F180
G1 X224.254 Y7.588 F650
G1 Z-4.500 F180
G1 X224.254 Y7.588 F650
G1 Z-6.000 F180
G1 X224.254 Y7.588 F650
G1 Z-6.350 F180
G1 X224.254 Y7.588 F650
G0 Z5.000
G0 X234.921 Y7.588
G0 Z0.500
G1 Z-1.500 F180
G1 X234.921 Y7.588 F650
G1 Z-3.000 F180
G1 X234.921 Y7.588 F650
G1 Z-4.500 F180
G1 X234.921 Y7.588 F650
G1 Z-6.000 F180
G1 X234.921 Y7.588 F650
G1 Z-6.350 F180
G1 X234.921 Y7.588 F650
G0 Z5.000
G0 X245.588 Y7.588
G0 Z0.500
G1 Z-1.500 F180
G1 X245.588 Y7.588 F650
G1 Z-3.000 F180
G1 X245.588 Y7.588 F650
G1 Z-4.500 F180
G1 X245.588 Y7.588 F650
G1 Z-6.000 F180
G1 X245.588 Y7.588 F650
G1 Z-6.350 F180
G1 X245.588 Y7.588 F650
G0 Z5.000
G0 X256.254 Y7.588
G0 Z0.500
G1 Z-1.500 F180
G1 X256.254 Y7.588 F650
G1 Z-3.000 F180
G1 X256.254 Y7.588 F650
G1 Z-4.500 F180
G1 X256.254 Y7.588 F650
G1 Z-6.000 F180
G1 X256.254 Y7.588 F650
G1 Z-6.350 F180
G1 X256.254 Y7.588 F650
G0 Z5.000
G0 X266.921 Y7.588
G0 Z0.500
G1 Z-1.500 F180
G1 X266.921 Y7.588 F650
G1 Z-3.000 F180
G1 X266.921 Y7.588 F650
G1 Z-4.500 F180
G1 X266.921 Y7.588 F650
G1 Z-6.000 F180
G1 X266.921 Y7.588 F650
G1 Z-6.350 F180
G1 X266.921 Y7.588 F650
G0 Z5.000
G0 X277.587 Y7.588
G0 Z0.500
G1 Z-1.500 F180
G1 X277.587 Y7.588 F650
G1 Z-3.000 F180
G1 X277.587 Y7.588 F650
G1 Z-4.500 F180
G1 X277.587 Y7.588 F650
G1 Z-6.000 F180
G1 X277.587 Y7.588 F650
G1 Z-6.350 F180
G1 X277.587 Y7.588 F650
G0 Z5.000
G0 X288.254 Y7.588
G0 Z0.500
G1 Z-1.500 F180
G1 X288.254 Y7.588 F650
G1 Z-3.000 F180
G1 X288.254 Y7.588 F650
G1 Z-4.500 F180
G1 X288.254 Y7.588 F650
G1 Z-6.000 F180
G1 X288.254 Y7.588 F650
G1 Z-6.350 F180
G1 X288.254 Y7.588 F650
G0 Z5.000
G0 X298.921 Y7.588
G0 Z0.500
G1 Z-1.500 F180
G1 X298.921 Y7.588 F650
G1 Z-3.000 F180
G1 X298.921 Y7.588 F650
G1 Z-4.500 F180
G1 X298.921 Y7.588 F650
G1 Z-6.000 F180
G1 X298.921 Y7.588 F650
G1 Z-6.350 F180
G1 X298.921 Y7.588 F650
G0 Z5.000
G0 X309.587 Y7.588
G0 Z0.500
G1 Z-1.500 F180
G1 X309.587 Y7.588 F650
G1 Z-3.000 F180
G1 X309.587 Y7.588 F650
G1 Z-4.500 F180
G1 X309.587 Y7.588 F650
G1 Z-6.000 F180
G1 X309.587 Y7.588 F650
G1 Z-6.350 F180
G1 X309.587 Y7.588 F650
G0 Z5.000
G0 X320.254 Y7.588
G0 Z0.500
G1 Z-1.500 F180
G1 X320.254 Y7.588 F650
G1 Z-3.000 F180
G1 X320.254 Y7.588 F650
G1 Z-4.500 F180
G1 X320.254 Y7.588 F650
G1 Z-6.000 F180
G1 X320.254 Y7.588 F650
G1 Z-6.350 F180
G1 X320.254 Y7.588 F650
G0 Z5.000
G0 X330.921 Y7.588
G0 Z0.500
G1 Z-1.500 F180
G1 X330.921 Y7.588 F650
G1 Z-3.000 F180
G1 X330.921 Y7.588 F650
G1 Z-4.500 F180
G1 X330.921 Y7.588 F650
G1 Z-6.000 F180
G1 X330.921 Y7.588 F650
G1 Z-6.350 F180
G1 X330.921 Y7.588 F650
G0 Z5.000
G0 X341.587 Y11.588
G0 Z0.500
G1 Z-1.500 F180
G1 X341.587 Y11.588 F650
G1 Z-3.000 F180
G1 X341.587 Y11.588 F650
G1 Z-4.500 F180
G1 X341.587 Y11.588 F650
G1 Z-6.000 F180
G1 X341.587 Y11.588 F650
G1 Z-6.350 F180
G1 X341.587 Y11.588 F650
G0 Z5.000
G0 X341.587 Y21.587
G0 Z0.500
G1 Z-1.500 F180
G1 X341.587 Y21.587 F650
G1 Z-3.000 F180
G1 X341.587 Y21.587 F650
G1 Z-4.500 F180
G1 X341.587 Y21.587 F650
G1 Z-6.000 F180
G1 X341.587 Y21.587 F650
G1 Z-6.350 F180
G1 X341.587 Y21.587 F650
G0 Z5.000
G0 X341.587 Y31.587
G0 Z0.500
G1 Z-1.500 F180
G1 X341.587 Y31.587 F650
G1 Z-3.000 F180
G1 X341.587 Y31.587 F650
G1 Z-4.500 F180
G1 X341.587 Y31.587 F650
G1 Z-6.000 F180
G1 X341.587 Y31.587 F650
G1 Z-6.350 F180
G1 X341.587 Y31.587 F650
G0 Z5.000
G0 X341.587 Y41.587
G0 Z0.500
G1 Z-1.500 F180
G1 X341.587 Y41.587 F650
G1 Z-3.000 F180
G1 X341.587 Y41.587 F650
G1 Z-4.500 F180
G1 X341.587 Y41.587 F650
G1 Z-6.000 F180
G1 X341.587 Y41.587 F650
G1 Z-6.350 F180
G1 X341.587 Y41.587 F650
G0 Z5.000
G0 X341.587 Y51.587
G0 Z0.500
G1 Z-1.500 F180
G1 X341.587 Y51.587 F650
G1 Z-3.000 F180
G1 X341.587 Y51.587 F650
G1 Z-4.500 F180
G1 X341.587 Y51.587 F650
G1 Z-6.000 F180
G1 X341.587 Y51.587 F650
G1 Z-6.350 F180
G1 X341.587 Y51.587 F650
G0 Z5.000
G0 X341.587 Y61.587
G0 Z0.500
G1 Z-1.500 F180
G1 X341.587 Y61.587 F650
G1 Z-3.000 F180
G1 X341.587 Y61.587 F650
G1 Z-4.500 F180
G1 X341.587 Y61.587 F650
G1 Z-6.000 F180
G1 X341.587 Y61.587 F650
G1 Z-6.350 F180
G1 X341.587 Y61.587 F650
G0 Z5.000
G0 X341.587 Y71.588
G0 Z0.500
G1 Z-1.500 F180
G1 X341.587 Y71.588 F650
G1 Z-3.000 F180
G1 X341.587 Y71.588 F650
G1 Z-4.500 F180
G1 X341.587 Y71.588 F650
G1 Z-6.000 F180
G1 X341.587 Y71.588 F650
G1 Z-6.350 F180
G1 X341.587 Y71.588 F650
G0 Z5.000
G0 X330.921 Y71.588
G0 Z0.500
G1 Z-1.500 F180
G1 X330.921 Y71.588 F650
G1 Z-3.000 F180
G1 X330.921 Y71.588 F650
G1 Z-4.500 F180
G1 X330.921 Y71.588 F650
G1 Z-6.000 F180
G1 X330.921 Y71.588 F650
G1 Z-6.350 F180
G1 X330.921 Y71.588 F650
G0 Z5.000
G0 X320.254 Y71.588
G0 Z0.500
G1 Z-1.500 F180
G1 X320.254 Y71.588 F650
G1 Z-3.000 F180
G1 X320.254 Y71.588 F650
G1 Z-4.500 F180
G1 X320.254 Y71.588 F650
G1 Z-6.000 F180
G1 X320.254 Y71.588 F650
G1 Z-6.350 F180
G1 X320.254 Y71.588 F650
G0 Z5.000
G0 X309.587 Y71.588
G0 Z0.500
G1 Z-1.500 F180
G1 X309.587 Y71.588 F650
G1 Z-3.000 F180
G1 X309.587 Y71.588 F650
G1 Z-4.500 F180
G1 X309.587 Y71.588 F650
G1 Z-6.000 F180
G1 X309.587 Y71.588 F650
G1 Z-6.350 F180
G1 X309.587 Y71.588 F650
G0 Z5.000
G0 X298.921 Y71.588
G0 Z0.500
G1 Z-1.500 F180
G1 X298.921 Y71.588 F650
G1 Z-3.000 F180
G1 X298.921 Y71.588 F650
G1 Z-4.500 F180
G1 X298.921 Y71.588 F650
G1 Z-6.000 F180
G1 X298.921 Y71.588 F650
G1 Z-6.350 F180
G1 X298.921 Y71.588 F650
G0 Z5.000
G0 X288.254 Y71.588
G0 Z0.500
G1 Z-1.500 F180
G1 X288.254 Y71.588 F650
G1 Z-3.000 F180
G1 X288.254 Y71.588 F650
G1 Z-4.500 F180
G1 X288.254 Y71.588 F650
G1 Z-6.000 F180
G1 X288.254 Y71.588 F650
G1 Z-6.350 F180
G1 X288.254 Y71.588 F650
G0 Z5.000
G0 X277.587 Y71.588
G0 Z0.500
G1 Z-1.500 F180
G1 X277.587 Y71.588 F650
G1 Z-3.000 F180
G1 X277.587 Y71.588 F650
G1 Z-4.500 F180
G1 X277.587 Y71.588 F650
G1 Z-6.000 F180
G1 X277.587 Y71.588 F650
G1 Z-6.350 F180
G1 X277.587 Y71.588 F650
G0 Z5.000
G0 X266.921 Y71.588
G0 Z0.500
G1 Z-1.500 F180
G1 X266.921 Y71.588 F650
G1 Z-3.000 F180
G1 X266.921 Y71.588 F650
G1 Z-4.500 F180
G1 X266.921 Y71.588 F650
G1 Z-6.000 F180
G1 X266.921 Y71.588 F650
G1 Z-6.350 F180
G1 X266.921 Y71.588 F650
G0 Z5.000
G0 X256.254 Y71.588
G0 Z0.500
G1 Z-1.500 F180
G1 X256.254 Y71.588 F650
G1 Z-3.000 F180
G1 X256.254 Y71.588 F650
G1 Z-4.500 F180
G1 X256.254 Y71.588 F650
G1 Z-6.000 F180
G1 X256.254 Y71.588 F650
G1 Z-6.350 F180
G1 X256.254 Y71.588 F650
G0 Z5.000
G0 X245.588 Y71.588
G0 Z0.500
G1 Z-1.500 F180
G1 X245.588 Y71.588 F650
G1 Z-3.000 F180
G1 X245.588 Y71.588 F650
G1 Z-4.500 F180
G1 X245.588 Y71.588 F650
G1 Z-6.000 F180
G1 X245.588 Y71.588 F650
G1 Z-6.350 F180
G1 X245.588 Y71.588 F650
G0 Z5.000
G0 X234.921 Y71.588
G0 Z0.500
G1 Z-1.500 F180
G1 X234.921 Y71.588 F650
G1 Z-3.000 F180
G1 X234.921 Y71.588 F650
G1 Z-4.500 F180
G1 X234.921 Y71.588 F650
G1 Z-6.000 F180
G1 X234.921 Y71.588 F650
G1 Z-6.350 F180
G1 X234.921 Y71.588 F650
G0 Z5.000
G0 X224.254 Y71.588
G0 Z0.500
G1 Z-1.500 F180
G1 X224.254 Y71.588 F650
G1 Z-3.000 F180
G1 X224.254 Y71.588 F650
G1 Z-4.500 F180
G1 X224.254 Y71.588 F650
G1 Z-6.000 F180
G1 X224.254 Y71.588 F650
G1 Z-6.350 F180
G1 X224.254 Y71.588 F650
G0 Z5.000
G0 X213.588 Y71.588
G0 Z0.500
G1 Z-1.500 F180
G1 X213.588 Y71.588 F650
G1 Z-3.000 F180
G1 X213.588 Y71.588 F650
G1 Z-4.500 F180
G1 X213.588 Y71.588 F650
G1 Z-6.000 F180
G1 X213.588 Y71.588 F650
G1 Z-6.350 F180
G1 X213.588 Y71.588 F650
G0 Z5.000
G0 X202.921 Y71.588
G0 Z0.500
G1 Z-1.500 F180
G1 X202.921 Y71.588 F650
G1 Z-3.000 F180
G1 X202.921 Y71.588 F650
G1 Z-4.500 F180
G1 X202.921 Y71.588 F650
G1 Z-6.000 F180
G1 X202.921 Y71.588 F650
G1 Z-6.350 F180
G1 X202.921 Y71.588 F650
G0 Z5.000
G0 X192.254 Y71.588
G0 Z0.500
G1 Z-1.500 F180
G1 X192.254 Y71.588 F650
G1 Z-3.000 F180
G1 X192.254 Y71.588 F650
G1 Z-4.500 F180
G1 X192.254 Y71.588 F650
G1 Z-6.000 F180
G1 X192.254 Y71.588 F650
G1 Z-6.350 F180
G1 X192.254 Y71.588 F650
G0 Z5.000
G0 X187.588 Y61.587
G0 Z0.500
G1 Z-1.500 F180
G1 X187.588 Y61.587 F650
G1 Z-3.000 F180
G1 X187.588 Y61.587 F650
G1 Z-4.500 F180
G1 X187.588 Y61.587 F650
G1 Z-6.000 F180
G1 X187.588 Y61.587 F650
G1 Z-6.350 F180
G1 X187.588 Y61.587 F650
G0 Z5.000
G0 X187.588 Y51.587
G0 Z0.500
G1 Z-1.500 F180
G1 X187.588 Y51.587 F650
G1 Z-3.000 F180
G1 X187.588 Y51.587 F650
G1 Z-4.500 F180
G1 X187.588 Y51.587 F650
G1 Z-6.000 F180
G1 X187.588 Y51.587 F650
G1 Z-6.350 F180
G1 X187.588 Y51.587 F650
G0 Z5.000
G0 X187.588 Y41.587
G0 Z0.500
G1 Z-1.500 F180
G1 X187.588 Y41.587 F650
G1 Z-3.000 F180
G1 X187.588 Y41.587 F650
G1 Z-4.500 F180
G1 X187.588 Y41.587 F650
G1 Z-6.000 F180
G1 X187.588 Y41.587 F650
G1 Z-6.350 F180
G1 X187.588 Y41.587 F650
G0 Z5.000
G0 X187.588 Y31.587
G0 Z0.500
G1 Z-1.500 F180
G1 X187.588 Y31.587 F650
G1 Z-3.000 F180
G1 X187.588 Y31.587 F650
G1 Z-4.500 F180
G1 X187.588 Y31.587 F650
G1 Z-6.000 F180
G1 X187.588 Y31.587 F650
G1 Z-6.350 F180
G1 X187.588 Y31.587 F650
G0 Z5.000
G0 X187.588 Y21.587
G0 Z0.500
G1 Z-1.500 F180
G1 X187.588 Y21.587 F650
G1 Z-3.000 F180
G1 X187.588 Y21.587 F650
G1 Z-4.500 F180
G1 X187.588 Y21.587 F650
G1 Z-6.000 F180
G1 X187.588 Y21.587 F650
G1 Z-6.350 F180
G1 X187.588 Y21.587 F650
G0 Z5.000
G0 X187.588 Y11.588
G0 Z0.500
G1 Z-1.500 F180
G1 X187.588 Y11.588 F650
G1 Z-3.000 F180
G1 X187.588 Y11.588 F650
G1 Z-4.500 F180
G1 X187.588 Y11.588 F650
G1 Z-6.000 F180
G1 X187.588 Y11.588 F650
G1 Z-6.350 F180
G1 X187.588 Y11.588 F650
G0 Z5.000
(relief holes for left)
G0 X367.587 Y7.588
G0 Z0.500
G1 Z-1.500 F180
G1 X367.587 Y7.588 F650
G1 Z-3.000 F180
G1 X367.587 Y7.588 F650
G1 Z-4.500 F180
G1 X367.587 Y7.588 F650
G1 Z-6.000 F180
G1 X367.587 Y7.588 F650
G1 Z-6.350 F180
G1 X367.587 Y7.588 F650
G0 Z5.000
G0 X378.699 Y7.588
G0 Z0.500
G1 Z-1.500 F180
G1 X378.699 Y7.588 F650
G1 Z-3.000 F180
G1 X378.699 Y7.588 F650
G1 Z-4.500 F180
G1 X378.699 Y7.588 F650
G1 Z-6.000 F180
G1 X378.699 Y7.588 F650
G1 Z-6.350 F180
G1 X378.699 Y7.588 F650
G0 Z5.000
G0 X389.810 Y7.588
G0 Z0.500
G1 Z-1.500 F180
G1 X389.810 Y7.588 F650
G1 Z-3.000 F180
G1 X389.810 Y7.588 F650
G1 Z-4.500 F180
G1 X389.810 Y7.588 F650
G1 Z-6.000 F180
G1 X389.810 Y7.588 F650
G1 Z-6.350 F180
G1 X389.810 Y7.588 F650
G0 Z5.000
G0 X400.921 Y7.588
G0 Z0.500
G1 Z-1.500 F180
G1 X400.921 Y7.588 F650
G1 Z-3.000 F180
G1 X400.921 Y7.588 F650
G1 Z-4.500 F180
G1 X400.921 Y7.588 F650
G1 Z-6.000 F180
G1 X400.921 Y7.588 F650
G1 Z-6.350 F180
G1 X400.921 Y7.588 F650
G0 Z5.000
G0 X412.032 Y7.588
G0 Z0.500
G1 Z-1.500 F180
G1 X412.032 Y7.588 F650
G1 Z-3.000 F180
G1 X412.032 Y7.588 F650
G1 Z-4.500 F180
G1 X412.032 Y7.588 F650
G1 Z-6.000 F180
G1 X412.032 Y7.588 F650
G1 Z-6.350 F180
G1 X412.032 Y7.588 F650
G0 Z5.000
G0 X423.143 Y7.588
G0 Z0.500
G1 Z-1.500 F180
G1 X423.143 Y7.588 F650
G1 Z-3.000 F180
G1 X423.143 Y7.588 F650
G1 Z-4.500 F180
G1 X423.143 Y7.588 F650
G1 Z-6.000 F180
G1 X423.143 Y7.588 F650
G1 Z-6.350 F180
G1 X423.143 Y7.588 F650
G0 Z5.000
G0 X434.254 Y7.588
G0 Z0.500
G1 Z-1.500 F180
G1 X434.254 Y7.588 F650
G1 Z-3.000 F180
G1 X434.254 Y7.588 F650
G1 Z-4.500 F180
G1 X434.254 Y7.588 F650
G1 Z-6.000 F180
G1 X434.254 Y7.588 F650
G1 Z-6.350 F180
G1 X434.254 Y7.588 F650
G0 Z5.000
G0 X445.365 Y7.588
G0 Z0.500
G1 Z-1.500 F180
G1 X445.365 Y7.588 F650
G1 Z-3.000 F180
G1 X445.365 Y7.588 F650
G1 Z-4.500 F180
G1 X445.365 Y7.588 F650
G1 Z-6.000 F180
G1 X445.365 Y7.588 F650
G1 Z-6.350 F180
G1 X445.365 Y7.588 F650
G0 Z5.000
G0 X456.476 Y7.588
G0 Z0.500
G1 Z-1.500 F180
G1 X456.476 Y7.588 F650
G1 Z-3.000 F180
G1 X456.476 Y7.588 F650
G1 Z-4.500 F180
G1 X456.476 Y7.588 F650
G1 Z-6.000 F180
G1 X456.476 Y7.588 F650
G1 Z-6.350 F180
G1 X456.476 Y7.588 F650
G0 Z5.000
G0 X461.587 Y17.587
G0 Z0.500
G1 Z-1.500 F180
G1 X461.587 Y17.587 F650
G1 Z-3.000 F180
G1 X461.587 Y17.587 F650
G1 Z-4.500 F180
G1 X461.587 Y17.587 F650
G1 Z-6.000 F180
G1 X461.587 Y17.587 F650
G1 Z-6.350 F180
G1 X461.587 Y17.587 F650
G0 Z5.000
G0 X461.587 Y27.587
G0 Z0.500
G1 Z-1.500 F180
G1 X461.587 Y27.587 F650
G1 Z-3.000 F180
G1 X461.587 Y27.587 F650
G1 Z-4.500 F180
G1 X461.587 Y27.587 F650
G1 Z-6.000 F180
G1 X461.587 Y27.587 F650
G1 Z-6.350 F180
G1 X461.587 Y27.587 F650
G0 Z5.000
G0 X461.587 Y37.587
G0 Z0.500
G1 Z-1.500 F180
G1 X461.587 Y37.587 F650
G1 Z-3.000 F180
G1 X461.587 Y37.587 F650
G1 Z-4.500 F180
G1 X461.587 Y37.587 F650
G1 Z-6.000 F180
G1 X461.587 Y37.587 F650
G1 Z-6.350 F180
G1 X461.587 Y37.587 F650
G0 Z5.000
G0 X461.587 Y47.587
G0 Z0.500
G1 Z-1.500 F180
G1 X461.587 Y47.587 F650
G1 Z-3.000 F180
G1 X461.587 Y47.587 F650
G1 Z-4.500 F180
G1 X461.587 Y47.587 F650
G1 Z-6.000 F180
G1 X461.587 Y47.587 F650
G1 Z-6.350 F180
G1 X461.587 Y47.587 F650
G0 Z5.000
G0 X461.587 Y57.587
G0 Z0.500
G1 Z-1.500 F180
G1 X461.587 Y57.587 F650
G1 Z-3.000 F180
G1 X461.587 Y57.587 F650
G1 Z-4.500 F180
G1 X461.587 Y57.587 F650
G1 Z-6.000 F180
G1 X461.587 Y57.587 F650
G1 Z-6.350 F180
G1 X461.587 Y57.587 F650
G0 Z5.000
G0 X461.587 Y67.588
G0 Z0.500
G1 Z-1.500 F180
G1 X461.587 Y67.588 F650
G1 Z-3.000 F180
G1 X461.587 Y67.588 F650
G1 Z-4.500 F180
G1 X461.587 Y67.588 F650
G1 Z-6.000 F180
G1 X461.587 Y67.588 F650
G1 Z-6.350 F180
G1 X461.587 Y67.588 F650
G0 Z5.000
G0 X456.476 Y71.588
G0 Z0.500
G1 Z-1.500 F180
G1 X456.476 Y71.588 F650
G1 Z-3.000 F180
G1 X456.476 Y71.588 F650
G1 Z-4.500 F180
G1 X456.476 Y71.588 F650
G1 Z-6.000 F180
G1 X456.476 Y71.588 F650
G1 Z-6.350 F180
G1 X456.476 Y71.588 F650
G0 Z5.000
G0 X445.365 Y71.588
G0 Z0.500
G1 Z-1.500 F180
G1 X445.365 Y71.588 F650
G1 Z-3.000 F180
G1 X445.365 Y71.588 F650
G1 Z-4.500 F180
G1 X445.365 Y71.588 F650
G1 Z-6.000 F180
G1 X445.365 Y71.588 F650
G1 Z-6.350 F180
G1 X445.365 Y71.588 F650
G0 Z5.000
G0 X434.254 Y71.588
G0 Z0.500
G1 Z-1.500 F180
G1 X434.254 Y71.588 F650
G1 Z-3.000 F180
G1 X434.254 Y71.588 F650
G1 Z-4.500 F180
G1 X434.254 Y71.588 F650
G1 Z-6.000 F180
G1 X434.254 Y71.588 F650
G1 Z-6.350 F180
G1 X434.254 Y71.588 F650
G0 Z5.000
G0 X423.143 Y71.588
G0 Z0.500
G1 Z-1.500 F180
G1 X423.143 Y71.588 F650
G1 Z-3.000 F180
G1 X423.143 Y71.588 F650
G1 Z-4.500 F180
G1 X423.143 Y71.588 F650
G1 Z-6.000 F180
G1 X423.143 Y71.588 F650
G1 Z-6.350 F180
G1 X423.143 Y71.588 F650
G0 Z5.000
G0 X412.032 Y71.588
G0 Z0.500
G1 Z-1.500 F180
G1 X412.032 Y71.588 F650
G1 Z-3.000 F180
G1 X412.032 Y71.588 F650
G1 Z-4.500 F180
G1 X412.032 Y71.588 F650
G1 Z-6.000 F180
G1 X412.032 Y71.588 F650
G1 Z-6.350 F180
G1 X412.032 Y71.588 F650
G0 Z5.000
G0 X400.921 Y71.588
G0 Z0.500
G1 Z-1.500 F180
G1 X400.921 Y71.588 F650
G1 Z-3.000 F180
G1 X400.921 Y71.588 F650
G1 Z-4.500 F180
G1 X400.921 Y71.588 F650
G1 Z-6.000 F180
G1 X400.921 Y71.588 F650
G1 Z-6.350 F180
G1 X400.921 Y71.588 F650
G0 Z5.000
G0 X389.810 Y71.588
G0 Z0.500
G1 Z-1.500 F180
G1 X389.810 Y71.588 F650
G1 Z-3.000 F180
G1 X389.810 Y71.588 F650
G1 Z-4.500 F180
G1 X389.810 Y71.588 F650
G1 Z-6.000 F180
G1 X389.810 Y71.588 F650
G1 Z-6.350 F180
G1 X389.810 Y71.588 F650
G0 Z5.000
G0 X378.699 Y71.588
G0 Z0.500
G1 Z-1.500 F180
G1 X378.699 Y71.588 F650
G1 Z-3.000 F180
G1 X378.699 Y71.588 F650
G1 Z-4.500 F180
G1 X378.699 Y71.588 F650
G1 Z-6.000 F180
G1 X378.699 Y71.588 F650
G1 Z-6.350 F180
G1 X378.699 Y71.588 F650
G0 Z5.000
G0 X367.587 Y67.588
G0 Z0.500
G1 Z-1.500 F180
G1 X367.587 Y67.588 F650
G1 Z-3.000 F180
G1 X367.587 Y67.588 F650
G1 Z-4.500 F180
G1 X367.587 Y67.588 F650
G1 Z-6.000 F180
G1 X367.587 Y67.588 F650
G1 Z-6.350 F180
G1 X367.587 Y67.588 F650
G0 Z5.000
G0 X367.587 Y57.587
G0 Z0.500
G1 Z-1.500 F180
G1 X367.587 Y57.587 F650
G1 Z-3.000 F180
G1 X367.587 Y57.587 F650
G1 Z-4.500 F180
G1 X367.587 Y57.587 F650
G1 Z-6.000 F180
G1 X367.587 Y57.587 F650
G1 Z-6.350 F180
G1 X367.587 Y57.587 F650
G0 Z5.000
G0 X367.587 Y47.587
G0 Z0.500
G1 Z-1.500 F180
G1 X367.587 Y47.587 F650
G1 Z-3.000 F180
G1 X367.587 Y47.587 F650
G1 Z-4.500 F180
G1 X367.587 Y47.587 F650
G1 Z-6.000 F180
G1 X367.587 Y47.587 F650
G1 Z-6.350 F180
G1 X367.587 Y47.587 F650
G0 Z5.000
G0 X367.587 Y37.587
G0 Z0.500
G1 Z-1.500 F180
G1 X367.587 Y37.587 F650
G1 Z-3.000 F180
G1 X367.587 Y37.587 F650
G1 Z-4.500 F180
G1 X367.587 Y37.587 F650
G1 Z-6.000 F180
G1 X367.587 Y37.587 F650
G1 Z-6.350 F180
G1 X367.587 Y37.587 F650
G0 Z5.000
G0 X367.587 Y27.587
G0 Z0.500
G1 Z-1.500 F180
G1 X367.587 Y27.587 F650
G1 Z-3.000 F180
G1 X367.587 Y27.587 F650
G1 Z-4.500 F180
G1 X367.587 Y27.587 F650
G1 Z-6.000 F180
G1 X367.587 Y27.587 F650
G1 Z-6.350 F180
G1 X367.587 Y27.587 F650
G0 Z5.000
G0 X367.587 Y17.587
G0 Z0.500
G1 Z-1.500 F180
G1 X367.587 Y17.587 F650
G1 Z-3.000 F180
G1 X367.587 Y17.587 F650
G1 Z-4.500 F180
G1 X367.587 Y17.587 F650
G1 Z-6.000 F180
G1 X367.587 Y17.587 F650
G1 Z-6.350 F180
G1 X367.587 Y17.587 F650
G0 Z5.000
(relief holes for right)
G0 X487.587 Y7.588
G0 Z0.500
G1 Z-1.500 F180
G1 X487.587 Y7.588 F650
G1 Z-3.000 F180
G1 X487.587 Y7.588 F650
G1 Z-4.500 F180
G1 X487.587 Y7.588 F650
G1 Z-6.000 F180
G1 X487.587 Y7.588 F650
G1 Z-6.350 F180
G1 X487.587 Y7.588 F650
G0 Z5.000
G0 X498.699 Y7.588
G0 Z0.500
G1 Z-1.500 F180
G1 X498.699 Y7.588 F650
G1 Z-3.000 F180
G1 X498.699 Y7.588 F650
G1 Z-4.500 F180
G1 X498.699 Y7.588 F650
G1 Z-6.000 F180
G1 X498.699 Y7.588 F650
G1 Z-6.350 F180
G1 X498.699 Y7.588 F650
G0 Z5.000
G0 X509.810 Y7.588
G0 Z0.500
G1 Z-1.500 F180
G1 X509.810 Y7.588 F650
G1 Z-3.000 F180
G1 X509.810 Y7.588 F650
G1 Z-4.500 F180
G1 X509.810 Y7.588 F650
G1 Z-6.000 F180
G1 X509.810 Y7.588 F650
G1 Z-6.350 F180
G1 X509.810 Y7.588 F650
G0 Z5.000
G0 X520.921 Y7.588
G0 Z0.500
G1 Z-1.500 F180
G1 X520.921 Y7.588 F650
G1 Z-3.000 F180
G1 X520.921 Y7.588 F650
G1 Z-4.500 F180
G1 X520.921 Y7.588 F650
G1 Z-6.000 F180
G1 X520.921 Y7.588 F650
G1 Z-6.350 F180
G1 X520.921 Y7.588 F650
G0 Z5.000
G0 X532.032 Y7.588
G0 Z0.500
G1 Z-1.500 F180
G1 X532.032 Y7.588 F650
G1 Z-3.000 F180
G1 X532.032 Y7.588 F650
G1 Z-4.500 F180
G1 X532.032 Y7.588 F650
G1 Z-6.000 F180
G1 X532.032 Y7.588 F650
G1 Z-6.350 F180
G1 X532.032 Y7.588 F650
G0 Z5.000
G0 X543.143 Y7.588
G0 Z0.500
G1 Z-1.500 F180
G1 X543.143 Y7.588 F650
G1 Z-3.000 F180
G1 X543.143 Y7.588 F650
G1 Z-4.500 F180
G1 X543.143 Y7.588 F650
G1 Z-6.000 F180
G1 X543.143 Y7.588 F650
G1 Z-6.350 F180
G1 X543.143 Y7.588 F650
G0 Z5.000
G0 X554.254 Y7.588
G0 Z0.500
G1 Z-1.500 F180
G1 X554.254 Y7.588 F650
G1 Z-3.000 F180
G1 X554.254 Y7.588 F650
G1 Z-4.500 F180
G1 X554.254 Y7.588 F650
G1 Z-6.000 F180
G1 X554.254 Y7.588 F650
G1 Z-6.350 F180
G1 X554.254 Y7.588 F650
G0 Z5.000
G0 X565.365 Y7.588
G0 Z0.500
G1 Z-1.500 F180
G1 X565.365 Y7.588 F650
G1 Z-3.000 F180
G1 X565.365 Y7.588 F650
G1 Z-4.500 F180
G1 X565.365 Y7.588 F650
G1 Z-6.000 F180
G1 X565.365 Y7.588 F650
G1 Z-6.350 F180
G1 X565.365 Y7.588 F650
G0 Z5.000
G0 X576.476 Y7.588
G0 Z0.500
G1 Z-1.500 F180
G1 X576.476 Y7.588 F650
G1 Z-3.000 F180
G1 X576.476 Y7.588 F650
G1 Z-4.500 F180
G1 X576.476 Y7.588 F650
G1 Z-6.000 F180
G1 X576.476 Y7.588 F650
G1 Z-6.350 F180
G1 X576.476 Y7.588 F650
G0 Z5.000
G0 X581.587 Y17.587
G0 Z0.500
G1 Z-1.500 F180
G1 X581.587 Y17.587 F650
G1 Z-3.000 F180
G1 X581.587 Y17.587 F650
G1 Z-4.500 F180
G1 X581.587 Y17.587 F650
G1 Z-6.000 F180
G1 X581.587 Y17.587 F650
G1 Z-6.350 F180
G1 X581.587 Y17.587 F650
G0 Z5.000
G0 X581.587 Y27.587
G0 Z0.500
G1 Z-1.500 F180
G1 X581.587 Y27.587 F650
G1 Z-3.000 F180
G1 X581.587 Y27.587 F650
G1 Z-4.500 F180
G1 X581.587 Y27.587 F650
G1 Z-6.000 F180
G1 X581.587 Y27.587 F650
G1 Z-6.350 F180
G1 X581.587 Y27.587 F650
G0 Z5.000
G0 X581.587 Y37.587
G0 Z0.500
G1 Z-1.500 F180
G1 X581.587 Y37.587 F650
G1 Z-3.000 F180
G1 X581.587 Y37.587 F650
G1 Z-4.500 F180
G1 X581.587 Y37.587 F650
G1 Z-6.000 F180
G1 X581.587 Y37.587 F650
G1 Z-6.350 F180
G1 X581.587 Y37.587 F650
G0 Z5.000
G0 X581.587 Y47.587
G0 Z0.500
G1 Z-1.500 F180
G1 X581.587 Y47.587 F650
G1 Z-3.000 F180
G1 X581.587 Y47.587 F650
G1 Z-4.500 F180
G1 X581.587 Y47.587 F650
G1 Z-6.000 F180
G1 X581.587 Y47.587 F650
G1 Z-6.350 F180
G1 X581.587 Y47.587 F650
G0 Z5.000
G0 X581.587 Y57.587
G0 Z0.500
G1 Z-1.500 F180
G1 X581.587 Y57.587 F650
G1 Z-3.000 F180
G1 X581.587 Y57.587 F650
G1 Z-4.500 F180
G1 X581.587 Y57.587 F650
G1 Z-6.000 F180
G1 X581.587 Y57.587 F650
G1 Z-6.350 F180
G1 X581.587 Y57.587 F650
G0 Z5.000
G0 X581.587 Y67.588
G0 Z0.500
G1 Z-1.500 F180
G1 X581.587 Y67.588 F650
G1 Z-3.000 F180
G1 X581.587 Y67.588 F650
G1 Z-4.500 F180
G1 X581.587 Y67.588 F650
G1 Z-6.000 F180
G1 X581.587 Y67.588 F650
G1 Z-6.350 F180
G1 X581.587 Y67.588 F650
G0 Z5.000
G0 X576.476 Y71.588
G0 Z0.500
G1 Z-1.500 F180
G1 X576.476 Y71.588 F650
G1 Z-3.000 F180
G1 X576.476 Y71.588 F650
G1 Z-4.500 F180
G1 X576.476 Y71.588 F650
G1 Z-6.000 F180
G1 X576.476 Y71.588 F650
G1 Z-6.350 F180
G1 X576.476 Y71.588 F650
G0 Z5.000
G0 X565.365 Y71.588
G0 Z0.500
G1 Z-1.500 F180
G1 X565.365 Y71.588 F650
G1 Z-3.000 F180
G1 X565.365 Y71.588 F650
G1 Z-4.500 F180
G1 X565.365 Y71.588 F650
G1 Z-6.000 F180
G1 X565.365 Y71.588 F650
G1 Z-6.350 F180
G1 X565.365 Y71.588 F650
G0 Z5.000
G0 X554.254 Y71.588
G0 Z0.500
G1 Z-1.500 F180
G1 X554.254 Y71.588 F650
G1 Z-3.000 F180
G1 X554.254 Y71.588 F650
G1 Z-4.500 F180
G1 X554.254 Y71.588 F650
G1 Z-6.000 F180
G1 X554.254 Y71.588 F650
G1 Z-6.350 F180
G1 X554.254 Y71.588 F650
G0 Z5.000
G0 X543.143 Y71.588
G0 Z0.500
G1 Z-1.500 F180
G1 X543.143 Y71.588 F650
G1 Z-3.000 F180
G1 X543.143 Y71.588 F650
G1 Z-4.500 F180
G1 X543.143 Y71.588 F650
G1 Z-6.000 F180
G1 X543.143 Y71.588 F650
G1 Z-6.350 F180
G1 X543.143 Y71.588 F650
G0 Z5.000
G0 X532.032 Y71.588
G0 Z0.500
G1 Z-1.500 F180
G1 X532.032 Y71.588 F650
G1 Z-3.000 F180
G1 X532.032 Y71.588 F650
G1 Z-4.500 F180
G1 X532.032 Y71.588 F650
G1 Z-6.000 F180
G1 X532.032 Y71.588 F650
G1 Z-6.350 F180
G1 X532.032 Y71.588 F650
G0 Z5.000
G0 X520.921 Y71.588
G0 Z0.500
G1 Z-1.500 F180
G1 X520.921 Y71.588 F650
G1 Z-3.000 F180
G1 X520.921 Y71.588 F650
G1 Z-4.500 F180
G1 X520.921 Y71.588 F650
G1 Z-6.000 F180
G1 X520.921 Y71.588 F650
G1 Z-6.350 F180
G1 X520.921 Y71.588 F650
G0 Z5.000
G0 X509.810 Y71.588
G0 Z0.500
G1 Z-1.500 F180
G1 X509.810 Y71.588 F650
G1 Z-3.000 F180
G1 X509.810 Y71.588 F650
G1 Z-4.500 F180
G1 X509.810 Y71.588 F650
G1 Z-6.000 F180
G1 X509.810 Y71.588 F650
G1 Z-6.350 F180
G1 X509.810 Y71.588 F650
G0 Z5.000
G0 X498.699 Y71.588
G0 Z0.500
G1 Z-1.500 F180
G1 X498.699 Y71.588 F650
G1 Z-3.000 F180
G1 X498.699 Y71.588 F650
G1 Z-4.500 F180
G1 X498.699 Y71.588 F650
G1 Z-6.000 F180
G1 X498.699 Y71.588 F650
G1 Z-6.350 F180
G1 X498.699 Y71.588 F650
G0 Z5.000
G0 X487.587 Y67.588
G0 Z0.500
G1 Z-1.500 F180
G1 X487.587 Y67.588 F650
G1 Z-3.000 F180
G1 X487.587 Y67.588 F650
G1 Z-4.500 F180
G1 X487.587 Y67.588 F650
G1 Z-6.000 F180
G1 X487.587 Y67.588 F650
G1 Z-6.350 F180
G1 X487.587 Y67.588 F650
G0 Z5.000
G0 X487.587 Y57.587
G0 Z0.500
G1 Z-1.500 F180
G1 X487.587 Y57.587 F650
G1 Z-3.000 F180
G1 X487.587 Y57.587 F650
G1 Z-4.500 F180
G1 X487.587 Y57.587 F650
G1 Z-6.000 F180
G1 X487.587 Y57.587 F650
G1 Z-6.350 F180
G1 X487.587 Y57.587 F650
G0 Z5.000
G0 X487.587 Y47.587
G0 Z0.500
G1 Z-1.500 F180
G1 X487.587 Y47.587 F650
G1 Z-3.000 F180
G1 X487.587 Y47.587 F650
G1 Z-4.500 F180
G1 X487.587 Y47.587 F650
G1 Z-6.000 F180
G1 X487.587 Y47.587 F650
G1 Z-6.350 F180
G1 X487.587 Y47.587 F650
G0 Z5.000
G0 X487.587 Y37.587
G0 Z0.500
G1 Z-1.500 F180
G1 X487.587 Y37.587 F650
G1 Z-3.000 F180
G1 X487.587 Y37.587 F650
G1 Z-4.500 F180
G1 X487.587 Y37.587 F650
G1 Z-6.000 F180
G1 X487.587 Y37.587 F650
G1 Z-6.350 F180
G1 X487.587 Y37.587 F650
G0 Z5.000
G0 X487.587 Y27.587
G0 Z0.500
G1 Z-1.500 F180
G1 X487.587 Y27.587 F650
G1 Z-3.000 F180
G1 X487.587 Y27.587 F650
G1 Z-4.500 F180
G1 X487.587 Y27.587 F650
G1 Z-6.000 F180
G1 X487.587 Y27.587 F650
G1 Z-6.350 F180
G1 X487.587 Y27.587 F650
G0 Z5.000
G0 X487.587 Y17.587
G0 Z0.500
G1 Z-1.500 F180
G1 X487.587 Y17.587 F650
G1 Z-3.000 F180
G1 X487.587 Y17.587 F650
G1 Z-4.500 F180
G1 X487.587 Y17.587 F650
G1 Z-6.000 F180
G1 X487.587 Y17.587 F650
G1 Z-6.350 F180
G1 X487.587 Y17.587 F650
G0 Z5.000
(relief holes for bottom)
G0 X7.588 Y97.588
G0 Z0.500
G1 Z-1.500 F180
G1 X7.588 Y97.588 F650
G1 Z-3.000 F180
G1 X7.588 Y97.588 F650
G1 Z-4.500 F180
G1 X7.588 Y97.588 F650
G1 Z-6.000 F180
G1 X7.588 Y97.588 F650
G1 Z-6.350 F180
G1 X7.588 Y97.588 F650
G0 Z5.000
G0 X18.254 Y97.588
G0 Z0.500
G1 Z-1.500 F180
G1 X18.254 Y97.588 F650
G1 Z-3.000 F180
G1 X18.254 Y97.588 F650
G1 Z-4.500 F180
G1 X18.254 Y97.588 F650
G1 Z-6.000 F180
G1 X18.254 Y97.588 F650
G1 Z-6.350 F180
G1 X18.254 Y97.588 F650
G0 Z5.000
G0 X28.921 Y97.588
G0 Z0.500
G1 Z-1.500 F180
G1 X28.921 Y97.588 F650
G1 Z-3.000 F180
G1 X28.921 Y97.588 F650
G1 Z-4.500 F180
G1 X28.921 Y97.588 F650
G1 Z-6.000 F180
G1 X28.921 Y97.588 F650
G1 Z-6.350 F180
G1 X28.921 Y97.588 F650
G0 Z5.000
G0 X39.587 Y97.588
G0 Z0.500
G1 Z-1.500 F180
G1 X39.587 Y97.588 F650
G1 Z-3.000 F180
G1 X39.587 Y97.588 F650
G1 Z-4.500 F180
G1 X39.587 Y97.588 F650
G1 Z-6.000 F180
G1 X39.587 Y97.588 F650
G1 Z-6.350 F180
G1 X39.587 Y97.588 F650
G0 Z5.000
G0 X50.254 Y97.588
G0 Z0.500
G1 Z-1.500 F180
G1 X50.254 Y97.588 F650
G1 Z-3.000 F180
G1 X50.254 Y97.588 F650
G1 Z-4.500 F180
G1 X50.254 Y97.588 F650
G1 Z-6.000 F180
G1 X50.254 Y97.588 F650
G1 Z-6.350 F180
G1 X50.254 Y97.588 F650
G0 Z5.000
G0 X60.921 Y97.588
G0 Z0.500
G1 Z-1.500 F180
G1 X60.921 Y97.588 F650
G1 Z-3.000 F180
G1 X60.921 Y97.588 F650
G1 Z-4.500 F180
G1 X60.921 Y97.588 F650
G1 Z-6.000 F180
G1 X60.921 Y97.588 F650
G1 Z-6.350 F180
G1 X60.921 Y97.588 F650
G0 Z5.000
G0 X71.588 Y97.588
G0 Z0.500
G1 Z-1.500 F180
G1 X71.588 Y97.588 F650
G1 Z-3.000 F180
G1 X71.588 Y97.588 F650
G1 Z-4.500 F180
G1 X71.588 Y97.588 F650
G1 Z-6.000 F180
G1 X71.588 Y97.588 F650
G1 Z-6.350 F180
G1 X71.588 Y97.588 F650
G0 Z5.000
G0 X82.254 Y97.588
G0 Z0.500
G1 Z-1.500 F180
G1 X82.254 Y97.588 F650
G1 Z-3.000 F180
G1 X82.254 Y97.588 F650
G1 Z-4.500 F180
G1 X82.254 Y97.588 F650
G1 Z-6.000 F180
G1 X82.254 Y97.588 F650
G1 Z-6.350 F180
G1 X82.254 Y97.588 F650
G0 Z5.000
G0 X92.921 Y97.588
G0 Z0.500
G1 Z-1.500 F180
G1 X92.921 Y97.588 F650
G1 Z-3.000 F180
G1 X92.921 Y97.588 F650
G1 Z-4.500 F180
G1 X92.921 Y97.588 F650
G1 Z-6.000 F180
G1 X92.921 Y97.588 F650
G1 Z-6.350 F180
G1 X92.921 Y97.588 F650
G0 Z5.000
G0 X103.588 Y97.588
G0 Z0.500
G1 Z-1.500 F180
G1 X103.588 Y97.588 F650
G1 Z-3.000 F180
G1 X103.588 Y97.588 F650
G1 Z-4.500 F180
G1 X103.588 Y97.588 F650
G1 Z-6.000 F180
G1 X103.588 Y97.588 F650
G1 Z-6.350 F180
G1 X103.588 Y97.588 F650
G0 Z5.000
G0 X114.254 Y97.588
G0 Z0.500
G1 Z-1.500 F180
G1 X114.254 Y97.588 F650
G1 Z-3.000 F180
G1 X114.254 Y97.588 F650
G1 Z-4.500 F180
G1 X114.254 Y97.588 F650
G1 Z-6.000 F180
G1 X114.254 Y97.588 F650
G1 Z-6.350 F180
G1 X114.254 Y97.588 F650
G0 Z5.000
G0 X124.921 Y97.588
G0 Z0.500
G1 Z-1.500 F180
G1 X124.921 Y97.588 F650
G1 Z-3.000 F180
G1 X124.921 Y97.588 F650
G1 Z-4.500 F180
G1 X124.921 Y97.588 F650
G1 Z-6.000 F180
G1 X124.921 Y97.588 F650
G1 Z-6.350 F180
G1 X124.921 Y97.588 F650
G0 Z5.000
G0 X135.588 Y97.588
G0 Z0.500
G1 Z-1.500 F180
G1 X135.588 Y97.588 F650
G1 Z-3.000 F180
G1 X135.588 Y97.588 F650
G1 Z-4.500 F180
G1 X135.588 Y97.588 F650
G1 Z-6.000 F180
G1 X135.588 Y97.588 F650
G1 Z-6.350 F180
G1 X135.588 Y97.588 F650
G0 Z5.000
G0 X146.254 Y97.588
G0 Z0.500
G1 Z-1.500 F180
G1 X146.254 Y97.588 F650
G1 Z-3.000 F180
G1 X146.254 Y97.588 F650
G1 Z-4.500 F180
G1 X146.254 Y97.588 F650
G1 Z-6.000 F180
G1 X146.254 Y97.588 F650
G1 Z-6.350 F180
G1 X146.254 Y97.588 F650
G0 Z5.000
G0 X156.921 Y97.588
G0 Z0.500
G1 Z-1.500 F180
G1 X156.921 Y97.588 F650
G1 Z-3.000 F180
G1 X156.921 Y97.588 F650
G1 Z-4.500 F180
G1 X156.921 Y97.588 F650
G1 Z-6.000 F180
G1 X156.921 Y97.588 F650
G1 Z-6.350 F180
G1 X156.921 Y97.588 F650
G0 Z5.000
G0 X167.588 Y97.588
G0 Z0.500
G1 Z-1.500 F180
G1 X167.588 Y97.588 F650
G1 Z-3.000 F180
G1 X167.588 Y97.588 F650
G1 Z-4.500 F180
G1 X167.588 Y97.588 F650
G1 Z-6.000 F180
G1 X167.588 Y97.588 F650
G1 Z-6.350 F180
G1 X167.588 Y97.588 F650
G0 Z5.000
G0 X167.588 Y108.699
G0 Z0.500
G1 Z-1.500 F180
G1 X167.588 Y108.699 F650
G1 Z-3.000 F180
G1 X167.588 Y108.699 F650
G1 Z-4.500 F180
G1 X167.588 Y108.699 F650
G1 Z-6.000 F180
G1 X167.588 Y108.699 F650
G1 Z-6.350 F180
G1 X167.588 Y108.699 F650
G0 Z5.000
G0 X167.588 Y119.810
G0 Z0.500
G1 Z-1.500 F180
G1 X167.588 Y119.810 F650
G1 Z-3.000 F180
G1 X167.588 Y119.810 F650
G1 Z-4.500 F180
G1 X167.588 Y119.810 F650
G1 Z-6.000 F180
G1 X167.588 Y119.810 F650
G1 Z-6.350 F180
G1 X167.588 Y119.810 F650
G0 Z5.000
G0 X167.588 Y130.921
G0 Z0.500
G1 Z-1.500 F180
G1 X167.588 Y130.921 F650
G1 Z-3.000 F180
G1 X167.588 Y130.921 F650
G1 Z-4.500 F180
G1 X167.588 Y130.921 F650
G1 Z-6.000 F180
G1 X167.588 Y130.921 F650
G1 Z-6.350 F180
G1 X167.588 Y130.921 F650
G0 Z5.000
G0 X167.588 Y142.032
G0 Z0.500
G1 Z-1.500 F180
G1 X167.588 Y142.032 F650
G1 Z-3.000 F180
G1 X167.588 Y142.032 F650
G1 Z-4.500 F180
G1 X167.588 Y142.032 F650
G1 Z-6.000 F180
G1 X167.588 Y142.032 F650
G1 Z-6.350 F180
G1 X167.588 Y142.032 F650
G0 Z5.000
G0 X167.588 Y153.143
G0 Z0.500
G1 Z-1.500 F180
G1 X167.588 Y153.143 F650
G1 Z-3.000 F180
G1 X167.588 Y153.143 F650
G1 Z-4.500 F180
G1 X167.588 Y153.143 F650
G1 Z-6.000 F180
G1 X167.588 Y153.143 F650
G1 Z-6.350 F180
G1 X167.588 Y153.143 F650
G0 Z5.000
G0 X167.588 Y164.254
G0 Z0.500
G1 Z-1.500 F180
G1 X167.588 Y164.254 F650
G1 Z-3.000 F180
G1 X167.588 Y164.254 F650
G1 Z-4.500 F180
G1 X167.588 Y164.254 F650
G1 Z-6.000 F180
G1 X167.588 Y164.254 F650
G1 Z-6.350 F180
G1 X167.588 Y164.254 F650
G0 Z5.000
G0 X167.588 Y175.365
G0 Z0.500
G1 Z-1.500 F180
G1 X167.588 Y175.365 F650
G1 Z-3.000 F180
G1 X167.588 Y175.365 F650
G1 Z-4.500 F180
G1 X167.588 Y175.365 F650
G1 Z-6.000 F180
G1 X167.588 Y175.365 F650
G1 Z-6.350 F180
G1 X167.588 Y175.365 F650
G0 Z5.000
G0 X167.588 Y186.476
G0 Z0.500
G1 Z-1.500 F180
G1 X167.588 Y186.476 F650
G1 Z-3.000 F180
G1 X167.588 Y186.476 F650
G1 Z-4.500 F180
G1 X167.588 Y186.476 F650
G1 Z-6.000 F180
G1 X167.588 Y186.476 F650
G1 Z-6.350 F180
G1 X167.588 Y186.476 F650
G0 Z5.000
G0 X167.588 Y197.588
G0 Z0.500
G1 Z-1.500 F180
G1 X167.588 Y197.588 F650
G1 Z-3.000 F180
G1 X167.588 Y197.588 F650
G1 Z-4.500 F180
G1 X167.588 Y197.588 F650
G1 Z-6.000 F180
G1 X167.588 Y197.588 F650
G1 Z-6.350 F180
G1 X167.588 Y197.588 F650
G0 Z5.000
G0 X156.921 Y197.588
G0 Z0.500
G1 Z-1.500 F180
G1 X156.921 Y197.588 F650
G1 Z-3.000 F180
G1 X156.921 Y197.588 F650
G1 Z-4.500 F180
G1 X156.921 Y197.588 F650
G1 Z-6.000 F180
G1 X156.921 Y197.588 F650
G1 Z-6.350 F180
G1 X156.921 Y197.588 F650
G0 Z5.000
G0 X146.254 Y197.588
G0 Z0.500
G1 Z-1.500 F180
G1 X146.254 Y197.588 F650
G1 Z-3.000 F180
G1 X146.254 Y197.588 F650
G1 Z-4.500 F180
G1 X146.254 Y197.588 F650
G1 Z-6.000 F180
G1 X146.254 Y197.588 F650
G1 Z-6.350 F180
G1 X146.254 Y197.588 F650
G0 Z5.000
G0 X135.588 Y197.588
G0 Z0.500
G1 Z-1.500 F180
G1 X135.588 Y197.588 F650
G1 Z-3.000 F180
G1 X135.588 Y197.588 F650
G1 Z-4.500 F180
G1 X135.588 Y197.588 F650
G1 Z-6.000 F180
G1 X135.588 Y197.588 F650
G1 Z-6.350 F180
G1 X135.588 Y197.588 F650
G0 Z5.000
G0 X124.921 Y197.588
G0 Z0.500
G1 Z-1.500 F180
G1 X124.921 Y197.588 F650
G1 Z-3.000 F180
G1 X124.921 Y197.588 F650
G1 Z-4.500 F180
G1 X124.921 Y197.588 F650
G1 Z-6.000 F180
G1 X124.921 Y197.588 F650
G1 Z-6.350 F180
G1 X124.921 Y197.588 F650
G0 Z5.000
G0 X114.254 Y197.588
G0 Z0.500
G1 Z-1.500 F180
G1 X114.254 Y197.588 F650
G1 Z-3.000 F180
G1 X114.254 Y197.588 F650
G1 Z-4.500 F180
G1 X114.254 Y197.588 F650
G1 Z-6.000 F180
G1 X114.254 Y197.588 F650
G1 Z-6.350 F180
G1 X114.254 Y197.588 F650
G0 Z5.000
G0 X103.588 Y197.588
G0 Z0.500
G1 Z-1.500 F180
G1 X103.588 Y197.588 F650
G1 Z-3.000 F180
G1 X103.588 Y197.588 F650
G1 Z-4.500 F180
G1 X103.588 Y197.588 F650
G1 Z-6.000 F180
G1 X103.588 Y197.588 F650
G1 Z-6.350 F180
G1 X103.588 Y197.588 F650
G0 Z5.000
G0 X92.921 Y197.588
G0 Z0.500
G1 Z-1.500 F180
G1 X92.921 Y197.588 F650
G1 Z-3.000 F180
G1 X92.921 Y197.588 F650
G1 Z-4.500 F180
G1 X92.921 Y197.588 F650
G1 Z-6.000 F180
G1 X92.921 Y197.588 F650
G1 Z-6.350 F180
G1 X92.921 Y197.588 F650
G0 Z5.000
G0 X82.254 Y197.588
G0 Z0.500
G1 Z-1.500 F180
G1 X82.254 Y197.588 F650
G1 Z-3.000 F180
G1 X82.254 Y197.588 F650
G1 Z-4.500 F180
G1 X82.254 Y197.588 F650
G1 Z-6.000 F180
G1 X82.254 Y197.588 F650
G1 Z-6.350 F180
G1 X82.254 Y197.588 F650
G0 Z5.000
G0 X71.588 Y197.588
G0 Z0.500
G1 Z-1.500 F180
G1 X71.588 Y197.588 F650
G1 Z-3.000 F180
G1 X71.588 Y197.588 F650
G1 Z-4.500 F180
G1 X71.588 Y197.588 F650
G1 Z-6.000 F180
G1 X71.588 Y197.588 F650
G1 Z-6.350 F180
G1 X71.588 Y197.588 F650
G0 Z5.000
G0 X60.921 Y197.588
G0 Z0.500
G1 Z-1.500 F180
G1 X60.921 Y197.588 F650
G1 Z-3.000 F180
G1 X60.921 Y197.588 F650
G1 Z-4.500 F180
G1 X60.921 Y197.588 F650
G1 Z-6.000 F180
G1 X60.921 Y197.588 F650
G1 Z-6.350 F180
G1 X60.921 Y197.588 F650
G0 Z5.000
G0 X50.254 Y197.588
G0 Z0.500
G1 Z-1.500 F180
G1 X50.254 Y197.588 F650
G1 Z-3.000 F180
G1 X50.254 Y197.588 F650
G1 Z-4.500 F180
G1 X50.254 Y197.588 F650
G1 Z-6.000 F180
G1 X50.254 Y197.588 F650
G1 Z-6.350 F180
G1 X50.254 Y197.588 F650
G0 Z5.000
G0 X39.587 Y197.588
G0 Z0.500
G1 Z-1.500 F180
G1 X39.587 Y197.588 F650
G1 Z-3.000 F180
G1 X39.587 Y197.588 F650
G1 Z-4.500 F180
G1 X39.587 Y197.588 F650
G1 Z-6.000 F180
G1 X39.587 Y197.588 F650
G1 Z-6.350 F180
G1 X39.587 Y197.588 F650
G0 Z5.000
G0 X28.921 Y197.588
G0 Z0.500
G1 Z-1.500 F180
G1 X28.921 Y197.588 F650
G1 Z-3.000 F180
G1 X28.921 Y197.588 F650
G1 Z-4.500 F180
G1 X28.921 Y197.588 F650
G1 Z-6.000 F180
G1 X28.921 Y197.588 F650
G1 Z-6.350 F180
G1 X28.921 Y197.588 F650
G0 Z5.000
G0 X18.254 Y197.588
G0 Z0.500
G1 Z-1.500 F180
G1 X18.254 Y197.588 F650
G1 Z-3.000 F180
G1 X18.254 Y197.588 F650
G1 Z-4.500 F180
G1 X18.254 Y197.588 F650
G1 Z-6.000 F180
G1 X18.254 Y197.588 F650
G1 Z-6.350 F180
G1 X18.254 Y197.588 F650
G0 Z5.000
G0 X7.588 Y197.588
G0 Z0.500
G1 Z-1.500 F180
G1 X7.588 Y197.588 F650
G1 Z-3.000 F180
G1 X7.588 Y197.588 F650
G1 Z-4.500 F180
G1 X7.588 Y197.588 F650
G1 Z-6.000 F180
G1 X7.588 Y197.588 F650
G1 Z-6.350 F180
G1 X7.588 Y197.588 F650
G0 Z5.000
G0 X7.588 Y186.476
G0 Z0.500
G1 Z-1.500 F180
G1 X7.588 Y186.476 F650
G1 Z-3.000 F180
G1 X7.588 Y186.476 F650
G1 Z-4.500 F180
G1 X7.588 Y186.476 F650
G1 Z-6.000 F180
G1 X7.588 Y186.476 F650
G1 Z-6.350 F180
G1 X7.588 Y186.476 F650
G0 Z5.000
G0 X7.588 Y175.365
G0 Z0.500
G1 Z-1.500 F180
G1 X7.588 Y175.365 F650
G1 Z-3.000 F180
G1 X7.588 Y175.365 F650
G1 Z-4.500 F180
G1 X7.588 Y175.365 F650
G1 Z-6.000 F180
G1 X7.588 Y175.365 F650
G1 Z-6.350 F180
G1 X7.588 Y175.365 F650
G0 Z5.000
G0 X7.588 Y164.254
G0 Z0.500
G1 Z-1.500 F180
G1 X7.588 Y164.254 F650
G1 Z-3.000 F180
G1 X7.588 Y164.254 F650
G1 Z-4.500 F180
G1 X7.588 Y164.254 F650
G1 Z-6.000 F180
G1 X7.588 Y164.254 F650
G1 Z-6.350 F180
G1 X7.588 Y164.254 F650
G0 Z5.000
G0 X7.588 Y153.143
G0 Z0.500
G1 Z-1.500 F180
G1 X7.588 Y153.143 F650
G1 Z-3.000 F180
G1 X7.588 Y153.143 F650
G1 Z-4.500 F180
G1 X7.588 Y153.143 F650
G1 Z-6.000 F180
G1 X7.588 Y153.143 F650
G1 Z-6.350 F180
G1 X7.588 Y153.143 F650
G0 Z5.000
G0 X7.588 Y142.032
G0 Z0.500
G1 Z-1.500 F180
G1 X7.588 Y142.032 F650
G1 Z-3.000 F180
G1 X7.588 Y142.032 F650
G1 Z-4.500 F180
G1 X7.588 Y142.032 F650
G1 Z-6.000 F180
G1 X7.588 Y142.032 F650
G1 Z-6.350 F180
G1 X7.588 Y142.032 F650
G0 Z5.000
G0 X7.588 Y130.921
G0 Z0.500
G1 Z-1.500 F180
G1 X7.588 Y130.921 F650
G1 Z-3.000 F180
G1 X7.588 Y130.921 F650
G1 Z-4.500 F180
G1 X7.588 Y130.921 F650
G1 Z-6.000 F180
G1 X7.588 Y130.921 F650
G1 Z-6.350 F180
G1 X7.588 Y130.921 F650
G0 Z5.000
G0 X7.588 Y119.810
G0 Z0.500
G1 Z-1.500 F180
G1 X7.588 Y119.810 F650
G1 Z-3.000 F180
G1 X7.588 Y119.810 F650
G1 Z-4.500 F180
G1 X7.588 Y119.810 F650
G1 Z-6.000 F180
G1 X7.588 Y119.810 F650
G1 Z-6.350 F180
G1 X7.588 Y119.810 F650
G0 Z5.000
G0 X7.588 Y108.699
G0 Z0.500
G1 Z-1.500 F180
G1 X7.588 Y108.699 F650
G1 Z-3.000 F180
G1 X7.588 Y108.699 F650
G1 Z-4.500 F180
G1 X7.588 Y108.699 F650
G1 Z-6.000 F180
G1 X7.588 Y108.699 F650
G1 Z-6.350 F180
G1 X7.588 Y108.699 F650
G0 Z5.000
(relief holes for top)
G0 X198.254 Y97.588
G0 Z0.500
G1 Z-1.500 F180
G1 X198.254 Y97.588 F650
G1 Z-3.000 F180
G1 X198.254 Y97.588 F650
G1 Z-4.500 F180
G1 X198.254 Y97.588 F650
G1 Z-6.000 F180
G1 X198.254 Y97.588 F650
G1 Z-6.350 F180
G1 X198.254 Y97.588 F650
G0 Z5.000
G0 X208.921 Y97.588
G0 Z0.500
G1 Z-1.500 F180
G1 X208.921 Y97.588 F650
G1 Z-3.000 F180
G1 X208.921 Y97.588 F650
G1 Z-4.500 F180
G1 X208.921 Y97.588 F650
G1 Z-6.000 F180
G1 X208.921 Y97.588 F650
G1 Z-6.350 F180
G1 X208.921 Y97.588 F650
G0 Z5.000
G0 X219.588 Y97.588
G0 Z0.500
G1 Z-1.500 F180
G1 X219.588 Y97.588 F650
G1 Z-3.000 F180
G1 X219.588 Y97.588 F650
G1 Z-4.500 F180
G1 X219.588 Y97.588 F650
G1 Z-6.000 F180
G1 X219.588 Y97.588 F650
G1 Z-6.350 F180
G1 X219.588 Y97.588 F650
G0 Z5.000
G0 X230.254 Y97.588
G0 Z0.500
G1 Z-1.500 F180
G1 X230.254 Y97.588 F650
G1 Z-3.000 F180
G1 X230.254 Y97.588 F650
G1 Z-4.500 F180
G1 X230.254 Y97.588 F650
G1 Z-6.000 F180
G1 X230.254 Y97.588 F650
G1 Z-6.350 F180
G1 X230.254 Y97.588 F650
G0 Z5.000
G0 X240.921 Y97.588
G0 Z0.500
G1 Z-1.500 F180
G1 X240.921 Y97.588 F650
G1 Z-3.000 F180
G1 X240.921 Y97.588 F650
G1 Z-4.500 F180
G1 X240.921 Y97.588 F650
G1 Z-6.000 F180
G1 X240.921 Y97.588 F650
G1 Z-6.350 F180
G1 X240.921 Y97.588 F650
G0 Z5.000
G0 X251.588 Y97.588
G0 Z0.500
G1 Z-1.500 F180
G1 X251.588 Y97.588 F650
G1 Z-3.000 F180
G1 X251.588 Y97.588 F650
G1 Z-4.500 F180
G1 X251.588 Y97.588 F650
G1 Z-6.000 F180
G1 X251.588 Y97.588 F650
G1 Z-6.350 F180
G1 X251.588 Y97.588 F650
G0 Z5.000
G0 X262.254 Y97.588
G0 Z0.500
G1 Z-1.500 F180
G1 X262.254 Y97.588 F650
G1 Z-3.000 F180
G1 X262.254 Y97.588 F650
G1 Z-4.500 F180
G1 X262.254 Y97.588 F650
G1 Z-6.000 F180
G1 X262.254 Y97.588 F650
G1 Z-6.350 F180
G1 X262.254 Y97.588 F650
G0 Z5.000
G0 X272.921 Y97.588
G0 Z0.500
G1 Z-1.500 F180
G1 X272.921 Y97.588 F650
G1 Z-3.000 F180
G1 X272.921 Y97.588 F650
G1 Z-4.500 F180
G1 X272.921 Y97.588 F650
G1 Z-6.000 F180
G1 X272.921 Y97.588 F650
G1 Z-6.350 F180
G1 X272.921 Y97.588 F650
G0 Z5.000
G0 X283.587 Y97.588
G0 Z0.500
G1 Z-1.500 F180
G1 X283.587 Y97.588 F650
G1 Z-3.000 F180
G1 X283.587 Y97.588 F650
G1 Z-4.500 F180
G1 X283.587 Y97.588 F650
G1 Z-6.000 F180
G1 X283.587 Y97.588 F650
G1 Z-6.350 F180
G1 X283.587 Y97.588 F650
G0 Z5.000
G0 X294.254 Y97.588
G0 Z0.500
G1 Z-1.500 F180
G1 X294.254 Y97.588 F650
G1 Z-3.000 F180
G1 X294.254 Y97.588 F650
G1 Z-4.500 F180
G1 X294.254 Y97.588 F650
G1 Z-6.000 F180
G1 X294.254 Y97.588 F650
G1 Z-6.350 F180
G1 X294.254 Y97.588 F650
G0 Z5.000
G0 X304.921 Y97.588
G0 Z0.500
G1 Z-1.500 F180
G1 X304.921 Y97.588 F650
G1 Z-3.000 F180
G1 X304.921 Y97.588 F650
G1 Z-4.500 F180
G1 X304.921 Y97.588 F650
G1 Z-6.000 F180
G1 X304.921 Y97.588 F650
G1 Z-6.350 F180
G1 X304.921 Y97.588 F650
G0 Z5.000
G0 X315.587 Y97.588
G0 Z0.500
G1 Z-1.500 F180
G1 X315.587 Y97.588 F650
G1 Z-3.000 F180
G1 X315.587 Y97.588 F650
G1 Z-4.500 F180
G1 X315.587 Y97.588 F650
G1 Z-6.000 F180
G1 X315.587 Y97.588 F650
G1 Z-6.350 F180
G1 X315.587 Y97.588 F650
G0 Z5.000
G0 X326.254 Y97.588
G0 Z0.500
G1 Z-1.500 F180
G1 X326.254 Y97.588 F650
G1 Z-3.000 F180
G1 X326.254 Y97.588 F650
G1 Z-4.500 F180
G1 X326.254 Y97.588 F650
G1 Z-6.000 F180
G1 X326.254 Y97.588 F650
G1 Z-6.350 F180
G1 X326.254 Y97.588 F650
G0 Z5.000
G0 X336.921 Y97.588
G0 Z0.500
G1 Z-1.500 F180
G1 X336.921 Y97.588 F650
G1 Z-3.000 F180
G1 X336.921 Y97.588 F650
G1 Z-4.500 F180
G1 X336.921 Y97.588 F650
G1 Z-6.000 F180
G1 X336.921 Y97.588 F650
G1 Z-6.350 F180
G1 X336.921 Y97.588 F650
G0 Z5.000
G0 X341.587 Y102.699
G0 Z0.500
G1 Z-1.500 F180
G1 X341.587 Y102.699 F650
G1 Z-3.000 F180
G1 X341.587 Y102.699 F650
G1 Z-4.500 F180
G1 X341.587 Y102.699 F650
G1 Z-6.000 F180
G1 X341.587 Y102.699 F650
G1 Z-6.350 F180
G1 X341.587 Y102.699 F650
G0 Z5.000
G0 X341.587 Y113.810
G0 Z0.500
G1 Z-1.500 F180
G1 X341.587 Y113.810 F650
G1 Z-3.000 F180
G1 X341.587 Y113.810 F650
G1 Z-4.500 F180
G1 X341.587 Y113.810 F650
G1 Z-6.000 F180
G1 X341.587 Y113.810 F650
G1 Z-6.350 F180
G1 X341.587 Y113.810 F650
G0 Z5.000
G0 X341.587 Y124.921
G0 Z0.500
G1 Z-1.500 F180
G1 X341.587 Y124.921 F650
G1 Z-3.000 F180
G1 X341.587 Y124.921 F650
G1 Z-4.500 F180
G1 X341.587 Y124.921 F650
G1 Z-6.000 F180
G1 X341.587 Y124.921 F650
G1 Z-6.350 F180
G1 X341.587 Y124.921 F650
G0 Z5.000
G0 X341.587 Y136.032
G0 Z0.500
G1 Z-1.500 F180
G1 X341.587 Y136.032 F650
G1 Z-3.000 F180
G1 X341.587 Y136.032 F650
G1 Z-4.500 F180
G1 X341.587 Y136.032 F650
G1 Z-6.000 F180
G1 X341.587 Y136.032 F650
G1 Z-6.350 F180
G1 X341.587 Y136.032 F650
G0 Z5.000
G0 X341.587 Y147.143
G0 Z0.500
G1 Z-1.500 F180
G1 X341.587 Y147.143 F650
G1 Z-3.000 F180
G1 X341.587 Y147.143 F650
G1 Z-4.500 F180
G1 X341.587 Y147.143 F650
G1 Z-6.000 F180
G1 X341.587 Y147.143 F650
G1 Z-6.350 F180
G1 X341.587 Y147.143 F650
G0 Z5.000
G0 X341.587 Y158.254
G0 Z0.500
G1 Z-1.500 F180
G1 X341.587 Y158.254 F650
G1 Z-3.000 F180
G1 X341.587 Y158.254 F650
G1 Z-4.500 F180
G1 X341.587 Y158.254 F650
G1 Z-6.000 F180
G1 X341.587 Y158.254 F650
G1 Z-6.350 F180
G1 X341.587 Y158.254 F650
G0 Z5.000
G0 X341.587 Y169.365
G0 Z0.500
G1 Z-1.500 F180
G1 X341.587 Y169.365 F650
G1 Z-3.000 F180
G1 X341.587 Y169.365 F650
G1 Z-4.500 F180
G1 X341.587 Y169.365 F650
G1 Z-6.000 F180
G1 X341.587 Y169.365 F650
G1 Z-6.350 F180
G1 X341.587 Y169.365 F650
G0 Z5.000
G0 X341.587 Y180.476
G0 Z0.500
G1 Z-1.500 F180
G1 X341.587 Y180.476 F650
G1 Z-3.000 F180
G1 X341.587 Y180.476 F650
G1 Z-4.500 F180
G1 X341.587 Y180.476 F650
G1 Z-6.000 F180
G1 X341.587 Y180.476 F650
G1 Z-6.350 F180
G1 X341.587 Y180.476 F650
G0 Z5.000
G0 X336.921 Y185.588
G0 Z0.500
G1 Z-1.500 F180
G1 X336.921 Y185.588 F650
G1 Z-3.000 F180
G1 X336.921 Y185.588 F650
G1 Z-4.500 F180
G1 X336.921 Y185.588 F650
G1 Z-6.000 F180
G1 X336.921 Y185.588 F650
G1 Z-6.350 F180
G1 X336.921 Y185.588 F650
G0 Z5.000
G0 X326.254 Y185.588
G0 Z0.500
G1 Z-1.500 F180
G1 X326.254 Y185.588 F650
G1 Z-3.000 F180
G1 X326.254 Y185.588 F650
G1 Z-4.500 F180
G1 X326.254 Y185.588 F650
G1 Z-6.000 F180
G1 X326.254 Y185.588 F650
G1 Z-6.350 F180
G1 X326.254 Y185.588 F650
G0 Z5.000
G0 X315.587 Y185.588
G0 Z0.500
G1 Z-1.500 F180
G1 X315.587 Y185.588 F650
G1 Z-3.000 F180
G1 X315.587 Y185.588 F650
G1 Z-4.500 F180
G1 X315.587 Y185.588 F650
G1 Z-6.000 F180
G1 X315.587 Y185.588 F650
G1 Z-6.350 F180
G1 X315.587 Y185.588 F650
G0 Z5.000
G0 X304.921 Y185.588
G0 Z0.500
G1 Z-1.500 F180
G1 X304.921 Y185.588 F650
G1 Z-3.000 F180
G1 X304.921 Y185.588 F650
G1 Z-4.500 F180
G1 X304.921 Y185.588 F650
G1 Z-6.000 F180
G1 X304.921 Y185.588 F650
G1 Z-6.350 F180
G1 X304.921 Y185.588 F650
G0 Z5.000
G0 X294.254 Y185.588
G0 Z0.500
G1 Z-1.500 F180
G1 X294.254 Y185.588 F650
G1 Z-3.000 F180
G1 X294.254 Y185.588 F650
G1 Z-4.500 F180
G1 X294.254 Y185.588 F650
G1 Z-6.000 F180
G1 X294.254 Y185.588 F650
G1 Z-6.350 F180
G1 X294.254 Y185.588 F650
G0 Z5.000
G0 X283.587 Y185.588
G0 Z0.500
G1 Z-1.500 F180
G1 X283.587 Y185.588 F650
G1 Z-3.000 F180
G1 X283.587 Y185.588 F650
G1 Z-4.500 F180
G1 X283.587 Y185.588 F650
G1 Z-6.000 F180
G1 X283.587 Y185.588 F650
G1 Z-6.350 F180
G1 X283.587 Y185.588 F650
G0 Z5.000
G0 X272.921 Y185.588
G0 Z0.500
G1 Z-1.500 F180
G1 X272.921 Y185.588 F650
G1 Z-3.000 F180
G1 X272.921 Y185.588 F650
G1 Z-4.500 F180
G1 X272.921 Y185.588 F650
G1 Z-6.000 F180
G1 X272.921 Y185.588 F650
G1 Z-6.350 F180
G1 X272.921 Y185.588 F650
G0 Z5.000
G0 X262.254 Y185.588
G0 Z0.500
G1 Z-1.500 F180
G1 X262.254 Y185.588 F650
G1 Z-3.000 F180
G1 X262.254 Y185.588 F650
G1 Z-4.500 F180
G1 X262.254 Y185.588 F650
G1 Z-6.000 F180
G1 X262.254 Y185.588 F650
G1 Z-6.350 F180
G1 X262.254 Y185.588 F650
G0 Z5.000
G0 X251.588 Y185.588
G0 Z0.500
G1 Z-1.500 F180
G1 X251.588 Y185.588 F650
G1 Z-3.000 F180
G1 X251.588 Y185.588 F650
G1 Z-4.500 F180
G1 X251.588 Y185.588 F650
G1 Z-6.000 F180
G1 X251.588 Y185.588 F650
G1 Z-6.350 F180
G1 X251.588 Y185.588 F650
G0 Z5.000
G0 X240.921 Y185.588
G0 Z0.500
G1 Z-1.500 F180
G1 X240.921 Y185.588 F650
G1 Z-3.000 F180
G1 X240.921 Y185.588 F650
G1 Z-4.500 F180
G1 X240.921 Y185.588 F650
G1 Z-6.000 F180
G1 X240.921 Y185.588 F650
G1 Z-6.350 F180
G1 X240.921 Y185.588 F650
G0 Z5.000
G0 X230.254 Y185.588
G0 Z0.500
G1 Z-1.500 F180
G1 X230.254 Y185.588 F650
G1 Z-3.000 F180
G1 X230.254 Y185.588 F650
G1 Z-4.500 F180
G1 X230.254 Y185.588 F650
G1 Z-6.000 F180
G1 X230.254 Y185.588 F650
G1 Z-6.350 F180
G1 X230.254 Y185.588 F650
G0 Z5.000
G0 X219.588 Y185.588
G0 Z0.500
G1 Z-1.500 F180
G1 X219.588 Y185.588 F650
G1 Z-3.000 F180
G1 X219.588 Y185.588 F650
G1 Z-4.500 F180
G1 X219.588 Y185.588 F650
G1 Z-6.000 F180
G1 X219.588 Y185.588 F650
G1 Z-6.350 F180
G1 X219.588 Y185.588 F650
G0 Z5.000
G0 X208.921 Y185.588
G0 Z0.500
G1 Z-1.500 F180
G1 X208.921 Y185.588 F650
G1 Z-3.000 F180
G1 X208.921 Y185.588 F650
G1 Z-4.500 F180
G1 X208.921 Y185.588 F650
G1 Z-6.000 F180
G1 X208.921 Y185.588 F650
G1 Z-6.350 F180
G1 X208.921 Y185.588 F650
G0 Z5.000
G0 X198.254 Y185.588
G0 Z0.500
G1 Z-1.500 F180
G1 X198.254 Y185.588 F650
G1 Z-3.000 F180
G1 X198.254 Y185.588 F650
G1 Z-4.500 F180
G1 X198.254 Y185.588 F650
G1 Z-6.000 F180
G1 X198.254 Y185.588 F650
G1 Z-6.350 F180
G1 X198.254 Y185.588 F650
G0 Z5.000
G0 X193.588 Y180.476
G0 Z0.500
G1 Z-1.500 F180
G1 X193.588 Y180.476 F650
G1 Z-3.000 F180
G1 X193.588 Y180.476 F650
G1 Z-4.500 F180
G1 X193.588 Y180.476 F650
G1 Z-6.000 F180
G1 X193.588 Y180.476 F650
G1 Z-6.350 F180
G1 X193.588 Y180.476 F650
G0 Z5.000
G0 X193.588 Y169.365
G0 Z0.500
G1 Z-1.500 F180
G1 X193.588 Y169.365 F650
G1 Z-3.000 F180
G1 X193.588 Y169.365 F650
G1 Z-4.500 F180
G1 X193.588 Y169.365 F650
G1 Z-6.000 F180
G1 X193.588 Y169.365 F650
G1 Z-6.350 F180
G1 X193.588 Y169.365 F650
G0 Z5.000
G0 X193.588 Y158.254
G0 Z0.500
G1 Z-1.500 F180
G1 X193.588 Y158.254 F650
G1 Z-3.000 F180
G1 X193.588 Y158.254 F650
G1 Z-4.500 F180
G1 X193.588 Y158.254 F650
G1 Z-6.000 F180
G1 X193.588 Y158.254 F650
G1 Z-6.350 F180
G1 X193.588 Y158.254 F650
G0 Z5.000
G0 X193.588 Y147.143
G0 Z0.500
G1 Z-1.500 F180
G1 X193.588 Y147.143 F650
G1 Z-3.000 F180
G1 X193.588 Y147.143 F650
G1 Z-4.500 F180
G1 X193.588 Y147.143 F650
G1 Z-6.000 F180
G1 X193.588 Y147.143 F650
G1 Z-6.350 F180
G1 X193.588 Y147.143 F650
G0 Z5.000
G0 X193.588 Y136.032
G0 Z0.500
G1 Z-1.500 F180
G1 X193.588 Y136.032 F650
G1 Z-3.000 F180
G1 X193.588 Y136.032 F650
G1 Z-4.500 F180
G1 X193.588 Y136.032 F650
G1 Z-6.000 F180
G1 X193.588 Y136.032 F650
G1 Z-6.350 F180
G1 X193.588 Y136.032 F650
G0 Z5.000
G0 X193.588 Y124.921
G0 Z0.500
G1 Z-1.500 F180
G1 X193.588 Y124.921 F650
G1 Z-3.000 F180
G1 X193.588 Y124.921 F650
G1 Z-4.500 F180
G1 X193.588 Y124.921 F650
G1 Z-6.000 F180
G1 X193.588 Y124.921 F650
G1 Z-6.350 F180
G1 X193.588 Y124.921 F650
G0 Z5.000
G0 X193.588 Y113.810
G0 Z0.500
G1 Z-1.500 F180
G1 X193.588 Y113.810 F650
G1 Z-3.000 F180
G1 X193.588 Y113.810 F650
G1 Z-4.500 F180
G1 X193.588 Y113.810 F650
G1 Z-6.000 F180
G1 X193.588 Y113.810 F650
G1 Z-6.350 F180
G1 X193.588 Y113.810 F650
G0 Z5.000
G0 X193.588 Y102.699
G0 Z0.500
G1 Z-1.500 F180
G1 X193.588 Y102.699 F650
G1 Z-3.000 F180
G1 X193.588 Y102.699 F650
G1 Z-4.500 F180
G1 X193.588 Y102.699 F650
G1 Z-6.000 F180
G1 X193.588 Y102.699 F650
G1 Z-6.350 F180
G1 X193.588 Y102.699 F650
G0 Z5.000
(profile cut with 3.175 mm cutter)
(front panel)
G0 X1.587 Y1.587
G0 Z0.500
G1 Z-1.500 F180
G1 F650
G1 X12.254 Y1.587
G1 X12.254 Y7.588
G1 X22.921 Y7.588
G1 X22.921 Y1.587
G1 X33.587 Y1.587
G1 X33.587 Y7.588
G1 X44.254 Y7.588
G1 X44.254 Y1.587
G1 X54.921 Y1.587
G1 X54.921 Y7.588
G1 X65.588 Y7.588
G1 X65.588 Y1.587
G1 X76.254 Y1.587
G1 X76.254 Y7.588
G1 X86.921 Y7.588
G1 X86.921 Y1.587
G1 X97.588 Y1.587
G1 X97.588 Y7.588
G1 X108.254 Y7.588
G1 X108.254 Y1.587
G1 X118.921 Y1.587
G1 X118.921 Y7.588
G1 X129.588 Y7.588
G1 X129.588 Y1.587
G1 X140.254 Y1.587
G1 X140.254 Y7.588
G1 X150.921 Y7.588
G1 X150.921 Y1.587
G1 X161.588 Y1.587
G1 X167.588 Y1.587
G1 X167.588 Y11.588
G1 X161.588 Y11.588
G1 X161.588 Y21.587
G1 X167.588 Y21.587
G1 X167.588 Y31.587
G1 X161.588 Y31.587
G1 X161.588 Y41.587
G1 X167.588 Y41.587
G1 X167.588 Y51.587
G1 X161.588 Y51.587
G1 X161.588 Y61.587
G1 X167.588 Y61.587
G1 X167.588 Y71.588
G1 X161.588 Y71.588
G1 X161.588 Y77.588
G1 X150.921 Y77.588
G1 X150.921 Y71.588
G1 X140.254 Y71.588
G1 X140.254 Y77.588
G1 X129.588 Y77.588
G1 X129.588 Y71.588
G1 X118.921 Y71.588
G1 X118.921 Y77.588
G1 X108.254 Y77.588
G1 X108.254 Y71.588
G1 X97.588 Y71.588
G1 X97.588 Y77.588
G1 X86.921 Y77.588
G1 X86.921 Y71.588
G1 X76.254 Y71.588
G1 X76.254 Y77.588
G1 X65.588 Y77.588
G1 X65.588 Y71.588
G1 X54.921 Y71.588
G1 X54.921 Y77.588
G1 X44.254 Y77.588
G1 X44.254 Y71.588
G1 X33.587 Y71.588
G1 X33.587 Y77.588
G1 X22.921 Y77.588
G1 X22.921 Y71.588
G1 X12.254 Y71.588
G1 X12.254 Y77.588
G1 X1.587 Y77.588
G1 X1.587 Y71.588
G1 X1.587 Y61.587
G1 X7.588 Y61.587
G1 X7.588 Y51.587
G1 X1.587 Y51.587
G1 X1.587 Y41.587
G1 X7.588 Y41.587
G1 X7.588 Y31.587
G1 X1.587 Y31.587
G1 X1.587 Y21.587
G1 X7.588 Y21.587
G1 X7.588 Y11.588
G1 X1.587 Y11.588
G1 X1.587 Y1.587
G0 Z5.000
G0 X1.587 Y1.587
G0 Z0.500
G1 Z-3.000 F180
G1 F650
G1 X12.254 Y1.587
G1 X12.254 Y7.588
G1 X22.921 Y7.588
G1 X22.921 Y1.587
G1 X33.587 Y1.587
G1 X33.587 Y7.588
G1 X44.254 Y7.588
G1 X44.254 Y1.587
G1 X54.921 Y1.587
G1 X54.921 Y7.588
G1 X65.588 Y7.588
G1 X65.588 Y1.587
G1 X76.254 Y1.587
G1 X76.254 Y7.588
G1 X86.921 Y7.588
G1 X86.921 Y1.587
G1 X97.588 Y1.587
G1 X97.588 Y7.588
G1 X108.254 Y7.588
G1 X108.254 Y1.587
G1 X118.921 Y1.587
G1 X118.921 Y7.588
G1 X129.588 Y7.588
G1 X129.588 Y1.587
G1 X140.254 Y1.587
G1 X140.254 Y7.588
G1 X150.921 Y7.588
G1 X150.921 Y1.587
G1 X161.588 Y1.587
G1 X167.588 Y1.587
G1 X167.588 Y11.588
G1 X161.588 Y11.588
G1 X161.588 Y21.587
G1 X167.588 Y21.587
G1 X167.588 Y31.587
G1 X161.588 Y31.587
G1 X161.588 Y41.587
G1 X167.588 Y41.587
G1 X167.588 Y51.587
G1 X161.588 Y51.587
G1 X161.588 Y61.587
G1 X167.588 Y61.587
G1 X167.588 Y71.588
G1 X161.588 Y71.588
G1 X161.588 Y77.588
G1 X150.921 Y77.588
G1 X150.921 Y71.588
G1 X140.254 Y71.588
G1 X140.254 Y77.588
G1 X129.588 Y77.588
G1 X129.588 Y71.588
G1 X118.921 Y71.588
G1 X118.921 Y77.588
G1 X108.254 Y77.588
G1 X108.254 Y71.588
G1 X97.588 Y71.588
G1 X97.588 Y77.588
G1 X86.921 Y77.588
G1 X86.921 Y71.588
G1 X76.254 Y71.588
G1 X76.254 Y77.588
G1 X65.588 Y77.588
G1 X65.588 Y71.588
G1 X54.921 Y71.588
G1 X54.921 Y77.588
G1 X44.254 Y77.588
G1 X44.254 Y71.588
G1 X33.587 Y71.588
G1 X33.587 Y77.588
G1 X22.921 Y77.588
G1 X22.921 Y71.588
G1 X12.254 Y71.588
G1 X12.254 Y77.588
G1 X1.587 Y77.588
G1 X1.587 Y71.588
G1 X1.587 Y61.587
G1 X7.588 Y61.587
G1 X7.588 Y51.587
G1 X1.587 Y51.587
G1 X1.587 Y41.587
G1 X7.588 Y41.587
G1 X7.588 Y31.587
G1 X1.587 Y31.587
G1 X1.587 Y21.587
G1 X7.588 Y21.587
G1 X7.588 Y11.588
G1 X1.587 Y11.588
G1 X1.587 Y1.587
G0 Z5.000
G0 X1.587 Y1.587
G0 Z0.500
G1 Z-4.500 F180
G1 F650
G1 X12.254 Y1.587
G1 X12.254 Y7.588
G1 X22.921 Y7.588
G1 X22.921 Y1.587
G1 X33.587 Y1.587
G1 X33.587 Y7.588
G1 X44.254 Y7.588
G1 X44.254 Y1.587
G1 X54.921 Y1.587
G1 X54.921 Y7.588
G1 X65.588 Y7.588
G1 X65.588 Y1.587
G1 X76.254 Y1.587
G1 X76.254 Y7.588
G1 X86.921 Y7.588
G1 X86.921 Y1.587
G1 X97.588 Y1.587
G1 X97.588 Y7.588
G1 X108.254 Y7.588
G1 X108.254 Y1.587
G1 X118.921 Y1.587
G1 X118.921 Y7.588
G1 X129.588 Y7.588
G1 X129.588 Y1.587
G1 X140.254 Y1.587
G1 X140.254 Y7.588
G1 X150.921 Y7.588
G1 X150.921 Y1.587
G1 X161.588 Y1.587
G1 X167.588 Y1.587
G1 X167.588 Y11.588
G1 X161.588 Y11.588
G1 X161.588 Y21.587
G1 X167.588 Y21.587
G1 X167.588 Y31.587
G1 X161.588 Y31.587
G1 X161.588 Y41.587
G1 X167.588 Y41.587
G1 X167.588 Y51.587
G1 X161.588 Y51.587
G1 X161.588 Y61.587
G1 X167.588 Y61.587
G1 X167.588 Y71.588
G1 X161.588 Y71.588
G1 X161.588 Y77.588
G1 X150.921 Y77.588
G1 X150.921 Y71.588
G1 X140.254 Y71.588
G1 X140.254 Y77.588
G1 X129.588 Y77.588
G1 X129.588 Y71.588
G1 X118.921 Y71.588
G1 X118.921 Y77.588
G1 X108.254 Y77.588
G1 X108.254 Y71.588
G1 X97.588 Y71.588
G1 X97.588 Y77.588
G1 X86.921 Y77.588
G1 X86.921 Y71.588
G1 X76.254 Y71.588
G1 X76.254 Y77.588
G1 X65.588 Y77.588
G1 X65.588 Y71.588
G1 X54.921 Y71.588
G1 X54.921 Y77.588
G1 X44.254 Y77.588
G1 X44.254 Y71.588
G1 X33.587 Y71.588
G1 X33.587 Y77.588
G1 X22.921 Y77.588
G1 X22.921 Y71.588
G1 X12.254 Y71.588
G1 X12.254 Y77.588
G1 X1.587 Y77.588
G1 X1.587 Y71.588
G1 X1.587 Y61.587
G1 X7.588 Y61.587
G1 X7.588 Y51.587
G1 X1.587 Y51.587
G1 X1.587 Y41.587
G1 X7.588 Y41.587
G1 X7.588 Y31.587
G1 X1.587 Y31.587
G1 X1.587 Y21.587
G1 X7.588 Y21.587
G1 X7.588 Y11.588
G1 X1.587 Y11.588
G1 X1.587 Y1.587
G0 Z5.000
G0 X1.587 Y1.587
G0 Z0.500
G1 Z-6.000 F180
G1 F650
G1 X12.254 Y1.587
G1 X12.254 Y7.588
G1 X22.921 Y7.588
G1 X22.921 Y1.587
G1 X33.587 Y1.587
G1 X33.587 Y7.588
G1 X44.254 Y7.588
G1 X44.254 Y1.587
G1 X54.921 Y1.587
G1 X54.921 Y7.588
G1 X65.588 Y7.588
G1 X65.588 Y1.587
G1 X76.254 Y1.587
G1 X76.254 Y7.588
G1 X86.921 Y7.588
G1 X86.921 Y1.587
G1 X97.588 Y1.587
G1 X97.588 Y7.588
G1 X108.254 Y7.588
G1 X108.254 Y1.587
G1 X118.921 Y1.587
G1 X118.921 Y7.588
G1 X129.588 Y7.588
G1 X129.588 Y1.587
G1 X140.254 Y1.587
G1 X140.254 Y7.588
G1 X150.921 Y7.588
G1 X150.921 Y1.587
G1 X161.588 Y1.587
G1 X167.588 Y1.587
G1 X167.588 Y11.588
G1 X161.588 Y11.588
G1 X161.588 Y21.587
G1 X167.588 Y21.587
G1 X167.588 Y31.587
G1 X161.588 Y31.587
G1 X161.588 Y41.587
G1 X167.588 Y41.587
G1 X167.588 Y51.587
G1 X161.588 Y51.587
G1 X161.588 Y61.587
G1 X167.588 Y61.587
G1 X167.588 Y71.588
G1 X161.588 Y71.588
G1 X161.588 Y77.588
G1 X150.921 Y77.588
G1 X150.921 Y71.588
G1 X140.254 Y71.588
G1 X140.254 Y77.588
G1 X129.588 Y77.588
G1 X129.588 Y71.588
G1 X118.921 Y71.588
G1 X118.921 Y77.588
G1 X108.254 Y77.588
G1 X108.254 Y71.588
G1 X97.588 Y71.588
G1 X97.588 Y77.588
G1 X86.921 Y77.588
G1 X86.921 Y71.588
G1 X76.254 Y71.588
G1 X76.254 Y77.588
G1 X65.588 Y77.588
G1 X65.588 Y71.588
G1 X54.921 Y71.588
G1 X54.921 Y77.588
G1 X44.254 Y77.588
G1 X44.254 Y71.588
G1 X33.587 Y71.588
G1 X33.587 Y77.588
G1 X22.921 Y77.588
G1 X22.921 Y71.588
G1 X12.254 Y71.588
G1 X12.254 Y77.588
G1 X1.587 Y77.588
G1 X1.587 Y71.588
G1 X1.587 Y61.587
G1 X7.588 Y61.587
G1 X7.588 Y51.587
G1 X1.587 Y51.587
G1 X1.587 Y41.587
G1 X7.588 Y41.587
G1 X7.588 Y31.587
G1 X1.587 Y31.587
G1 X1.587 Y21.587
G1 X7.588 Y21.587
G1 X7.588 Y11.588
G1 X1.587 Y11.588
G1 X1.587 Y1.587
G0 Z5.000
G0 X1.587 Y1.587
G0 Z0.500
G1 Z-6.350 F180
G1 F650
G1 X12.254 Y1.587
G1 X12.254 Y7.588
G1 X22.921 Y7.588
G1 X22.921 Y1.587
G1 X33.587 Y1.587
G1 X33.587 Y7.588
G1 X44.254 Y7.588
G1 X44.254 Y1.587
G1 X54.921 Y1.587
G1 X54.921 Y7.588
G1 X65.588 Y7.588
G1 X65.588 Y1.587
G1 X76.254 Y1.587
G1 X76.254 Y7.588
G1 X86.921 Y7.588
G1 X86.921 Y1.587
G1 X97.588 Y1.587
G1 X97.588 Y7.588
G1 X108.254 Y7.588
G1 X108.254 Y1.587
G1 X118.921 Y1.587
G1 X118.921 Y7.588
G1 X129.588 Y7.588
G1 X129.588 Y1.587
G1 X140.254 Y1.587
G1 X140.254 Y7.588
G1 X150.921 Y7.588
G1 X150.921 Y1.587
G1 X161.588 Y1.587
G1 X167.588 Y1.587
G1 X167.588 Y11.588
G1 X161.588 Y11.588
G1 X161.588 Y21.587
G1 X167.588 Y21.587
G1 X167.588 Y31.587
G1 X161.588 Y31.587
G1 X161.588 Y41.587
G1 X167.588 Y41.587
G1 X167.588 Y51.587
G1 X161.588 Y51.587
G1 X161.588 Y61.587
G1 X167.588 Y61.587
G1 X167.588 Y71.588
G1 X161.588 Y71.588
G1 X161.588 Y77.588
G1 X150.921 Y77.588
G1 X150.921 Y71.588
G1 X140.254 Y71.588
G1 X140.254 Y77.588
G1 X129.588 Y77.588
G1 X129.588 Y71.588
G1 X118.921 Y71.588
G1 X118.921 Y77.588
G1 X108.254 Y77.588
G1 X108.254 Y71.588
G1 X97.588 Y71.588
G1 X97.588 Y77.588
G1 X86.921 Y77.588
G1 X86.921 Y71.588
G1 X76.254 Y71.588
G1 X76.254 Y77.588
G1 X65.588 Y77.588
G1 X65.588 Y71.588
G1 X54.921 Y71.588
G1 X54.921 Y77.588
G1 X44.254 Y77.588
G1 X44.254 Y71.588
G1 X33.587 Y71.588
G1 X33.587 Y77.588
G1 X22.921 Y77.588
G1 X22.921 Y71.588
G1 X12.254 Y71.588
G1 X12.254 Y77.588
G1 X1.587 Y77.588
G1 X1.587 Y71.588
G1 X1.587 Y61.587
G1 X7.588 Y61.587
G1 X7.588 Y51.587
G1 X1.587 Y51.587
G1 X1.587 Y41.587
G1 X7.588 Y41.587
G1 X7.588 Y31.587
G1 X1.587 Y31.587
G1 X1.587 Y21.587
G1 X7.588 Y21.587
G1 X7.588 Y11.588
G1 X1.587 Y11.588
G1 X1.587 Y1.587
G0 Z5.000
(back panel)
G0 X181.588 Y1.587
G0 Z0.500
G1 Z-1.500 F180
G1 F650
G1 X192.254 Y1.587
G1 X192.254 Y7.588
G1 X202.921 Y7.588
G1 X202.921 Y1.587
G1 X213.588 Y1.587
G1 X213.588 Y7.588
G1 X224.254 Y7.588
G1 X224.254 Y1.587
G1 X234.921 Y1.587
G1 X234.921 Y7.588
G1 X245.588 Y7.588
G1 X245.588 Y1.587
G1 X256.254 Y1.587
G1 X256.254 Y7.588
G1 X266.921 Y7.588
G1 X266.921 Y1.587
G1 X277.587 Y1.587
G1 X277.587 Y7.588
G1 X288.254 Y7.588
G1 X288.254 Y1.587
G1 X298.921 Y1.587
G1 X298.921 Y7.588
G1 X309.587 Y7.588
G1 X309.587 Y1.587
G1 X320.254 Y1.587
G1 X320.254 Y7.588
G1 X330.921 Y7.588
G1 X330.921 Y1.587
G1 X341.587 Y1.587
G1 X347.587 Y1.587
G1 X347.587 Y11.588
G1 X341.587 Y11.588
G1 X341.587 Y21.587
G1 X347.587 Y21.587
G1 X347.587 Y31.587
G1 X341.587 Y31.587
G1 X341.587 Y41.587
G1 X347.587 Y41.587
G1 X347.587 Y51.587
G1 X341.587 Y51.587
G1 X341.587 Y61.587
G1 X347.587 Y61.587
G1 X347.587 Y71.588
G1 X341.587 Y71.588
G1 X341.587 Y77.588
G1 X330.921 Y77.588
G1 X330.921 Y71.588
G1 X320.254 Y71.588
G1 X320.254 Y77.588
G1 X309.587 Y77.588
G1 X309.587 Y71.588
G1 X298.921 Y71.588
G1 X298.921 Y77.588
G1 X288.254 Y77.588
G1 X288.254 Y71.588
G1 X277.587 Y71.588
G1 X277.587 Y77.588
G1 X266.921 Y77.588
G1 X266.921 Y71.588
G1 X256.254 Y71.588
G1 X256.254 Y77.588
G1 X245.588 Y77.588
G1 X245.588 Y71.588
G1 X234.921 Y71.588
G1 X234.921 Y77.588
G1 X224.254 Y77.588
G1 X224.254 Y71.588
G1 X213.588 Y71.588
G1 X213.588 Y77.588
G1 X202.921 Y77.588
G1 X202.921 Y71.588
G1 X192.254 Y71.588
G1 X192.254 Y77.588
G1 X181.588 Y77.588
G1 X181.588 Y71.588
G1 X181.588 Y61.587
G1 X187.588 Y61.587
G1 X187.588 Y51.587
G1 X181.588 Y51.587
G1 X181.588 Y41.587
G1 X187.588 Y41.587
G1 X187.588 Y31.587
G1 X181.588 Y31.587
G1 X181.588 Y21.587
G1 X187.588 Y21.587
G1 X187.588 Y11.588
G1 X181.588 Y11.588
G1 X181.588 Y1.587
G0 Z5.000
G0 X181.588 Y1.587
G0 Z0.500
G1 Z-3.000 F180
G1 F650
G1 X192.254 Y1.587
G1 X192.254 Y7.588
G1 X202.921 Y7.588
G1 X202.921 Y1.587
G1 X213.588 Y1.587
G1 X213.588 Y7.588
G1 X224.254 Y7.588
G1 X224.254 Y1.587
G1 X234.921 Y1.587
G1 X234.921 Y7.588
G1 X245.588 Y7.588
G1 X245.588 Y1.587
G1 X256.254 Y1.587
G1 X256.254 Y7.588
G1 X266.921 Y7.588
G1 X266.921 Y1.587
G1 X277.587 Y1.587
G1 X277.587 Y7.588
G1 X288.254 Y7.588
G1 X288.254 Y1.587
G1 X298.921 Y1.587
G1 X298.921 Y7.588
G1 X309.587 Y7.588
G1 X309.587 Y1.587
G1 X320.254 Y1.587
G1 X320.254 Y7.588
G1 X330.921 Y7.588
G1 X330.921 Y1.587
G1 X341.587 Y1.587
G1 X347.587 Y1.587
G1 X347.587 Y11.588
G1 X341.587 Y11.588
G1 X341.587 Y21.587
G1 X347.587 Y21.587
G1 X347.587 Y31.587
G1 X341.587 Y31.587
G1 X341.587 Y41.587
G1 X347.587 Y41.587
G1 X347.587 Y51.587
G1 X341.587 Y51.587
G1 X341.587 Y61.587
G1 X347.587 Y61.587
G1 X347.587 Y71.588
G1 X341.587 Y71.588
G1 X341.587 Y77.588
G1 X330.921 Y77.588
G1 X330.921 Y71.588
G1 X320.254 Y71.588
G1 X320.254 Y77.588
G1 X309.587 Y77.588
G1 X309.587 Y71.588
G1 X298.921 Y71.588
G1 X298.921 Y77.588
G1 X288.254 Y77.588
G1 X288.254 Y71.588
G1 X277.587 Y71.588
G1 X277.587 Y77.588
G1 X266.921 Y77.588
G1 X266.921 Y71.588
G1 X256.254 Y71.588
G1 X256.254 Y77.588
G1 X245.588 Y77.588
G1 X245.588 Y71.588
G1 X234.921 Y71.588
G1 X234.921 Y77.588
G1 X224.254 Y77.588
G1 X224.254 Y71.588
G1 X213.588 Y71.588
G1 X213.588 Y77.588
G1 X202.921 Y77.588
G1 X202.921 Y71.588
G1 X192.254 Y71.588
G1 X192.254 Y77.588
G1 X181.588 Y77.588
G1 X181.588 Y71.588
G1 X181.588 Y61.587
G1 X187.588 Y61.587
G1 X187.588 Y51.587
G1 X181.588 Y51.587
G1 X181.588 Y41.587
G1 X187.588 Y41.587
G1 X187.588 Y31.587
G1 X181.588 Y31.587
G1 X181.588 Y21.587
G1 X187.588 Y21.587
G1 X187.588 Y11.588
G1 X181.588 Y11.588
G1 X181.588 Y1.587
G0 Z5.000
G0 X181.588 Y1.587
G0 Z0.500
G1 Z-4.500 F180
G1 F650
G1 X192.254 Y1.587
G1 X192.254 Y7.588
G1 X202.921 Y7.588
G1 X202.921 Y1.587
G1 X213.588 Y1.587
G1 X213.588 Y7.588
G1 X224.254 Y7.588
G1 X224.254 Y1.587
G1 X234.921 Y1.587
G1 X234.921 Y7.588
G1 X245.588 Y7.588
G1 X245.588 Y1.587
G1 X256.254 Y1.587
G1 X256.254 Y7.588
G1 X266.921 Y7.588
G1 X266.921 Y1.587
G1 X277.587 Y1.587
G1 X277.587 Y7.588
G1 X288.254 Y7.588
G1 X288.254 Y1.587
G1 X298.921 Y1.587
G1 X298.921 Y7.588
G1 X309.587 Y7.588
G1 X309.587 Y1.587
G1 X320.254 Y1.587
G1 X320.254 Y7.588
G1 X330.921 Y7.588
G1 X330.921 Y1.587
G1 X341.587 Y1.587
G1 X347.587 Y1.587
G1 X347.587 Y11.588
G1 X341.587 Y11.588
G1 X341.587 Y21.587
G1 X347.587 Y21.587
G1 X347.587 Y31.587
G1 X341.587 Y31.587
G1 X341.587 Y41.587
G1 X347.587 Y41.587
G1 X347.587 Y51.587
G1 X341.587 Y51.587
G1 X341.587 Y61.587
G1 X347.587 Y61.587
G1 X347.587 Y71.588
G1 X341.587 Y71.588
G1 X341.587 Y77.588
G1 X330.921 Y77.588
G1 X330.921 Y71.588
G1 X320.254 Y71.588
G1 X320.254 Y77.588
G1 X309.587 Y77.588
G1 X309.587 Y71.588
G1 X298.921 Y71.588
G1 X298.921 Y77.588
G1 X288.254 Y77.588
G1 X288.254 Y71.588
G1 X277.587 Y71.588
G1 X277.587 Y77.588
G1 X266.921 Y77.588
G1 X266.921 Y71.588
G1 X256.254 Y71.588
G1 X256.254 Y77.588
G1 X245.588 Y77.588
G1 X245.588 Y71.588
G1 X234.921 Y71.588
G1 X234.921 Y77.588
G1 X224.254 Y77.588
G1 X224.254 Y71.588
G1 X213.588 Y71.588
G1 X213.588 Y77.588
G1 X202.921 Y77.588
G1 X202.921 Y71.588
G1 X192.254 Y71.588
G1 X192.254 Y77.588
G1 X181.588 Y77.588
G1 X181.588 Y71.588
G1 X181.588 Y61.587
G1 X187.588 Y61.587
G1 X187.588 Y51.587
G1 X181.588 Y51.587
G1 X181.588 Y41.587
G1 X187.588 Y41.587
G1 X187.588 Y31.587
G1 X181.588 Y31.587
G1 X181.588 Y21.587
G1 X187.588 Y21.587
G1 X187.588 Y11.588
G1 X181.588 Y11.588
G1 X181.588 Y1.587
G0 Z5.000
G0 X181.588 Y1.587
G0 Z0.500
G1 Z-6.000 F180
G1 F650
G1 X192.254 Y1.587
G1 X192.254 Y7.588
G1 X202.921 Y7.588
G1 X202.921 Y1.587
G1 X213.588 Y1.587
G1 X213.588 Y7.588
G1 X224.254 Y7.588
G1 X224.254 Y1.587
G1 X234.921 Y1.587
G1 X234.921 Y7.588
G1 X245.588 Y7.588
G1 X245.588 Y1.587
G1 X256.254 Y1.587
G1 X256.254 Y7.588
G1 X266.921 Y7.588
G1 X266.921 Y1.587
G1 X277.587 Y1.587
G1 X277.587 Y7.588
G1 X288.254 Y7.588
G1 X288.254 Y1.587
G1 X298.921 Y1.587
G1 X298.921 Y7.588
G1 X309.587 Y7.588
G1 X309.587 Y1.587
G1 X320.254 Y1.587
G1 X320.254 Y7.588
G1 X330.921 Y7.588
G1 X330.921 Y1.587
G1 X341.587 Y1.587
G1 X347.587 Y1.587
G1 X347.587 Y11.588
G1 X341.587 Y11.588
G1 X341.587 Y21.587
G1 X347.587 Y21.587
G1 X347.587 Y31.587
G1 X341.587 Y31.587
G1 X341.587 Y41.587
G1 X347.587 Y41.587
G1 X347.587 Y51.587
G1 X341.587 Y51.587
G1 X341.587 Y61.587
G1 X347.587 Y61.587
G1 X347.587 Y71.588
G1 X341.587 Y71.588
G1 X341.587 Y77.588
G1 X330.921 Y77.588
G1 X330.921 Y71.588
G1 X320.254 Y71.588
G1 X320.254 Y77.588
G1 X309.587 Y77.588
G1 X309.587 Y71.588
G1 X298.921 Y71.588
G1 X298.921 Y77.588
G1 X288.254 Y77.588
G1 X288.254 Y71.588
G1 X277.587 Y71.588
G1 X277.587 Y77.588
G1 X266.921 Y77.588
G1 X266.921 Y71.588
G1 X256.254 Y71.588
G1 X256.254 Y77.588
G1 X245.588 Y77.588
G1 X245.588 Y71.588
G1 X234.921 Y71.588
G1 X234.921 Y77.588
G1 X224.254 Y77.588
G1 X224.254 Y71.588
G1 X213.588 Y71.588
G1 X213.588 Y77.588
G1 X202.921 Y77.588
G1 X202.921 Y71.588
G1 X192.254 Y71.588
G1 X192.254 Y77.588
G1 X181.588 Y77.588
G1 X181.588 Y71.588
G1 X181.588 Y61.587
G1 X187.588 Y61.587
G1 X187.588 Y51.587
G1 X181.588 Y51.587
G1 X181.588 Y41.587
G1 X187.588 Y41.587
G1 X187.588 Y31.587
G1 X181.588 Y31.587
G1 X181.588 Y21.587
G1 X187.588 Y21.587
G1 X187.588 Y11.588
G1 X181.588 Y11.588
G1 X181.588 Y1.587
G0 Z5.000
G0 X181.588 Y1.587
G0 Z0.500
G1 Z-6.350 F180
G1 F650
G1 X192.254 Y1.587
G1 X192.254 Y7.588
G1 X202.921 Y7.588
G1 X202.921 Y1.587
G1 X213.588 Y1.587
G1 X213.588 Y7.588
G1 X224.254 Y7.588
G1 X224.254 Y1.587
G1 X234.921 Y1.587
G1 X234.921 Y7.588
G1 X245.588 Y7.588
G1 X245.588 Y1.587
G1 X256.254 Y1.587
G1 X256.254 Y7.588
G1 X266.921 Y7.588
G1 X266.921 Y1.587
G1 X277.587 Y1.587
G1 X277.587 Y7.588
G1 X288.254 Y7.588
G1 X288.254 Y1.587
G1 X298.921 Y1.587
G1 X298.921 Y7.588
G1 X309.587 Y7.588
G1 X309.587 Y1.587
G1 X320.254 Y1.587
G1 X320.254 Y7.588
G1 X330.921 Y7.588
G1 X330.921 Y1.587
G1 X341.587 Y1.587
G1 X347.587 Y1.587
G1 X347.587 Y11.588
G1 X341.587 Y11.588
G1 X341.587 Y21.587
G1 X347.587 Y21.587
G1 X347.587 Y31.587
G1 X341.587 Y31.587
G1 X341.587 Y41.587
G1 X347.587 Y41.587
G1 X347.587 Y51.587
G1 X341.587 Y51.587
G1 X341.587 Y61.587
G1 X347.587 Y61.587
G1 X347.587 Y71.588
G1 X341.587 Y71.588
G1 X341.587 Y77.588
G1 X330.921 Y77.588
G1 X330.921 Y71.588
G1 X320.254 Y71.588
G1 X320.254 Y77.588
G1 X309.587 Y77.588
G1 X309.587 Y71.588
G1 X298.921 Y71.588
G1 X298.921 Y77.588
G1 X288.254 Y77.588
G1 X288.254 Y71.588
G1 X277.587 Y71.588
G1 X277.587 Y77.588
G1 X266.921 Y77.588
G1 X266.921 Y71.588
G1 X256.254 Y71.588
G1 X256.254 Y77.588
G1 X245.588 Y77.588
G1 X245.588 Y71.588
G1 X234.921 Y71.588
G1 X234.921 Y77.588
G1 X224.254 Y77.588
G1 X224.254 Y71.588
G1 X213.588 Y71.588
G1 X213.588 Y77.588
G1 X202.921 Y77.588
G1 X202.921 Y71.588
G1 X192.254 Y71.588
G1 X192.254 Y77.588
G1 X181.588 Y77.588
G1 X181.588 Y71.588
G1 X181.588 Y61.587
G1 X187.588 Y61.587
G1 X187.588 Y51.587
G1 X181.588 Y51.587
G1 X181.588 Y41.587
G1 X187.588 Y41.587
G1 X187.588 Y31.587
G1 X181.588 Y31.587
G1 X181.588 Y21.587
G1 X187.588 Y21.587
G1 X187.588 Y11.588
G1 X181.588 Y11.588
G1 X181.588 Y1.587
G0 Z5.000
(left panel)
G0 X367.587 Y7.588
G0 Z0.500
G1 Z-1.500 F180
G1 F650
G1 X367.587 Y1.588
G1 X378.699 Y1.588
G1 X378.699 Y7.588
G1 X389.810 Y7.588
G1 X389.810 Y1.588
G1 X400.921 Y1.588
G1 X400.921 Y7.588
G1 X412.032 Y7.588
G1 X412.032 Y1.588
G1 X423.143 Y1.588
G1 X423.143 Y7.588
G1 X434.254 Y7.588
G1 X434.254 Y1.588
G1 X445.365 Y1.588
G1 X445.365 Y7.588
G1 X456.476 Y7.588
G1 X456.476 Y1.588
G1 X467.587 Y1.588
G1 X467.587 Y7.588
G1 X467.587 Y17.587
G1 X461.587 Y17.587
G1 X461.587 Y27.587
G1 X467.587 Y27.587
G1 X467.587 Y37.587
G1 X461.587 Y37.587
G1 X461.587 Y47.587
G1 X467.587 Y47.587
G1 X467.587 Y57.587
G1 X461.587 Y57.587
G1 X461.587 Y67.588
G1 X467.587 Y67.588
G1 X467.587 Y77.588
G1 X456.476 Y77.588
G1 X456.476 Y71.588
G1 X445.365 Y71.588
G1 X445.365 Y77.588
G1 X434.254 Y77.588
G1 X434.254 Y71.588
G1 X423.143 Y71.588
G1 X423.143 Y77.588
G1 X412.032 Y77.588
G1 X412.032 Y71.588
G1 X400.921 Y71.588
G1 X400.921 Y77.588
G1 X389.810 Y77.588
G1 X389.810 Y71.588
G1 X378.699 Y71.588
G1 X378.699 Y77.588
G1 X367.587 Y77.588
G1 X361.587 Y77.588
G1 X361.587 Y67.588
G1 X367.587 Y67.588
G1 X367.587 Y57.587
G1 X361.587 Y57.587
G1 X361.587 Y47.587
G1 X367.587 Y47.587
G1 X367.587 Y37.587
G1 X361.587 Y37.587
G1 X361.587 Y27.587
G1 X367.587 Y27.587
G1 X367.587 Y17.587
G1 X361.587 Y17.587
G1 X361.587 Y7.588
G1 X367.587 Y7.588
G0 Z5.000
G0 X367.587 Y7.588
G0 Z0.500
G1 Z-3.000 F180
G1 F650
G1 X367.587 Y1.588
G1 X378.699 Y1.588
G1 X378.699 Y7.588
G1 X389.810 Y7.588
G1 X389.810 Y1.588
G1 X400.921 Y1.588
G1 X400.921 Y7.588
G1 X412.032 Y7.588
G1 X412.032 Y1.588
G1 X423.143 Y1.588
G1 X423.143 Y7.588
G1 X434.254 Y7.588
G1 X434.254 Y1.588
G1 X445.365 Y1.588
G1 X445.365 Y7.588
G1 X456.476 Y7.588
G1 X456.476 Y1.588
G1 X467.587 Y1.588
G1 X467.587 Y7.588
G1 X467.587 Y17.587
G1 X461.587 Y17.587
G1 X461.587 Y27.587
G1 X467.587 Y27.587
G1 X467.587 Y37.587
G1 X461.587 Y37.587
G1 X461.587 Y47.587
G1 X467.587 Y47.587
G1 X467.587 Y57.587
G1 X461.587 Y57.587
G1 X461.587 Y67.588
G1 X467.587 Y67.588
G1 X467.587 Y77.588
G1 X456.476 Y77.588
G1 X456.476 Y71.588
G1 X445.365 Y71.588
G1 X445.365 Y77.588
G1 X434.254 Y77.588
G1 X434.254 Y71.588
G1 X423.143 Y71.588
G1 X423.143 Y77.588
G1 X412.032 Y77.588
G1 X412.032 Y71.588
G1 X400.921 Y71.588
G1 X400.921 Y77.588
G1 X389.810 Y77.588
G1 X389.810 Y71.588
G1 X378.699 Y71.588
G1 X378.699 Y77.588
G1 X367.587 Y77.588
G1 X361.587 Y77.588
G1 X361.587 Y67.588
G1 X367.587 Y67.588
G1 X367.587 Y57.587
G1 X361.587 Y57.587
G1 X361.587 Y47.587
G1 X367.587 Y47.587
G1 X367.587 Y37.587
G1 X361.587 Y37.587
G1 X361.587 Y27.587
G1 X367.587 Y27.587
G1 X367.587 Y17.587
G1 X361.587 Y17.587
G1 X361.587 Y7.588
G1 X367.587 Y7.588
G0 Z5.000
G0 X367.587 Y7.588
G0 Z0.500
G1 Z-4.500 F180
G1 F650
G1 X367.587 Y1.588
G1 X378.699 Y1.588
G1 X378.699 Y7.588
G1 X389.810 Y7.588
G1 X389.810 Y1.588
G1 X400.921 Y1.588
G1 X400.921 Y7.588
G1 X412.032 Y7.588
G1 X412.032 Y1.588
G1 X423.143 Y1.588
G1 X423.143 Y7.588
G1 X434.254 Y7.588
G1 X434.254 Y1.588
G1 X445.365 Y1.588
G1 X445.365 Y7.588
G1 X456.476 Y7.588
G1 X456.476 Y1.588
G1 X467.587 Y1.588
G1 X467.587 Y7.588
G1 X467.587 Y17.587
G1 X461.587 Y17.587
G1 X461.587 Y27.587
G1 X467.587 Y27.587
G1 X467.587 Y37.587
G1 X461.587 Y37.587
G1 X461.587 Y47.587
G1 X467.587 Y47.587
G1 X467.587 Y57.587
G1 X461.587 Y57.587
G1 X461.587 Y67.588
G1 X467.587 Y67.588
G1 X467.587 Y77.588
G1 X456.476 Y77.588
G1 X456.476 Y71.588
G1 X445.365 Y71.588
G1 X445.365 Y77.588
G1 X434.254 Y77.588
G1 X434.254 Y71.588
G1 X423.143 Y71.588
G1 X423.143 Y77.588
G1 X412.032 Y77.588
G1 X412.032 Y71.588
G1 X400.921 Y71.588
G1 X400.921 Y77.588
G1 X389.810 Y77.588
G1 X389.810 Y71.588
G1 X378.699 Y71.588
G1 X378.699 Y77.588
G1 X367.587 Y77.588
G1 X361.587 Y77.588
G1 X361.587 Y67.588
G1 X367.587 Y67.588
G1 X367.587 Y57.587
G1 X361.587 Y57.587
G1 X361.587 Y47.587
G1 X367.587 Y47.587
G1 X367.587 Y37.587
G1 X361.587 Y37.587
G1 X361.587 Y27.587
G1 X367.587 Y27.587
G1 X367.587 Y17.587
G1 X361.587 Y17.587
G1 X361.587 Y7.588
G1 X367.587 Y7.588
G0 Z5.000
G0 X367.587 Y7.588
G0 Z0.500
G1 Z-6.000 F180
G1 F650
G1 X367.587 Y1.588
G1 X378.699 Y1.588
G1 X378.699 Y7.588
G1 X389.810 Y7.588
G1 X389.810 Y1.588
G1 X400.921 Y1.588
G1 X400.921 Y7.588
G1 X412.032 Y7.588
G1 X412.032 Y1.588
G1 X423.143 Y1.588
G1 X423.143 Y7.588
G1 X434.254 Y7.588
G1 X434.254 Y1.588
G1 X445.365 Y1.588
G1 X445.365 Y7.588
G1 X456.476 Y7.588
G1 X456.476 Y1.588
G1 X467.587 Y1.588
G1 X467.587 Y7.588
G1 X467.587 Y17.587
G1 X461.587 Y17.587
G1 X461.587 Y27.587
G1 X467.587 Y27.587
G1 X467.587 Y37.587
G1 X461.587 Y37.587
G1 X461.587 Y47.587
G1 X467.587 Y47.587
G1 X467.587 Y57.587
G1 X461.587 Y57.587
G1 X461.587 Y67.588
G1 X467.587 Y67.588
G1 X467.587 Y77.588
G1 X456.476 Y77.588
G1 X456.476 Y71.588
G1 X445.365 Y71.588
G1 X445.365 Y77.588
G1 X434.254 Y77.588
G1 X434.254 Y71.588
G1 X423.143 Y71.588
G1 X423.143 Y77.588
G1 X412.032 Y77.588
G1 X412.032 Y71.588
G1 X400.921 Y71.588
G1 X400.921 Y77.588
G1 X389.810 Y77.588
G1 X389.810 Y71.588
G1 X378.699 Y71.588
G1 X378.699 Y77.588
G1 X367.587 Y77.588
G1 X361.587 Y77.588
G1 X361.587 Y67.588
G1 X367.587 Y67.588
G1 X367.587 Y57.587
G1 X361.587 Y57.587
G1 X361.587 Y47.587
G1 X367.587 Y47.587
G1 X367.587 Y37.587
G1 X361.587 Y37.587
G1 X361.587 Y27.587
G1 X367.587 Y27.587
G1 X367.587 Y17.587
G1 X361.587 Y17.587
G1 X361.587 Y7.588
G1 X367.587 Y7.588
G0 Z5.000
G0 X367.587 Y7.588
G0 Z0.500
G1 Z-6.350 F180
G1 F650
G1 X367.587 Y1.588
G1 X378.699 Y1.588
G1 X378.699 Y7.588
G1 X389.810 Y7.588
G1 X389.810 Y1.588
G1 X400.921 Y1.588
G1 X400.921 Y7.588
G1 X412.032 Y7.588
G1 X412.032 Y1.588
G1 X423.143 Y1.588
G1 X423.143 Y7.588
G1 X434.254 Y7.588
G1 X434.254 Y1.588
G1 X445.365 Y1.588
G1 X445.365 Y7.588
G1 X456.476 Y7.588
G1 X456.476 Y1.588
G1 X467.587 Y1.588
G1 X467.587 Y7.588
G1 X467.587 Y17.587
G1 X461.587 Y17.587
G1 X461.587 Y27.587
G1 X467.587 Y27.587
G1 X467.587 Y37.587
G1 X461.587 Y37.587
G1 X461.587 Y47.587
G1 X467.587 Y47.587
G1 X467.587 Y57.587
G1 X461.587 Y57.587
G1 X461.587 Y67.588
G1 X467.587 Y67.588
G1 X467.587 Y77.588
G1 X456.476 Y77.588
G1 X456.476 Y71.588
G1 X445.365 Y71.588
G1 X445.365 Y77.588
G1 X434.254 Y77.588
G1 X434.254 Y71.588
G1 X423.143 Y71.588
G1 X423.143 Y77.588
G1 X412.032 Y77.588
G1 X412.032 Y71.588
G1 X400.921 Y71.588
G1 X400.921 Y77.588
G1 X389.810 Y77.588
G1 X389.810 Y71.588
G1 X378.699 Y71.588
G1 X378.699 Y77.588
G1 X367.587 Y77.588
G1 X361.587 Y77.588
G1 X361.587 Y67.588
G1 X367.587 Y67.588
G1 X367.587 Y57.587
G1 X361.587 Y57.587
G1 X361.587 Y47.587
G1 X367.587 Y47.587
G1 X367.587 Y37.587
G1 X361.587 Y37.587
G1 X361.587 Y27.587
G1 X367.587 Y27.587
G1 X367.587 Y17.587
G1 X361.587 Y17.587
G1 X361.587 Y7.588
G1 X367.587 Y7.588
G0 Z5.000
(right panel)
G0 X487.587 Y7.588
G0 Z0.500
G1 Z-1.500 F180
G1 F650
G1 X487.587 Y1.588
G1 X498.699 Y1.588
G1 X498.699 Y7.588
G1 X509.810 Y7.588
G1 X509.810 Y1.588
G1 X520.921 Y1.588
G1 X520.921 Y7.588
G1 X532.032 Y7.588
G1 X532.032 Y1.588
G1 X543.143 Y1.588
G1 X543.143 Y7.588
G1 X554.254 Y7.588
G1 X554.254 Y1.588
G1 X565.365 Y1.588
G1 X565.365 Y7.588
G1 X576.476 Y7.588
G1 X576.476 Y1.588
G1 X587.587 Y1.588
G1 X587.587 Y7.588
G1 X587.587 Y17.587
G1 X581.587 Y17.587
G1 X581.587 Y27.587
G1 X587.587 Y27.587
G1 X587.587 Y37.587
G1 X581.587 Y37.587
G1 X581.587 Y47.587
G1 X587.587 Y47.587
G1 X587.587 Y57.587
G1 X581.587 Y57.587
G1 X581.587 Y67.588
G1 X587.587 Y67.588
G1 X587.587 Y77.588
G1 X576.476 Y77.588
G1 X576.476 Y71.588
G1 X565.365 Y71.588
G1 X565.365 Y77.588
G1 X554.254 Y77.588
G1 X554.254 Y71.588
G1 X543.143 Y71.588
G1 X543.143 Y77.588
G1 X532.032 Y77.588
G1 X532.032 Y71.588
G1 X520.921 Y71.588
G1 X520.921 Y77.588
G1 X509.810 Y77.588
G1 X509.810 Y71.588
G1 X498.699 Y71.588
G1 X498.699 Y77.588
G1 X487.587 Y77.588
G1 X481.587 Y77.588
G1 X481.587 Y67.588
G1 X487.587 Y67.588
G1 X487.587 Y57.587
G1 X481.587 Y57.587
G1 X481.587 Y47.587
G1 X487.587 Y47.587
G1 X487.587 Y37.587
G1 X481.587 Y37.587
G1 X481.587 Y27.587
G1 X487.587 Y27.587
G1 X487.587 Y17.587
G1 X481.587 Y17.587
G1 X481.587 Y7.588
G1 X487.587 Y7.588
G0 Z5.000
G0 X487.587 Y7.588
G0 Z0.500
G1 Z-3.000 F180
G1 F650
G1 X487.587 Y1.588
G1 X498.699 Y1.588
G1 X498.699 Y7.588
G1 X509.810 Y7.588
G1 X509.810 Y1.588
G1 X520.921 Y1.588
G1 X520.921 Y7.588
G1 X532.032 Y7.588
G1 X532.032 Y1.588
G1 X543.143 Y1.588
G1 X543.143 Y7.588
G1 X554.254 Y7.588
G1 X554.254 Y1.588
G1 X565.365 Y1.588
G1 X565.365 Y7.588
G1 X576.476 Y7.588
G1 X576.476 Y1.588
G1 X587.587 Y1.588
G1 X587.587 Y7.588
G1 X587.587 Y17.587
G1 X581.587 Y17.587
G1 X581.587 Y27.587
G1 X587.587 Y27.587
G1 X587.587 Y37.587
G1 X581.587 Y37.587
G1 X581.587 Y47.587
G1 X587.587 Y47.587
G1 X587.587 Y57.587
G1 X581.587 Y57.587
G1 X581.587 Y67.588
G1 X587.587 Y67.588
G1 X587.587 Y77.588
G1 X576.476 Y77.588
G1 X576.476 Y71.588
G1 X565.365 Y71.588
G1 X565.365 Y77.588
G1 X554.254 Y77.588
G1 X554.254 Y71.588
G1 X543.143 Y71.588
G1 X543.143 Y77.588
G1 X532.032 Y77.588
G1 X532.032 Y71.588
G1 X520.921 Y71.588
G1 X520.921 Y77.588
G1 X509.810 Y77.588
G1 X509.810 Y71.588
G1 X498.699 Y71.588
G1 X498.699 Y77.588
G1 X487.587 Y77.588
G1 X481.587 Y77.588
G1 X481.587 Y67.588
G1 X487.587 Y67.588
G1 X487.587 Y57.587
G1 X481.587 Y57.587
G1 X481.587 Y47.587
G1 X487.587 Y47.587
G1 X487.587 Y37.587
G1 X481.587 Y37.587
G1 X481.587 Y27.587
G1 X487.587 Y27.587
G1 X487.587 Y17.587
G1 X481.587 Y17.587
G1 X481.587 Y7.588
G1 X487.587 Y7.588
G0 Z5.000
G0 X487.587 Y7.588
G0 Z0.500
G1 Z-4.500 F180
G1 F650
G1 X487.587 Y1.588
G1 X498.699 Y1.588
G1 X498.699 Y7.588
G1 X509.810 Y7.588
G1 X509.810 Y1.588
G1 X520.921 Y1.588
G1 X520.921 Y7.588
G1 X532.032 Y7.588
G1 X532.032 Y1.588
G1 X543.143 Y1.588
G1 X543.143 Y7.588
G1 X554.254 Y7.588
G1 X554.254 Y1.588
G1 X565.365 Y1.588
G1 X565.365 Y7.588
G1 X576.476 Y7.588
G1 X576.476 Y1.588
G1 X587.587 Y1.588
G1 X587.587 Y7.588
G1 X587.587 Y17.587
G1 X581.587 Y17.587
G1 X581.587 Y27.587
G1 X587.587 Y27.587
G1 X587.587 Y37.587
G1 X581.587 Y37.587
G1 X581.587 Y47.587
G1 X587.587 Y47.587
G1 X587.587 Y57.587
G1 X581.587 Y57.587
G1 X581.587 Y67.588
G1 X587.587 Y67.588
G1 X587.587 Y77.588
G1 X576.476 Y77.588
G1 X576.476 Y71.588
G1 X565.365 Y71.588
G1 X565.365 Y77.588
G1 X554.254 Y77.588
G1 X554.254 Y71.588
G1 X543.143 Y71.588
G1 X543.143 Y77.588
G1 X532.032 Y77.588
G1 X532.032 Y71.588
G1 X520.921 Y71.588
G1 X520.921 Y77.588
G1 X509.810 Y77.588
G1 X509.810 Y71.588
G1 X498.699 Y71.588
G1 X498.699 Y77.588
G1 X487.587 Y77.588
G1 X481.587 Y77.588
G1 X481.587 Y67.588
G1 X487.587 Y67.588
G1 X487.587 Y57.587
G1 X481.587 Y57.587
G1 X481.587 Y47.587
G1 X487.587 Y47.587
G1 X487.587 Y37.587
G1 X481.587 Y37.587
G1 X481.587 Y27.587
G1 X487.587 Y27.587
G1 X487.587 Y17.587
G1 X481.587 Y17.587
G1 X481.587 Y7.588
G1 X487.587 Y7.588
G0 Z5.000
G0 X487.587 Y7.588
G0 Z0.500
G1 Z-6.000 F180
G1 F650
G1 X487.587 Y1.588
G1 X498.699 Y1.588
G1 X498.699 Y7.588
G1 X509.810 Y7.588
G1 X509.810 Y1.588
G1 X520.921 Y1.588
G1 X520.921 Y7.588
G1 X532.032 Y7.588
G1 X532.032 Y1.588
G1 X543.143 Y1.588
G1 X543.143 Y7.588
G1 X554.254 Y7.588
G1 X554.254 Y1.588
G1 X565.365 Y1.588
G1 X565.365 Y7.588
G1 X576.476 Y7.588
G1 X576.476 Y1.588
G1 X587.587 Y1.588
G1 X587.587 Y7.588
G1 X587.587 Y17.587
G1 X581.587 Y17.587
G1 X581.587 Y27.587
G1 X587.587 Y27.587
G1 X587.587 Y37.587
G1 X581.587 Y37.587
G1 X581.587 Y47.587
G1 X587.587 Y47.587
G1 X587.587 Y57.587
G1 X581.587 Y57.587
G1 X581.587 Y67.588
G1 X587.587 Y67.588
G1 X587.587 Y77.588
G1 X576.476 Y77.588
G1 X576.476 Y71.588
G1 X565.365 Y71.588
G1 X565.365 Y77.588
G1 X554.254 Y77.588
G1 X554.254 Y71.588
G1 X543.143 Y71.588
G1 X543.143 Y77.588
G1 X532.032 Y77.588
G1 X532.032 Y71.588
G1 X520.921 Y71.588
G1 X520.921 Y77.588
G1 X509.810 Y77.588
G1 X509.810 Y71.588
G1 X498.699 Y71.588
G1 X498.699 Y77.588
G1 X487.587 Y77.588
G1 X481.587 Y77.588
G1 X481.587 Y67.588
G1 X487.587 Y67.588
G1 X487.587 Y57.587
G1 X481.587 Y57.587
G1 X481.587 Y47.587
G1 X487.587 Y47.587
G1 X487.587 Y37.587
G1 X481.587 Y37.587
G1 X481.587 Y27.587
G1 X487.587 Y27.587
G1 X487.587 Y17.587
G1 X481.587 Y17.587
G1 X481.587 Y7.588
G1 X487.587 Y7.588
G0 Z5.000
G0 X487.587 Y7.588
G0 Z0.500
G1 Z-6.350 F180
G1 F650
G1 X487.587 Y1.588
G1 X498.699 Y1.588
G1 X498.699 Y7.588
G1 X509.810 Y7.588
G1 X509.810 Y1.588
G1 X520.921 Y1.588
G1 X520.921 Y7.588
G1 X532.032 Y7.588
G1 X532.032 Y1.588
G1 X543.143 Y1.588
G1 X543.143 Y7.588
G1 X554.254 Y7.588
G1 X554.254 Y1.588
G1 X565.365 Y1.588
G1 X565.365 Y7.588
G1 X576.476 Y7.588
G1 X576.476 Y1.588
G1 X587.587 Y1.588
G1 X587.587 Y7.588
G1 X587.587 Y17.587
G1 X581.587 Y17.587
G1 X581.587 Y27.587
G1 X587.587 Y27.587
G1 X587.587 Y37.587
G1 X581.587 Y37.587
G1 X581.587 Y47.587
G1 X587.587 Y47.587
G1 X587.587 Y57.587
G1 X581.587 Y57.587
G1 X581.587 Y67.588
G1 X587.587 Y67.588
G1 X587.587 Y77.588
G1 X576.476 Y77.588
G1 X576.476 Y71.588
G1 X565.365 Y71.588
G1 X565.365 Y77.588
G1 X554.254 Y77.588
G1 X554.254 Y71.588
G1 X543.143 Y71.588
G1 X543.143 Y77.588
G1 X532.032 Y77.588
G1 X532.032 Y71.588
G1 X520.921 Y71.588
G1 X520.921 Y77.588
G1 X509.810 Y77.588
G1 X509.810 Y71.588
G1 X498.699 Y71.588
G1 X498.699 Y77.588
G1 X487.587 Y77.588
G1 X481.587 Y77.588
G1 X481.587 Y67.588
G1 X487.587 Y67.588
G1 X487.587 Y57.587
G1 X481.587 Y57.587
G1 X481.587 Y47.587
G1 X487.587 Y47.587
G1 X487.587 Y37.587
G1 X481.587 Y37.587
G1 X481.587 Y27.587
G1 X487.587 Y27.587
G1 X487.587 Y17.587
G1 X481.587 Y17.587
G1 X481.587 Y7.588
G1 X487.587 Y7.588
G0 Z5.000
(bottom panel)
G0 X7.588 Y97.588
G0 Z0.500
G1 Z-1.500 F180
G1 F650
G1 X7.588 Y91.588
G1 X18.254 Y91.588
G1 X18.254 Y97.588
G1 X28.921 Y97.588
G1 X28.921 Y91.588
G1 X39.587 Y91.588
G1 X39.587 Y97.588
G1 X50.254 Y97.588
G1 X50.254 Y91.588
G1 X60.921 Y91.588
G1 X60.921 Y97.588
G1 X71.588 Y97.588
G1 X71.588 Y91.588
G1 X82.254 Y91.588
G1 X82.254 Y97.588
G1 X92.921 Y97.588
G1 X92.921 Y91.588
G1 X103.588 Y91.588
G1 X103.588 Y97.588
G1 X114.254 Y97.588
G1 X114.254 Y91.588
G1 X124.921 Y91.588
G1 X124.921 Y97.588
G1 X135.588 Y97.588
G1 X135.588 Y91.588
G1 X146.254 Y91.588
G1 X146.254 Y97.588
G1 X156.921 Y97.588
G1 X156.921 Y91.588
G1 X167.588 Y91.588
G1 X167.588 Y97.588
G1 X173.588 Y97.588
G1 X173.588 Y108.699
G1 X167.588 Y108.699
G1 X167.588 Y119.810
G1 X173.588 Y119.810
G1 X173.588 Y130.921
G1 X167.588 Y130.921
G1 X167.588 Y142.032
G1 X173.588 Y142.032
G1 X173.588 Y153.143
G1 X167.588 Y153.143
G1 X167.588 Y164.254
G1 X173.588 Y164.254
G1 X173.588 Y175.365
G1 X167.588 Y175.365
G1 X167.588 Y186.476
G1 X173.588 Y186.476
G1 X173.588 Y197.588
G1 X167.588 Y197.588
G1 X167.588 Y203.588
G1 X156.921 Y203.588
G1 X156.921 Y197.588
G1 X146.254 Y197.588
G1 X146.254 Y203.588
G1 X135.588 Y203.588
G1 X135.588 Y197.588
G1 X124.921 Y197.588
G1 X124.921 Y203.588
G1 X114.254 Y203.588
G1 X114.254 Y197.588
G1 X103.588 Y197.588
G1 X103.588 Y203.588
G1 X92.921 Y203.588
G1 X92.921 Y197.588
G1 X82.254 Y197.588
G1 X82.254 Y203.588
G1 X71.588 Y203.588
G1 X71.588 Y197.588
G1 X60.921 Y197.588
G1 X60.921 Y203.588
G1 X50.254 Y203.588
G1 X50.254 Y197.588
G1 X39.587 Y197.588
G1 X39.587 Y203.588
G1 X28.921 Y203.588
G1 X28.921 Y197.588
G1 X18.254 Y197.588
G1 X18.254 Y203.588
G1 X7.588 Y203.588
G1 X7.588 Y197.588
G1 X1.588 Y197.588
G1 X1.588 Y186.476
G1 X7.588 Y186.476
G1 X7.588 Y175.365
G1 X1.588 Y175.365
G1 X1.588 Y164.254
G1 X7.588 Y164.254
G1 X7.588 Y153.143
G1 X1.588 Y153.143
G1 X1.588 Y142.032
G1 X7.588 Y142.032
G1 X7.588 Y130.921
G1 X1.588 Y130.921
G1 X1.588 Y119.810
G1 X7.588 Y119.810
G1 X7.588 Y108.699
G1 X1.588 Y108.699
G1 X1.588 Y97.588
G1 X7.588 Y97.588
G0 Z5.000
G0 X7.588 Y97.588
G0 Z0.500
G1 Z-3.000 F180
G1 F650
G1 X7.588 Y91.588
G1 X18.254 Y91.588
G1 X18.254 Y97.588
G1 X28.921 Y97.588
G1 X28.921 Y91.588
G1 X39.587 Y91.588
G1 X39.587 Y97.588
G1 X50.254 Y97.588
G1 X50.254 Y91.588
G1 X60.921 Y91.588
G1 X60.921 Y97.588
G1 X71.588 Y97.588
G1 X71.588 Y91.588
G1 X82.254 Y91.588
G1 X82.254 Y97.588
G1 X92.921 Y97.588
G1 X92.921 Y91.588
G1 X103.588 Y91.588
G1 X103.588 Y97.588
G1 X114.254 Y97.588
G1 X114.254 Y91.588
G1 X124.921 Y91.588
G1 X124.921 Y97.588
G1 X135.588 Y97.588
G1 X135.588 Y91.588
G1 X146.254 Y91.588
G1 X146.254 Y97.588
G1 X156.921 Y97.588
G1 X156.921 Y91.588
G1 X167.588 Y91.588
G1 X167.588 Y97.588
G1 X173.588 Y97.588
G1 X173.588 Y108.699
G1 X167.588 Y108.699
G1 X167.588 Y119.810
G1 X173.588 Y119.810
G1 X173.588 Y130.921
G1 X167.588 Y130.921
G1 X167.588 Y142.032
G1 X173.588 Y142.032
G1 X173.588 Y153.143
G1 X167.588 Y153.143
G1 X167.588 Y164.254
G1 X173.588 Y164.254
G1 X173.588 Y175.365
G1 X167.588 Y175.365
G1 X167.588 Y186.476
G1 X173.588 Y186.476
G1 X173.588 Y197.588
G1 X167.588 Y197.588
G1 X167.588 Y203.588
G1 X156.921 Y203.588
G1 X156.921 Y197.588
G1 X146.254 Y197.588
G1 X146.254 Y203.588
G1 X135.588 Y203.588
G1 X135.588 Y197.588
G1 X124.921 Y197.588
G1 X124.921 Y203.588
G1 X114.254 Y203.588
G1 X114.254 Y197.588
G1 X103.588 Y197.588
G1 X103.588 Y203.588
G1 X92.921 Y203.588
G1 X92.921 Y197.588
G1 X82.254 Y197.588
G1 X82.254 Y203.588
G1 X71.588 Y203.588
G1 X71.588 Y197.588
G1 X60.921 Y197.588
G1 X60.921 Y203.588
G1 X50.254 Y203.588
G1 X50.254 Y197.588
G1 X39.587 Y197.588
G1 X39.587 Y203.588
G1 X28.921 Y203.588
G1 X28.921 Y197.588
G1 X18.254 Y197.588
G1 X18.254 Y203.588
G1 X7.588 Y203.588
G1 X7.588 Y197.588
G1 X1.588 Y197.588
G1 X1.588 Y186.476
G1 X7.588 Y186.476
G1 X7.588 Y175.365
G1 X1.588 Y175.365
G1 X1.588 Y164.254
G1 X7.588 Y164.254
G1 X7.588 Y153.143
G1 X1.588 Y153.143
G1 X1.588 Y142.032
G1 X7.588 Y142.032
G1 X7.588 Y130.921
G1 X1.588 Y130.921
G1 X1.588 Y119.810
G1 X7.588 Y119.810
G1 X7.588 Y108.699
G1 X1.588 Y108.699
G1 X1.588 Y97.588
G1 X7.588 Y97.588
G0 Z5.000
G0 X7.588 Y97.588
G0 Z0.500
G1 Z-4.500 F180
G1 F650
G1 X7.588 Y91.588
G1 X18.254 Y91.588
G1 X18.254 Y97.588
G1 X28.921 Y97.588
G1 X28.921 Y91.588
G1 X39.587 Y91.588
G1 X39.587 Y97.588
G1 X50.254 Y97.588
G1 X50.254 Y91.588
G1 X60.921 Y91.588
G1 X60.921 Y97.588
G1 X71.588 Y97.588
G1 X71.588 Y91.588
G1 X82.254 Y91.588
G1 X82.254 Y97.588
G1 X92.921 Y97.588
G1 X92.921 Y91.588
G1 X103.588 Y91.588
G1 X103.588 Y97.588
G1 X114.254 Y97.588
G1 X114.254 Y91.588
G1 X124.921 Y91.588
G1 X124.921 Y97.588
G1 X135.588 Y97.588
G1 X135.588 Y91.588
G1 X146.254 Y91.588
G1 X146.254 Y97.588
G1 X156.921 Y97.588
G1 X156.921 Y91.588
G1 X167.588 Y91.588
G1 X167.588 Y97.588
G1 X173.588 Y97.588
G1 X173.588 Y108.699
G1 X167.588 Y108.699
G1 X167.588 Y119.810
G1 X173.588 Y119.810
G1 X173.588 Y130.921
G1 X167.588 Y130.921
G1 X167.588 Y142.032
G1 X173.588 Y142.032
G1 X173.588 Y153.143
G1 X167.588 Y153.143
G1 X167.588 Y164.254
G1 X173.588 Y164.254
G1 X173.588 Y175.365
G1 X167.588 Y175.365
G1 X167.588 Y186.476
G1 X173.588 Y186.476
G1 X173.588 Y197.588
G1 X167.588 Y197.588
G1 X167.588 Y203.588
G1 X156.921 Y203.588
G1 X156.921 Y197.588
G1 X146.254 Y197.588
G1 X146.254 Y203.588
G1 X135.588 Y203.588
G1 X135.588 Y197.588
G1 X124.921 Y197.588
G1 X124.921 Y203.588
G1 X114.254 Y203.588
G1 X114.254 Y197.588
G1 X103.588 Y197.588
G1 X103.588 Y203.588
G1 X92.921 Y203.588
G1 X92.921 Y197.588
G1 X82.254 Y197.588
G1 X82.254 Y203.588
G1 X71.588 Y203.588
G1 X71.588 Y197.588
G1 X60.921 Y197.588
G1 X60.921 Y203.588
G1 X50.254 Y203.588
G1 X50.254 Y197.588
G1 X39.587 Y197.588
G1 X39.587 Y203.588
G1 X28.921 Y203.588
G1 X28.921 Y197.588
G1 X18.254 Y197.588
G1 X18.254 Y203.588
G1 X7.588 Y203.588
G1 X7.588 Y197.588
G1 X1.588 Y197.588
G1 X1.588 Y186.476
G1 X7.588 Y186.476
G1 X7.588 Y175.365
G1 X1.588 Y175.365
G1 X1.588 Y164.254
G1 X7.588 Y164.254
G1 X7.588 Y153.143
G1 X1.588 Y153.143
G1 X1.588 Y142.032
G1 X7.588 Y142.032
G1 X7.588 Y130.921
G1 X1.588 Y130.921
G1 X1.588 Y119.810
G1 X7.588 Y119.810
G1 X7.588 Y108.699
G1 X1.588 Y108.699
G1 X1.588 Y97.588
G1 X7.588 Y97.588
G0 Z5.000
G0 X7.588 Y97.588
G0 Z0.500
G1 Z-6.000 F180
G1 F650
G1 X7.588 Y91.588
G1 X18.254 Y91.588
G1 X18.254 Y97.588
G1 X28.921 Y97.588
G1 X28.921 Y91.588
G1 X39.587 Y91.588
G1 X39.587 Y97.588
G1 X50.254 Y97.588
G1 X50.254 Y91.588
G1 X60.921 Y91.588
G1 X60.921 Y97.588
G1 X71.588 Y97.588
G1 X71.588 Y91.588
G1 X82.254 Y91.588
G1 X82.254 Y97.588
G1 X92.921 Y97.588
G1 X92.921 Y91.588
G1 X103.588 Y91.588
G1 X103.588 Y97.588
G1 X114.254 Y97.588
G1 X114.254 Y91.588
G1 X124.921 Y91.588
G1 X124.921 Y97.588
G1 X135.588 Y97.588
G1 X135.588 Y91.588
G1 X146.254 Y91.588
G1 X146.254 Y97.588
G1 X156.921 Y97.588
G1 X156.921 Y91.588
G1 X167.588 Y91.588
G1 X167.588 Y97.588
G1 X173.588 Y97.588
G1 X173.588 Y108.699
G1 X167.588 Y108.699
G1 X167.588 Y119.810
G1 X173.588 Y119.810
G1 X173.588 Y130.921
G1 X167.588 Y130.921
G1 X167.588 Y142.032
G1 X173.588 Y142.032
G1 X173.588 Y153.143
G1 X167.588 Y153.143
G1 X167.588 Y164.254
G1 X173.588 Y164.254
G1 X173.588 Y175.365
G1 X167.588 Y175.365
G1 X167.588 Y186.476
G1 X173.588 Y186.476
G1 X173.588 Y197.588
G1 X167.588 Y197.588
G1 X167.588 Y203.588
G1 X156.921 Y203.588
G1 X156.921 Y197.588
G1 X146.254 Y197.588
G1 X146.254 Y203.588
G1 X135.588 Y203.588
G1 X135.588 Y197.588
G1 X124.921 Y197.588
G1 X124.921 Y203.588
G1 X114.254 Y203.588
G1 X114.254 Y197.588
G1 X103.588 Y197.588
G1 X103.588 Y203.588
G1 X92.921 Y203.588
G1 X92.921 Y197.588
G1 X82.254 Y197.588
G1 X82.254 Y203.588
G1 X71.588 Y203.588
G1 X71.588 Y197.588
G1 X60.921 Y197.588
G1 X60.921 Y203.588
G1 X50.254 Y203.588
G1 X50.254 Y197.588
G1 X39.587 Y197.588
G1 X39.587 Y203.588
G1 X28.921 Y203.588
G1 X28.921 Y197.588
G1 X18.254 Y197.588
G1 X18.254 Y203.588
G1 X7.588 Y203.588
G1 X7.588 Y197.588
G1 X1.588 Y197.588
G1 X1.588 Y186.476
G1 X7.588 Y186.476
G1 X7.588 Y175.365
G1 X1.588 Y175.365
G1 X1.588 Y164.254
G1 X7.588 Y164.254
G1 X7.588 Y153.143
G1 X1.588 Y153.143
G1 X1.588 Y142.032
G1 X7.588 Y142.032
G1 X7.588 Y130.921
G1 X1.588 Y130.921
G1 X1.588 Y119.810
G1 X7.588 Y119.810
G1 X7.588 Y108.699
G1 X1.588 Y108.699
G1 X1.588 Y97.588
G1 X7.588 Y97.588
G0 Z5.000
G0 X7.588 Y97.588
G0 Z0.500
G1 Z-6.350 F180
G1 F650
G1 X7.588 Y91.588
G1 X18.254 Y91.588
G1 X18.254 Y97.588
G1 X28.921 Y97.588
G1 X28.921 Y91.588
G1 X39.587 Y91.588
G1 X39.587 Y97.588
G1 X50.254 Y97.588
G1 X50.254 Y91.588
G1 X60.921 Y91.588
G1 X60.921 Y97.588
G1 X71.588 Y97.588
G1 X71.588 Y91.588
G1 X82.254 Y91.588
G1 X82.254 Y97.588
G1 X92.921 Y97.588
G1 X92.921 Y91.588
G1 X103.588 Y91.588
G1 X103.588 Y97.588
G1 X114.254 Y97.588
G1 X114.254 Y91.588
G1 X124.921 Y91.588
G1 X124.921 Y97.588
G1 X135.588 Y97.588
G1 X135.588 Y91.588
G1 X146.254 Y91.588
G1 X146.254 Y97.588
G1 X156.921 Y97.588
G1 X156.921 Y91.588
G1 X167.588 Y91.588
G1 X167.588 Y97.588
G1 X173.588 Y97.588
G1 X173.588 Y108.699
G1 X167.588 Y108.699
G1 X167.588 Y119.810
G1 X173.588 Y119.810
G1 X173.588 Y130.921
G1 X167.588 Y130.921
G1 X167.588 Y142.032
G1 X173.588 Y142.032
G1 X173.588 Y153.143
G1 X167.588 Y153.143
G1 X167.588 Y164.254
G1 X173.588 Y164.254
G1 X173.588 Y175.365
G1 X167.588 Y175.365
G1 X167.588 Y186.476
G1 X173.588 Y186.476
G1 X173.588 Y197.588
G1 X167.588 Y197.588
G1 X167.588 Y203.588
G1 X156.921 Y203.588
G1 X156.921 Y197.588
G1 X146.254 Y197.588
G1 X146.254 Y203.588
G1 X135.588 Y203.588
G1 X135.588 Y197.588
G1 X124.921 Y197.588
G1 X124.921 Y203.588
G1 X114.254 Y203.588
G1 X114.254 Y197.588
G1 X103.588 Y197.588
G1 X103.588 Y203.588
G1 X92.921 Y203.588
G1 X92.921 Y197.588
G1 X82.254 Y197.588
G1 X82.254 Y203.588
G1 X71.588 Y203.588
G1 X71.588 Y197.588
G1 X60.921 Y197.588
G1 X60.921 Y203.588
G1 X50.254 Y203.588
G1 X50.254 Y197.588
G1 X39.587 Y197.588
G1 X39.587 Y203.588
G1 X28.921 Y203.588
G1 X28.921 Y197.588
G1 X18.254 Y197.588
G1 X18.254 Y203.588
G1 X7.588 Y203.588
G1 X7.588 Y197.588
G1 X1.588 Y197.588
G1 X1.588 Y186.476
G1 X7.588 Y186.476
G1 X7.588 Y175.365
G1 X1.588 Y175.365
G1 X1.588 Y164.254
G1 X7.588 Y164.254
G1 X7.588 Y153.143
G1 X1.588 Y153.143
G1 X1.588 Y142.032
G1 X7.588 Y142.032
G1 X7.588 Y130.921
G1 X1.588 Y130.921
G1 X1.588 Y119.810
G1 X7.588 Y119.810
G1 X7.588 Y108.699
G1 X1.588 Y108.699
G1 X1.588 Y97.588
G1 X7.588 Y97.588
G0 Z5.000
(top panel)
G0 X187.588 Y91.588
G0 Z0.500
G1 Z-1.500 F180
G1 F650
G1 X198.254 Y91.588
G1 X198.254 Y97.588
G1 X208.921 Y97.588
G1 X208.921 Y91.588
G1 X219.588 Y91.588
G1 X219.588 Y97.588
G1 X230.254 Y97.588
G1 X230.254 Y91.588
G1 X240.921 Y91.588
G1 X240.921 Y97.588
G1 X251.588 Y97.588
G1 X251.588 Y91.588
G1 X262.254 Y91.588
G1 X262.254 Y97.588
G1 X272.921 Y97.588
G1 X272.921 Y91.588
G1 X283.587 Y91.588
G1 X283.587 Y97.588
G1 X294.254 Y97.588
G1 X294.254 Y91.588
G1 X304.921 Y91.588
G1 X304.921 Y97.588
G1 X315.587 Y97.588
G1 X315.587 Y91.588
G1 X326.254 Y91.588
G1 X326.254 Y97.588
G1 X336.921 Y97.588
G1 X336.921 Y91.588
G1 X347.587 Y91.588
G1 X347.587 Y102.699
G1 X341.587 Y102.699
G1 X341.587 Y113.810
G1 X347.587 Y113.810
G1 X347.587 Y124.921
G1 X341.587 Y124.921
G1 X341.587 Y136.032
G1 X347.587 Y136.032
G1 X347.587 Y147.143
G1 X341.587 Y147.143
G1 X341.587 Y158.254
G1 X347.587 Y158.254
G1 X347.587 Y169.365
G1 X341.587 Y169.365
G1 X341.587 Y180.476
G1 X347.587 Y180.476
G1 X347.587 Y191.588
G1 X336.921 Y191.588
G1 X336.921 Y185.588
G1 X326.254 Y185.588
G1 X326.254 Y191.588
G1 X315.587 Y191.588
G1 X315.587 Y185.588
G1 X304.921 Y185.588
G1 X304.921 Y191.588
G1 X294.254 Y191.588
G1 X294.254 Y185.588
G1 X283.587 Y185.588
G1 X283.587 Y191.588
G1 X272.921 Y191.588
G1 X272.921 Y185.588
G1 X262.254 Y185.588
G1 X262.254 Y191.588
G1 X251.588 Y191.588
G1 X251.588 Y185.588
G1 X240.921 Y185.588
G1 X240.921 Y191.588
G1 X230.254 Y191.588
G1 X230.254 Y185.588
G1 X219.588 Y185.588
G1 X219.588 Y191.588
G1 X208.921 Y191.588
G1 X208.921 Y185.588
G1 X198.254 Y185.588
G1 X198.254 Y191.588
G1 X187.588 Y191.588
G1 X187.588 Y180.476
G1 X193.588 Y180.476
G1 X193.588 Y169.365
G1 X187.588 Y169.365
G1 X187.588 Y158.254
G1 X193.588 Y158.254
G1 X193.588 Y147.143
G1 X187.588 Y147.143
G1 X187.588 Y136.032
G1 X193.588 Y136.032
G1 X193.588 Y124.921
G1 X187.588 Y124.921
G1 X187.588 Y113.810
G1 X193.588 Y113.810
G1 X193.588 Y102.699
