%
(finger-box generated by box-creator)
(GRBL compatible, millimetres, absolute positioning)
(stock 800.000 x 800.000 mm)
G21
G90
G94
G0 Z5.000
S18000 M3
(stock sheet 1)
(corner relief diameter 3.175 mm)
(relief holes for front)
G0 X12.254 Y7.588
G0 Z0.500
G1 Z-1.000 F180
G1 X12.254 Y7.588 F650
G1 Z-2.000 F180
G1 X12.254 Y7.588 F650
G1 Z-3.000 F180
G1 X12.254 Y7.588 F650
G1 Z-4.000 F180
G1 X12.254 Y7.588 F650
G1 Z-5.000 F180
G1 X12.254 Y7.588 F650
G1 Z-6.000 F180
G1 X12.254 Y7.588 F650
G1 Z-6.350 F180
G1 X12.254 Y7.588 F650
G0 Z5.000
G0 X22.921 Y7.588
G0 Z0.500
G1 Z-1.000 F180
G1 X22.921 Y7.588 F650
G1 Z-2.000 F180
G1 X22.921 Y7.588 F650
G1 Z-3.000 F180
G1 X22.921 Y7.588 F650
G1 Z-4.000 F180
G1 X22.921 Y7.588 F650
G1 Z-5.000 F180
G1 X22.921 Y7.588 F650
G1 Z-6.000 F180
G1 X22.921 Y7.588 F650
G1 Z-6.350 F180
G1 X22.921 Y7.588 F650
G0 Z5.000
G0 X33.587 Y7.588
G0 Z0.500
G1 Z-1.000 F180
G1 X33.587 Y7.588 F650
G1 Z-2.000 F180
G1 X33.587 Y7.588 F650
G1 Z-3.000 F180
G1 X33.587 Y7.588 F650
G1 Z-4.000 F180
G1 X33.587 Y7.588 F650
G1 Z-5.000 F180
G1 X33.587 Y7.588 F650
G1 Z-6.000 F180
G1 X33.587 Y7.588 F650
G1 Z-6.350 F180
G1 X33.587 Y7.588 F650
G0 Z5.000
G0 X44.254 Y7.588
G0 Z0.500
G1 Z-1.000 F180
G1 X44.254 Y7.588 F650
G1 Z-2.000 F180
G1 X44.254 Y7.588 F650
G1 Z-3.000 F180
G1 X44.254 Y7.588 F650
G1 Z-4.000 F180
G1 X44.254 Y7.588 F650
G1 Z-5.000 F180
G1 X44.254 Y7.588 F650
G1 Z-6.000 F180
G1 X44.254 Y7.588 F650
G1 Z-6.350 F180
G1 X44.254 Y7.588 F650
G0 Z5.000
G0 X54.921 Y7.588
G0 Z0.500
G1 Z-1.000 F180
G1 X54.921 Y7.588 F650
G1 Z-2.000 F180
G1 X54.921 Y7.588 F650
G1 Z-3.000 F180
G1 X54.921 Y7.588 F650
G1 Z-4.000 F180
G1 X54.921 Y7.588 F650
G1 Z-5.000 F180
G1 X54.921 Y7.588 F650
G1 Z-6.000 F180
G1 X54.921 Y7.588 F650
G1 Z-6.350 F180
G1 X54.921 Y7.588 F650
G0 Z5.000
G0 X65.588 Y7.588
G0 Z0.500
G1 Z-1.000 F180
G1 X65.588 Y7.588 F650
G1 Z-2.000 F180
G1 X65.588 Y7.588 F650
G1 Z-3.000 F180
G1 X65.588 Y7.588 F650
G1 Z-4.000 F180
G1 X65.588 Y7.588 F650
G1 Z-5.000 F180
G1 X65.588 Y7.588 F650
G1 Z-6.000 F180
G1 X65.588 Y7.588 F650
G1 Z-6.350 F180
G1 X65.588 Y7.588 F650
G0 Z5.000
G0 X76.254 Y7.588
G0 Z0.500
G1 Z-1.000 F180
G1 X76.254 Y7.588 F650
G1 Z-2.000 F180
G1 X76.254 Y7.588 F650
G1 Z-3.000 F180
G1 X76.254 Y7.588 F650
G1 Z-4.000 F180
G1 X76.254 Y7.588 F650
G1 Z-5.000 F180
G1 X76.254 Y7.588 F650
G1 Z-6.000 F180
G1 X76.254 Y7.588 F650
G1 Z-6.350 F180
G1 X76.254 Y7.588 F650
G0 Z5.000
G0 X86.921 Y7.588
G0 Z0.500
G1 Z-1.000 F180
G1 X86.921 Y7.588 F650
G1 Z-2.000 F180
G1 X86.921 Y7.588 F650
G1 Z-3.000 F180
G1 X86.921 Y7.588 F650
G1 Z-4.000 F180
G1 X86.921 Y7.588 F650
G1 Z-5.000 F180
G1 X86.921 Y7.588 F650
G1 Z-6.000 F180
G1 X86.921 Y7.588 F650
G1 Z-6.350 F180
G1 X86.921 Y7.588 F650
G0 Z5.000
G0 X97.588 Y7.588
G0 Z0.500
G1 Z-1.000 F180
G1 X97.588 Y7.588 F650
G1 Z-2.000 F180
G1 X97.588 Y7.588 F650
G1 Z-3.000 F180
G1 X97.588 Y7.588 F650
G1 Z-4.000 F180
G1 X97.588 Y7.588 F650
G1 Z-5.000 F180
G1 X97.588 Y7.588 F650
G1 Z-6.000 F180
G1 X97.588 Y7.588 F650
G1 Z-6.350 F180
G1 X97.588 Y7.588 F650
G0 Z5.000
G0 X108.254 Y7.588
G0 Z0.500
G1 Z-1.000 F180
G1 X108.254 Y7.588 F650
G1 Z-2.000 F180
G1 X108.254 Y7.588 F650
G1 Z-3.000 F180
G1 X108.254 Y7.588 F650
G1 Z-4.000 F180
G1 X108.254 Y7.588 F650
G1 Z-5.000 F180
G1 X108.254 Y7.588 F650
G1 Z-6.000 F180
G1 X108.254 Y7.588 F650
G1 Z-6.350 F180
G1 X108.254 Y7.588 F650
G0 Z5.000
G0 X118.921 Y7.588
G0 Z0.500
G1 Z-1.000 F180
G1 X118.921 Y7.588 F650
G1 Z-2.000 F180
G1 X118.921 Y7.588 F650
G1 Z-3.000 F180
G1 X118.921 Y7.588 F650
G1 Z-4.000 F180
G1 X118.921 Y7.588 F650
G1 Z-5.000 F180
G1 X118.921 Y7.588 F650
G1 Z-6.000 F180
G1 X118.921 Y7.588 F650
G1 Z-6.350 F180
G1 X118.921 Y7.588 F650
G0 Z5.000
G0 X129.588 Y7.588
G0 Z0.500
G1 Z-1.000 F180
G1 X129.588 Y7.588 F650
G1 Z-2.000 F180
G1 X129.588 Y7.588 F650
G1 Z-3.000 F180
G1 X129.588 Y7.588 F650
G1 Z-4.000 F180
G1 X129.588 Y7.588 F650
G1 Z-5.000 F180
G1 X129.588 Y7.588 F650
G1 Z-6.000 F180
G1 X129.588 Y7.588 F650
G1 Z-6.350 F180
G1 X129.588 Y7.588 F650
G0 Z5.000
G0 X140.254 Y7.588
G0 Z0.500
G1 Z-1.000 F180
G1 X140.254 Y7.588 F650
G1 Z-2.000 F180
G1 X140.254 Y7.588 F650
G1 Z-3.000 F180
G1 X140.254 Y7.588 F650
G1 Z-4.000 F180
G1 X140.254 Y7.588 F650
G1 Z-5.000 F180
G1 X140.254 Y7.588 F650
G1 Z-6.000 F180
G1 X140.254 Y7.588 F650
G1 Z-6.350 F180
G1 X140.254 Y7.588 F650
G0 Z5.000
G0 X150.921 Y7.588
G0 Z0.500
G1 Z-1.000 F180
G1 X150.921 Y7.588 F650
G1 Z-2.000 F180
G1 X150.921 Y7.588 F650
G1 Z-3.000 F180
G1 X150.921 Y7.588 F650
G1 Z-4.000 F180
G1 X150.921 Y7.588 F650
G1 Z-5.000 F180
G1 X150.921 Y7.588 F650
G1 Z-6.000 F180
G1 X150.921 Y7.588 F650
G1 Z-6.350 F180
G1 X150.921 Y7.588 F650
G0 Z5.000
G0 X161.588 Y11.588
G0 Z0.500
G1 Z-1.000 F180
G1 X161.588 Y11.588 F650
G1 Z-2.000 F180
G1 X161.588 Y11.588 F650
G1 Z-3.000 F180
G1 X161.588 Y11.588 F650
G1 Z-4.000 F180
G1 X161.588 Y11.588 F650
G1 Z-5.000 F180
G1 X161.588 Y11.588 F650
G1 Z-6.000 F180
G1 X161.588 Y11.588 F650
G1 Z-6.350 F180
G1 X161.588 Y11.588 F650
G0 Z5.000
G0 X161.588 Y21.587
G0 Z0.500
G1 Z-1.000 F180
G1 X161.588 Y21.587 F650
G1 Z-2.000 F180
G1 X161.588 Y21.587 F650
G1 Z-3.000 F180
G1 X161.588 Y21.587 F650
G1 Z-4.000 F180
G1 X161.588 Y21.587 F650
G1 Z-5.000 F180
G1 X161.588 Y21.587 F650
G1 Z-6.000 F180
G1 X161.588 Y21.587 F650
G1 Z-6.350 F180
G1 X161.588 Y21.587 F650
G0 Z5.000
G0 X161.588 Y31.587
G0 Z0.500
G1 Z-1.000 F180
G1 X161.588 Y31.587 F650
G1 Z-2.000 F180
G1 X161.588 Y31.587 F650
G1 Z-3.000 F180
G1 X161.588 Y31.587 F650
G1 Z-4.000 F180
G1 X161.588 Y31.587 F650
G1 Z-5.000 F180
G1 X161.588 Y31.587 F650
G1 Z-6.000 F180
G1 X161.588 Y31.587 F650
G1 Z-6.350 F180
G1 X161.588 Y31.587 F650
G0 Z5.000
G0 X161.588 Y41.587
G0 Z0.500
G1 Z-1.000 F180
G1 X161.588 Y41.587 F650
G1 Z-2.000 F180
G1 X161.588 Y41.587 F650
G1 Z-3.000 F180
G1 X161.588 Y41.587 F650
G1 Z-4.000 F180
G1 X161.588 Y41.587 F650
G1 Z-5.000 F180
G1 X161.588 Y41.587 F650
G1 Z-6.000 F180
G1 X161.588 Y41.587 F650
G1 Z-6.350 F180
G1 X161.588 Y41.587 F650
G0 Z5.000
G0 X161.588 Y51.587
G0 Z0.500
G1 Z-1.000 F180
G1 X161.588 Y51.587 F650
G1 Z-2.000 F180
G1 X161.588 Y51.587 F650
G1 Z-3.000 F180
G1 X161.588 Y51.587 F650
G1 Z-4.000 F180
G1 X161.588 Y51.587 F650
G1 Z-5.000 F180
G1 X161.588 Y51.587 F650
G1 Z-6.000 F180
G1 X161.588 Y51.587 F650
G1 Z-6.350 F180
G1 X161.588 Y51.587 F650
G0 Z5.000
G0 X161.588 Y61.587
G0 Z0.500
G1 Z-1.000 F180
G1 X161.588 Y61.587 F650
G1 Z-2.000 F180
G1 X161.588 Y61.587 F650
G1 Z-3.000 F180
G1 X161.588 Y61.587 F650
G1 Z-4.000 F180
G1 X161.588 Y61.587 F650
G1 Z-5.000 F180
G1 X161.588 Y61.587 F650
G1 Z-6.000 F180
G1 X161.588 Y61.587 F650
G1 Z-6.350 F180
G1 X161.588 Y61.587 F650
G0 Z5.000
G0 X161.588 Y71.588
G0 Z0.500
G1 Z-1.000 F180
G1 X161.588 Y71.588 F650
G1 Z-2.000 F180
G1 X161.588 Y71.588 F650
G1 Z-3.000 F180
G1 X161.588 Y71.588 F650
G1 Z-4.000 F180
G1 X161.588 Y71.588 F650
G1 Z-5.000 F180
G1 X161.588 Y71.588 F650
G1 Z-6.000 F180
G1 X161.588 Y71.588 F650
G1 Z-6.350 F180
G1 X161.588 Y71.588 F650
G0 Z5.000
G0 X150.921 Y71.588
G0 Z0.500
G1 Z-1.000 F180
G1 X150.921 Y71.588 F650
G1 Z-2.000 F180
G1 X150.921 Y71.588 F650
G1 Z-3.000 F180
G1 X150.921 Y71.588 F650
G1 Z-4.000 F180
G1 X150.921 Y71.588 F650
G1 Z-5.000 F180
G1 X150.921 Y71.588 F650
G1 Z-6.000 F180
G1 X150.921 Y71.588 F650
G1 Z-6.350 F180
G1 X150.921 Y71.588 F650
G0 Z5.000
G0 X140.254 Y71.588
G0 Z0.500
G1 Z-1.000 F180
G1 X140.254 Y71.588 F650
G1 Z-2.000 F180
G1 X140.254 Y71.588 F650
G1 Z-3.000 F180
G1 X140.254 Y71.588 F650
G1 Z-4.000 F180
G1 X140.254 Y71.588 F650
G1 Z-5.000 F180
G1 X140.254 Y71.588 F650
G1 Z-6.000 F180
G1 X140.254 Y71.588 F650
G1 Z-6.350 F180
G1 X140.254 Y71.588 F650
G0 Z5.000
G0 X129.588 Y71.588
G0 Z0.500
G1 Z-1.000 F180
G1 X129.588 Y71.588 F650
G1 Z-2.000 F180
G1 X129.588 Y71.588 F650
G1 Z-3.000 F180
G1 X129.588 Y71.588 F650
G1 Z-4.000 F180
G1 X129.588 Y71.588 F650
G1 Z-5.000 F180
G1 X129.588 Y71.588 F650
G1 Z-6.000 F180
G1 X129.588 Y71.588 F650
G1 Z-6.350 F180
G1 X129.588 Y71.588 F650
G0 Z5.000
G0 X118.921 Y71.588
G0 Z0.500
G1 Z-1.000 F180
G1 X118.921 Y71.588 F650
G1 Z-2.000 F180
G1 X118.921 Y71.588 F650
G1 Z-3.000 F180
G1 X118.921 Y71.588 F650
G1 Z-4.000 F180
G1 X118.921 Y71.588 F650
G1 Z-5.000 F180
G1 X118.921 Y71.588 F650
G1 Z-6.000 F180
G1 X118.921 Y71.588 F650
G1 Z-6.350 F180
G1 X118.921 Y71.588 F650
G0 Z5.000
G0 X108.254 Y71.588
G0 Z0.500
G1 Z-1.000 F180
G1 X108.254 Y71.588 F650
G1 Z-2.000 F180
G1 X108.254 Y71.588 F650
G1 Z-3.000 F180
G1 X108.254 Y71.588 F650
G1 Z-4.000 F180
G1 X108.254 Y71.588 F650
G1 Z-5.000 F180
G1 X108.254 Y71.588 F650
G1 Z-6.000 F180
G1 X108.254 Y71.588 F650
G1 Z-6.350 F180
G1 X108.254 Y71.588 F650
G0 Z5.000
G0 X97.588 Y71.588
G0 Z0.500
G1 Z-1.000 F180
G1 X97.588 Y71.588 F650
G1 Z-2.000 F180
G1 X97.588 Y71.588 F650
G1 Z-3.000 F180
G1 X97.588 Y71.588 F650
G1 Z-4.000 F180
G1 X97.588 Y71.588 F650
G1 Z-5.000 F180
G1 X97.588 Y71.588 F650
G1 Z-6.000 F180
G1 X97.588 Y71.588 F650
G1 Z-6.350 F180
G1 X97.588 Y71.588 F650
G0 Z5.000
G0 X86.921 Y71.588
G0 Z0.500
G1 Z-1.000 F180
G1 X86.921 Y71.588 F650
G1 Z-2.000 F180
G1 X86.921 Y71.588 F650
G1 Z-3.000 F180
G1 X86.921 Y71.588 F650
G1 Z-4.000 F180
G1 X86.921 Y71.588 F650
G1 Z-5.000 F180
G1 X86.921 Y71.588 F650
G1 Z-6.000 F180
G1 X86.921 Y71.588 F650
G1 Z-6.350 F180
G1 X86.921 Y71.588 F650
G0 Z5.000
G0 X76.254 Y71.588
G0 Z0.500
G1 Z-1.000 F180
G1 X76.254 Y71.588 F650
G1 Z-2.000 F180
G1 X76.254 Y71.588 F650
G1 Z-3.000 F180
G1 X76.254 Y71.588 F650
G1 Z-4.000 F180
G1 X76.254 Y71.588 F650
G1 Z-5.000 F180
G1 X76.254 Y71.588 F650
G1 Z-6.000 F180
G1 X76.254 Y71.588 F650
G1 Z-6.350 F180
G1 X76.254 Y71.588 F650
G0 Z5.000
G0 X65.588 Y71.588
G0 Z0.500
G1 Z-1.000 F180
G1 X65.588 Y71.588 F650
G1 Z-2.000 F180
G1 X65.588 Y71.588 F650
G1 Z-3.000 F180
G1 X65.588 Y71.588 F650
G1 Z-4.000 F180
G1 X65.588 Y71.588 F650
G1 Z-5.000 F180
G1 X65.588 Y71.588 F650
G1 Z-6.000 F180
G1 X65.588 Y71.588 F650
G1 Z-6.350 F180
G1 X65.588 Y71.588 F650
G0 Z5.000
G0 X54.921 Y71.588
G0 Z0.500
G1 Z-1.000 F180
G1 X54.921 Y71.588 F650
G1 Z-2.000 F180
G1 X54.921 Y71.588 F650
G1 Z-3.000 F180
G1 X54.921 Y71.588 F650
G1 Z-4.000 F180
G1 X54.921 Y71.588 F650
G1 Z-5.000 F180
G1 X54.921 Y71.588 F650
G1 Z-6.000 F180
G1 X54.921 Y71.588 F650
G1 Z-6.350 F180
G1 X54.921 Y71.588 F650
G0 Z5.000
G0 X44.254 Y71.588
G0 Z0.500
G1 Z-1.000 F180
G1 X44.254 Y71.588 F650
G1 Z-2.000 F180
G1 X44.254 Y71.588 F650
G1 Z-3.000 F180
G1 X44.254 Y71.588 F650
G1 Z-4.000 F180
G1 X44.254 Y71.588 F650
G1 Z-5.000 F180
G1 X44.254 Y71.588 F650
G1 Z-6.000 F180
G1 X44.254 Y71.588 F650
G1 Z-6.350 F180
G1 X44.254 Y71.588 F650
G0 Z5.000
G0 X33.587 Y71.588
G0 Z0.500
G1 Z-1.000 F180
G1 X33.587 Y71.588 F650
G1 Z-2.000 F180
G1 X33.587 Y71.588 F650
G1 Z-3.000 F180
G1 X33.587 Y71.588 F650
G1 Z-4.000 F180
G1 X33.587 Y71.588 F650
G1 Z-5.000 F180
G1 X33.587 Y71.588 F650
G1 Z-6.000 F180
G1 X33.587 Y71.588 F650
G1 Z-6.350 F180
G1 X33.587 Y71.588 F650
G0 Z5.000
G0 X22.921 Y71.588
G0 Z0.500
G1 Z-1.000 F180
G1 X22.921 Y71.588 F650
G1 Z-2.000 F180
G1 X22.921 Y71.588 F650
G1 Z-3.000 F180
G1 X22.921 Y71.588 F650
G1 Z-4.000 F180
G1 X22.921 Y71.588 F650
G1 Z-5.000 F180
G1 X22.921 Y71.588 F650
G1 Z-6.000 F180
G1 X22.921 Y71.588 F650
G1 Z-6.350 F180
G1 X22.921 Y71.588 F650
G0 Z5.000
G0 X12.254 Y71.588
G0 Z0.500
G1 Z-1.000 F180
G1 X12.254 Y71.588 F650
G1 Z-2.000 F180
G1 X12.254 Y71.588 F650
G1 Z-3.000 F180
G1 X12.254 Y71.588 F650
G1 Z-4.000 F180
G1 X12.254 Y71.588 F650
G1 Z-5.000 F180
G1 X12.254 Y71.588 F650
G1 Z-6.000 F180
G1 X12.254 Y71.588 F650
G1 Z-6.350 F180
G1 X12.254 Y71.588 F650
G0 Z5.000
G0 X7.588 Y61.587
G0 Z0.500
G1 Z-1.000 F180
G1 X7.588 Y61.587 F650
G1 Z-2.000 F180
G1 X7.588 Y61.587 F650
G1 Z-3.000 F180
G1 X7.588 Y61.587 F650
G1 Z-4.000 F180
G1 X7.588 Y61.587 F650
G1 Z-5.000 F180
G1 X7.588 Y61.587 F650
G1 Z-6.000 F180
G1 X7.588 Y61.587 F650
G1 Z-6.350 F180
G1 X7.588 Y61.587 F650
G0 Z5.000
G0 X7.588 Y51.587
G0 Z0.500
G1 Z-1.000 F180
G1 X7.588 Y51.587 F650
G1 Z-2.000 F180
G1 X7.588 Y51.587 F650
G1 Z-3.000 F180
G1 X7.588 Y51.587 F650
G1 Z-4.000 F180
G1 X7.588 Y51.587 F650
G1 Z-5.000 F180
G1 X7.588 Y51.587 F650
G1 Z-6.000 F180
G1 X7.588 Y51.587 F650
G1 Z-6.350 F180
G1 X7.588 Y51.587 F650
G0 Z5.000
G0 X7.588 Y41.587
G0 Z0.500
G1 Z-1.000 F180
G1 X7.588 Y41.587 F650
G1 Z-2.000 F180
G1 X7.588 Y41.587 F650
G1 Z-3.000 F180
G1 X7.588 Y41.587 F650
G1 Z-4.000 F180
G1 X7.588 Y41.587 F650
G1 Z-5.000 F180
G1 X7.588 Y41.587 F650
G1 Z-6.000 F180
G1 X7.588 Y41.587 F650
G1 Z-6.350 F180
G1 X7.588 Y41.587 F650
G0 Z5.000
G0 X7.588 Y31.587
G0 Z0.500
G1 Z-1.000 F180
G1 X7.588 Y31.587 F650
G1 Z-2.000 F180
G1 X7.588 Y31.587 F650
G1 Z-3.000 F180
G1 X7.588 Y31.587 F650
G1 Z-4.000 F180
G1 X7.588 Y31.587 F650
G1 Z-5.000 F180
G1 X7.588 Y31.587 F650
G1 Z-6.000 F180
G1 X7.588 Y31.587 F650
G1 Z-6.350 F180
G1 X7.588 Y31.587 F650
G0 Z5.000
G0 X7.588 Y21.587
G0 Z0.500
G1 Z-1.000 F180
G1 X7.588 Y21.587 F650
G1 Z-2.000 F180
G1 X7.588 Y21.587 F650
G1 Z-3.000 F180
G1 X7.588 Y21.587 F650
G1 Z-4.000 F180
G1 X7.588 Y21.587 F650
G1 Z-5.000 F180
G1 X7.588 Y21.587 F650
G1 Z-6.000 F180
G1 X7.588 Y21.587 F650
G1 Z-6.350 F180
G1 X7.588 Y21.587 F650
G0 Z5.000
G0 X7.588 Y11.588
G0 Z0.500
G1 Z-1.000 F180
G1 X7.588 Y11.588 F650
G1 Z-2.000 F180
G1 X7.588 Y11.588 F650
G1 Z-3.000 F180
G1 X7.588 Y11.588 F650
G1 Z-4.000 F180
G1 X7.588 Y11.588 F650
G1 Z-5.000 F180
G1 X7.588 Y11.588 F650
G1 Z-6.000 F180
G1 X7.588 Y11.588 F650
G1 Z-6.350 F180
G1 X7.588 Y11.588 F650
G0 Z5.000
(relief holes for back)
G0 X192.254 Y7.588
G0 Z0.500
G1 Z-1.000 F180
G1 X192.254 Y7.588 F650
G1 Z-2.000 F180
G1 X192.254 Y7.588 F650
G1 Z-3.000 F180
G1 X192.254 Y7.588 F650
G1 Z-4.000 F180
G1 X192.254 Y7.588 F650
G1 Z-5.000 F180
G1 X192.254 Y7.588 F650
G1 Z-6.000 F180
G1 X192.254 Y7.588 F650
G1 Z-6.350 F180
G1 X192.254 Y7.588 F650
G0 Z5.000
G0 X202.921 Y7.588
G0 Z0.500
G1 Z-1.000 F180
G1 X202.921 Y7.588 F650
G1 Z-2.000 F180
G1 X202.921 Y7.588 F650
G1 Z-3.000 F180
G1 X202.921 Y7.588 F650
G1 Z-4.000 F180
G1 X202.921 Y7.588 F650
G1 Z-5.000 F180
G1 X202.921 Y7.588 F650
G1 Z-6.000 F180
G1 X202.921 Y7.588 F650
G1 Z-6.350 F180
G1 X202.921 Y7.588 F650
G0 Z5.000
G0 X213.588 Y7.588
G0 Z0.500
G1 Z-1.000 F180
G1 X213.588 Y7.588 F650
G1 Z-2.000 F180
G1 X213.588 Y7.588 F650
G1 Z-3.000 F180
G1 X213.588 Y7.588 F650
G1 Z-4.000 F180
G1 X213.588 Y7.588 F650
G1 Z-5.000 F180
G1 X213.588 Y7.588 F650
G1 Z-6.000 F180
G1 X213.588 Y7.588 F650
G1 Z-6.350 F180
G1 X213.588 Y7.588 F650
G0 Z5.000
G0 X224.254 Y7.588
G0 Z0.500
G1 Z-1.000 F180
G1 X224.254 Y7.588 F650
G1 Z-2.000 F180
G1 X224.254 Y7.588 F650
G1 Z-3.000 F180
G1 X224.254 Y7.588 F650
G1 Z-4.000 F180
G1 X224.254 Y7.588 F650
G1 Z-5.000 F180
G1 X224.254 Y7.588 F650
G1 Z-6.000 F180
G1 X224.254 Y7.588 F650
G1 Z-6.350 F180
G1 X224.254 Y7.588 F650
G0 Z5.000
G0 X234.921 Y7.588
G0 Z0.500
G1 Z-1.000 F180
G1 X234.921 Y7.588 F650
G1 Z-2.000 F180
G1 X234.921 Y7.588 F650
G1 Z-3.000 F180
G1 X234.921 Y7.588 F650
G1 Z-4.000 F180
G1 X234.921 Y7.588 F650
G1 Z-5.000 F180
G1 X234.921 Y7.588 F650
G1 Z-6.000 F180
G1 X234.921 Y7.588 F650
G1 Z-6.350 F180
G1 X234.921 Y7.588 F650
G0 Z5.000
G0 X245.588 Y7.588
G0 Z0.500
G1 Z-1.000 F180
G1 X245.588 Y7.588 F650
G1 Z-2.000 F180
G1 X245.588 Y7.588 F650
G1 Z-3.000 F180
G1 X245.588 Y7.588 F650
G1 Z-4.000 F180
G1 X245.588 Y7.588 F650
G1 Z-5.000 F180
G1 X245.588 Y7.588 F650
G1 Z-6.000 F180
G1 X245.588 Y7.588 F650
G1 Z-6.350 F180
G1 X245.588 Y7.588 F650
G0 Z5.000
G0 X256.254 Y7.588
G0 Z0.500
G1 Z-1.000 F180
G1 X256.254 Y7.588 F650
G1 Z-2.000 F180
G1 X256.254 Y7.588 F650
G1 Z-3.000 F180
G1 X256.254 Y7.588 F650
G1 Z-4.000 F180
G1 X256.254 Y7.588 F650
G1 Z-5.000 F180
G1 X256.254 Y7.588 F650
G1 Z-6.000 F180
G1 X256.254 Y7.588 F650
G1 Z-6.350 F180
G1 X256.254 Y7.588 F650
G0 Z5.000
G0 X266.921 Y7.588
G0 Z0.500
G1 Z-1.000 F180
G1 X266.921 Y7.588 F650
G1 Z-2.000 F180
G1 X266.921 Y7.588 F650
G1 Z-3.000 F180
G1 X266.921 Y7.588 F650
G1 Z-4.000 F180
G1 X266.921 Y7.588 F650
G1 Z-5.000 F180
G1 X266.921 Y7.588 F650
G1 Z-6.000 F180
G1 X266.921 Y7.588 F650
G1 Z-6.350 F180
G1 X266.921 Y7.588 F650
G0 Z5.000
G0 X277.587 Y7.588
G0 Z0.500
G1 Z-1.000 F180
G1 X277.587 Y7.588 F650
G1 Z-2.000 F180
G1 X277.587 Y7.588 F650
G1 Z-3.000 F180
G1 X277.587 Y7.588 F650
G1 Z-4.000 F180
G1 X277.587 Y7.588 F650
G1 Z-5.000 F180
G1 X277.587 Y7.588 F650
G1 Z-6.000 F180
G1 X277.587 Y7.588 F650
G1 Z-6.350 F180
G1 X277.587 Y7.588 F650
G0 Z5.000
G0 X288.254 Y7.588
G0 Z0.500
G1 Z-1.000 F180
G1 X288.254 Y7.588 F650
G1 Z-2.000 F180
G1 X288.254 Y7.588 F650
G1 Z-3.000 F180
G1 X288.254 Y7.588 F650
G1 Z-4.000 F180
G1 X288.254 Y7.588 F650
G1 Z-5.000 F180
G1 X288.254 Y7.588 F650
G1 Z-6.000 F180
G1 X288.254 Y7.588 F650
G1 Z-6.350 F180
G1 X288.254 Y7.588 F650
G0 Z5.000
G0 X298.921 Y7.588
G0 Z0.500
G1 Z-1.000 F180
G1 X298.921 Y7.588 F650
G1 Z-2.000 F180
G1 X298.921 Y7.588 F650
G1 Z-3.000 F180
G1 X298.921 Y7.588 F650
G1 Z-4.000 F180
G1 X298.921 Y7.588 F650
G1 Z-5.000 F180
G1 X298.921 Y7.588 F650
G1 Z-6.000 F180
G1 X298.921 Y7.588 F650
G1 Z-6.350 F180
G1 X298.921 Y7.588 F650
G0 Z5.000
G0 X309.587 Y7.588
G0 Z0.500
G1 Z-1.000 F180
G1 X309.587 Y7.588 F650
G1 Z-2.000 F180
G1 X309.587 Y7.588 F650
G1 Z-3.000 F180
G1 X309.587 Y7.588 F650
G1 Z-4.000 F180
G1 X309.587 Y7.588 F650
G1 Z-5.000 F180
G1 X309.587 Y7.588 F650
G1 Z-6.000 F180
G1 X309.587 Y7.588 F650
G1 Z-6.350 F180
G1 X309.587 Y7.588 F650
G0 Z5.000
G0 X320.254 Y7.588
G0 Z0.500
G1 Z-1.000 F180
G1 X320.254 Y7.588 F650
G1 Z-2.000 F180
G1 X320.254 Y7.588 F650
G1 Z-3.000 F180
G1 X320.254 Y7.588 F650
G1 Z-4.000 F180
G1 X320.254 Y7.588 F650
G1 Z-5.000 F180
G1 X320.254 Y7.588 F650
G1 Z-6.000 F180
G1 X320.254 Y7.588 F650
G1 Z-6.350 F180
G1 X320.254 Y7.588 F650
G0 Z5.000
G0 X330.921 Y7.588
G0 Z0.500
G1 Z-1.000 F180
G1 X330.921 Y7.588 F650
G1 Z-2.000 F180
G1 X330.921 Y7.588 F650
G1 Z-3.000 F180
G1 X330.921 Y7.588 F650
G1 Z-4.000 F180
G1 X330.921 Y7.588 F650
G1 Z-5.000 F180
G1 X330.921 Y7.588 F650
G1 Z-6.000 F180
G1 X330.921 Y7.588 F650
G1 Z-6.350 F180
G1 X330.921 Y7.588 F650
G0 Z5.000
G0 X341.587 Y11.588
G0 Z0.500
G1 Z-1.000 F180
G1 X341.587 Y11.588 F650
G1 Z-2.000 F180
G1 X341.587 Y11.588 F650
G1 Z-3.000 F180
G1 X341.587 Y11.588 F650
G1 Z-4.000 F180
G1 X341.587 Y11.588 F650
G1 Z-5.000 F180
G1 X341.587 Y11.588 F650
G1 Z-6.000 F180
G1 X341.587 Y11.588 F650
G1 Z-6.350 F180
G1 X341.587 Y11.588 F650
G0 Z5.000
G0 X341.587 Y21.587
G0 Z0.500
G1 Z-1.000 F180
G1 X341.587 Y21.587 F650
G1 Z-2.000 F180
G1 X341.587 Y21.587 F650
G1 Z-3.000 F180
G1 X341.587 Y21.587 F650
G1 Z-4.000 F180
G1 X341.587 Y21.587 F650
G1 Z-5.000 F180
G1 X341.587 Y21.587 F650
G1 Z-6.000 F180
G1 X341.587 Y21.587 F650
G1 Z-6.350 F180
G1 X341.587 Y21.587 F650
G0 Z5.000
G0 X341.587 Y31.587
G0 Z0.500
G1 Z-1.000 F180
G1 X341.587 Y31.587 F650
G1 Z-2.000 F180
G1 X341.587 Y31.587 F650
G1 Z-3.000 F180
G1 X341.587 Y31.587 F650
G1 Z-4.000 F180
G1 X341.587 Y31.587 F650
G1 Z-5.000 F180
G1 X341.587 Y31.587 F650
G1 Z-6.000 F180
G1 X341.587 Y31.587 F650
G1 Z-6.350 F180
G1 X341.587 Y31.587 F650
G0 Z5.000
G0 X341.587 Y41.587
G0 Z0.500
G1 Z-1.000 F180
G1 X341.587 Y41.587 F650
G1 Z-2.000 F180
G1 X341.587 Y41.587 F650
G1 Z-3.000 F180
G1 X341.587 Y41.587 F650
G1 Z-4.000 F180
G1 X341.587 Y41.587 F650
G1 Z-5.000 F180
G1 X341.587 Y41.587 F650
G1 Z-6.000 F180
G1 X341.587 Y41.587 F650
G1 Z-6.350 F180
G1 X341.587 Y41.587 F650
G0 Z5.000
G0 X341.587 Y51.587
G0 Z0.500
G1 Z-1.000 F180
G1 X341.587 Y51.587 F650
G1 Z-2.000 F180
G1 X341.587 Y51.587 F650
G1 Z-3.000 F180
G1 X341.587 Y51.587 F650
G1 Z-4.000 F180
G1 X341.587 Y51.587 F650
G1 Z-5.000 F180
G1 X341.587 Y51.587 F650
G1 Z-6.000 F180
G1 X341.587 Y51.587 F650
G1 Z-6.350 F180
G1 X341.587 Y51.587 F650
G0 Z5.000
G0 X341.587 Y61.587
G0 Z0.500
G1 Z-1.000 F180
G1 X341.587 Y61.587 F650
G1 Z-2.000 F180
G1 X341.587 Y61.587 F650
G1 Z-3.000 F180
G1 X341.587 Y61.587 F650
G1 Z-4.000 F180
G1 X341.587 Y61.587 F650
G1 Z-5.000 F180
G1 X341.587 Y61.587 F650
G1 Z-6.000 F180
G1 X341.587 Y61.587 F650
G1 Z-6.350 F180
G1 X341.587 Y61.587 F650
G0 Z5.000
G0 X341.587 Y71.588
G0 Z0.500
G1 Z-1.000 F180
G1 X341.587 Y71.588 F650
G1 Z-2.000 F180
G1 X341.587 Y71.588 F650
G1 Z-3.000 F180
G1 X341.587 Y71.588 F650
G1 Z-4.000 F180
G1 X341.587 Y71.588 F650
G1 Z-5.000 F180
G1 X341.587 Y71.588 F650
G1 Z-6.000 F180
G1 X341.587 Y71.588 F650
G1 Z-6.350 F180
G1 X341.587 Y71.588 F650
G0 Z5.000
G0 X330.921 Y71.588
G0 Z0.500
G1 Z-1.000 F180
G1 X330.921 Y71.588 F650
G1 Z-2.000 F180
G1 X330.921 Y71.588 F650
G1 Z-3.000 F180
G1 X330.921 Y71.588 F650
G1 Z-4.000 F180
G1 X330.921 Y71.588 F650
G1 Z-5.000 F180
G1 X330.921 Y71.588 F650
G1 Z-6.000 F180
G1 X330.921 Y71.588 F650
G1 Z-6.350 F180
G1 X330.921 Y71.588 F650
G0 Z5.000
G0 X320.254 Y71.588
G0 Z0.500
G1 Z-1.000 F180
G1 X320.254 Y71.588 F650
G1 Z-2.000 F180
G1 X320.254 Y71.588 F650
G1 Z-3.000 F180
G1 X320.254 Y71.588 F650
G1 Z-4.000 F180
G1 X320.254 Y71.588 F650
G1 Z-5.000 F180
G1 X320.254 Y71.588 F650
G1 Z-6.000 F180
G1 X320.254 Y71.588 F650
G1 Z-6.350 F180
G1 X320.254 Y71.588 F650
G0 Z5.000
G0 X309.587 Y71.588
G0 Z0.500
G1 Z-1.000 F180
G1 X309.587 Y71.588 F650
G1 Z-2.000 F180
G1 X309.587 Y71.588 F650
G1 Z-3.000 F180
G1 X309.587 Y71.588 F650
G1 Z-4.000 F180
G1 X309.587 Y71.588 F650
G1 Z-5.000 F180
G1 X309.587 Y71.588 F650
G1 Z-6.000 F180
G1 X309.587 Y71.588 F650
G1 Z-6.350 F180
G1 X309.587 Y71.588 F650
G0 Z5.000
G0 X298.921 Y71.588
G0 Z0.500
G1 Z-1.000 F180
G1 X298.921 Y71.588 F650
G1 Z-2.000 F180
G1 X298.921 Y71.588 F650
G1 Z-3.000 F180
G1 X298.921 Y71.588 F650
G1 Z-4.000 F180
G1 X298.921 Y71.588 F650
G1 Z-5.000 F180
G1 X298.921 Y71.588 F650
G1 Z-6.000 F180
G1 X298.921 Y71.588 F650
G1 Z-6.350 F180
G1 X298.921 Y71.588 F650
G0 Z5.000
G0 X288.254 Y71.588
G0 Z0.500
G1 Z-1.000 F180
G1 X288.254 Y71.588 F650
G1 Z-2.000 F180
G1 X288.254 Y71.588 F650
G1 Z-3.000 F180
G1 X288.254 Y71.588 F650
G1 Z-4.000 F180
G1 X288.254 Y71.588 F650
G1 Z-5.000 F180
G1 X288.254 Y71.588 F650
G1 Z-6.000 F180
G1 X288.254 Y71.588 F650
G1 Z-6.350 F180
G1 X288.254 Y71.588 F650
G0 Z5.000
G0 X277.587 Y71.588
G0 Z0.500
G1 Z-1.000 F180
G1 X277.587 Y71.588 F650
G1 Z-2.000 F180
G1 X277.587 Y71.588 F650
G1 Z-3.000 F180
G1 X277.587 Y71.588 F650
G1 Z-4.000 F180
G1 X277.587 Y71.588 F650
G1 Z-5.000 F180
G1 X277.587 Y71.588 F650
G1 Z-6.000 F180
G1 X277.587 Y71.588 F650
G1 Z-6.350 F180
G1 X277.587 Y71.588 F650
G0 Z5.000
G0 X266.921 Y71.588
G0 Z0.500
G1 Z-1.000 F180
G1 X266.921 Y71.588 F650
G1 Z-2.000 F180
G1 X266.921 Y71.588 F650
G1 Z-3.000 F180
G1 X266.921 Y71.588 F650
G1 Z-4.000 F180
G1 X266.921 Y71.588 F650
G1 Z-5.000 F180
G1 X266.921 Y71.588 F650
G1 Z-6.000 F180
G1 X266.921 Y71.588 F650
G1 Z-6.350 F180
G1 X266.921 Y71.588 F650
G0 Z5.000
G0 X256.254 Y71.588
G0 Z0.500
G1 Z-1.000 F180
G1 X256.254 Y71.588 F650
G1 Z-2.000 F180
G1 X256.254 Y71.588 F650
G1 Z-3.000 F180
G1 X256.254 Y71.588 F650
G1 Z-4.000 F180
G1 X256.254 Y71.588 F650
G1 Z-5.000 F180
G1 X256.254 Y71.588 F650
G1 Z-6.000 F180
G1 X256.254 Y71.588 F650
G1 Z-6.350 F180
G1 X256.254 Y71.588 F650
G0 Z5.000
G0 X245.588 Y71.588
G0 Z0.500
G1 Z-1.000 F180
G1 X245.588 Y71.588 F650
G1 Z-2.000 F180
G1 X245.588 Y71.588 F650
G1 Z-3.000 F180
G1 X245.588 Y71.588 F650
G1 Z-4.000 F180
G1 X245.588 Y71.588 F650
G1 Z-5.000 F180
G1 X245.588 Y71.588 F650
G1 Z-6.000 F180
G1 X245.588 Y71.588 F650
G1 Z-6.350 F180
G1 X245.588 Y71.588 F650
G0 Z5.000
G0 X234.921 Y71.588
G0 Z0.500
G1 Z-1.000 F180
G1 X234.921 Y71.588 F650
G1 Z-2.000 F180
G1 X234.921 Y71.588 F650
G1 Z-3.000 F180
G1 X234.921 Y71.588 F650
G1 Z-4.000 F180
G1 X234.921 Y71.588 F650
G1 Z-5.000 F180
G1 X234.921 Y71.588 F650
G1 Z-6.000 F180
G1 X234.921 Y71.588 F650
G1 Z-6.350 F180
G1 X234.921 Y71.588 F650
G0 Z5.000
G0 X224.254 Y71.588
G0 Z0.500
G1 Z-1.000 F180
G1 X224.254 Y71.588 F650
G1 Z-2.000 F180
G1 X224.254 Y71.588 F650
G1 Z-3.000 F180
G1 X224.254 Y71.588 F650
G1 Z-4.000 F180
G1 X224.254 Y71.588 F650
G1 Z-5.000 F180
G1 X224.254 Y71.588 F650
G1 Z-6.000 F180
G1 X224.254 Y71.588 F650
G1 Z-6.350 F180
G1 X224.254 Y71.588 F650
G0 Z5.000
G0 X213.588 Y71.588
G0 Z0.500
G1 Z-1.000 F180
G1 X213.588 Y71.588 F650
G1 Z-2.000 F180
G1 X213.588 Y71.588 F650
G1 Z-3.000 F180
G1 X213.588 Y71.588 F650
G1 Z-4.000 F180
G1 X213.588 Y71.588 F650
G1 Z-5.000 F180
G1 X213.588 Y71.588 F650
G1 Z-6.000 F180
G1 X213.588 Y71.588 F650
G1 Z-6.350 F180
G1 X213.588 Y71.588 F650
G0 Z5.000
G0 X202.921 Y71.588
G0 Z0.500
G1 Z-1.000 F180
G1 X202.921 Y71.588 F650
G1 Z-2.000 F180
G1 X202.921 Y71.588 F650
G1 Z-3.000 F180
G1 X202.921 Y71.588 F650
G1 Z-4.000 F180
G1 X202.921 Y71.588 F650
G1 Z-5.000 F180
G1 X202.921 Y71.588 F650
G1 Z-6.000 F180
G1 X202.921 Y71.588 F650
G1 Z-6.350 F180
G1 X202.921 Y71.588 F650
G0 Z5.000
G0 X192.254 Y71.588
G0 Z0.500
G1 Z-1.000 F180
G1 X192.254 Y71.588 F650
G1 Z-2.000 F180
G1 X192.254 Y71.588 F650
G1 Z-3.000 F180
G1 X192.254 Y71.588 F650
G1 Z-4.000 F180
G1 X192.254 Y71.588 F650
G1 Z-5.000 F180
G1 X192.254 Y71.588 F650
G1 Z-6.000 F180
G1 X192.254 Y71.588 F650
G1 Z-6.350 F180
G1 X192.254 Y71.588 F650
G0 Z5.000
G0 X187.588 Y61.587
G0 Z0.500
G1 Z-1.000 F180
G1 X187.588 Y61.587 F650
G1 Z-2.000 F180
G1 X187.588 Y61.587 F650
G1 Z-3.000 F180
G1 X187.588 Y61.587 F650
G1 Z-4.000 F180
G1 X187.588 Y61.587 F650
G1 Z-5.000 F180
G1 X187.588 Y61.587 F650
G1 Z-6.000 F180
G1 X187.588 Y61.587 F650
G1 Z-6.350 F180
G1 X187.588 Y61.587 F650
G0 Z5.000
G0 X187.588 Y51.587
G0 Z0.500
G1 Z-1.000 F180
G1 X187.588 Y51.587 F650
G1 Z-2.000 F180
G1 X187.588 Y51.587 F650
G1 Z-3.000 F180
G1 X187.588 Y51.587 F650
G1 Z-4.000 F180
G1 X187.588 Y51.587 F650
G1 Z-5.000 F180
G1 X187.588 Y51.587 F650
G1 Z-6.000 F180
G1 X187.588 Y51.587 F650
G1 Z-6.350 F180
G1 X187.588 Y51.587 F650
G0 Z5.000
G0 X187.588 Y41.587
G0 Z0.500
G1 Z-1.000 F180
G1 X187.588 Y41.587 F650
G1 Z-2.000 F180
G1 X187.588 Y41.587 F650
G1 Z-3.000 F180
G1 X187.588 Y41.587 F650
G1 Z-4.000 F180
G1 X187.588 Y41.587 F650
G1 Z-5.000 F180
G1 X187.588 Y41.587 F650
G1 Z-6.000 F180
G1 X187.588 Y41.587 F650
G1 Z-6.350 F180
G1 X187.588 Y41.587 F650
G0 Z5.000
G0 X187.588 Y31.587
G0 Z0.500
G1 Z-1.000 F180
G1 X187.588 Y31.587 F650
G1 Z-2.000 F180
G1 X187.588 Y31.587 F650
G1 Z-3.000 F180
G1 X187.588 Y31.587 F650
G1 Z-4.000 F180
G1 X187.588 Y31.587 F650
G1 Z-5.000 F180
G1 X187.588 Y31.587 F650
G1 Z-6.000 F180
G1 X187.588 Y31.587 F650
G1 Z-6.350 F180
G1 X187.588 Y31.587 F650
G0 Z5.000
G0 X187.588 Y21.587
G0 Z0.500
G1 Z-1.000 F180
G1 X187.588 Y21.587 F650
G1 Z-2.000 F180
G1 X187.588 Y21.587 F650
G1 Z-3.000 F180
G1 X187.588 Y21.587 F650
G1 Z-4.000 F180
G1 X187.588 Y21.587 F650
G1 Z-5.000 F180
G1 X187.588 Y21.587 F650
G1 Z-6.000 F180
G1 X187.588 Y21.587 F650
G1 Z-6.350 F180
G1 X187.588 Y21.587 F650
G0 Z5.000
G0 X187.588 Y11.588
G0 Z0.500
G1 Z-1.000 F180
G1 X187.588 Y11.588 F650
G1 Z-2.000 F180
G1 X187.588 Y11.588 F650
G1 Z-3.000 F180
G1 X187.588 Y11.588 F650
G1 Z-4.000 F180
G1 X187.588 Y11.588 F650
G1 Z-5.000 F180
G1 X187.588 Y11.588 F650
G1 Z-6.000 F180
G1 X187.588 Y11.588 F650
G1 Z-6.350 F180
G1 X187.588 Y11.588 F650
G0 Z5.000
(relief holes for left)
G0 X367.587 Y7.588
G0 Z0.500
G1 Z-1.000 F180
G1 X367.587 Y7.588 F650
G1 Z-2.000 F180
G1 X367.587 Y7.588 F650
G1 Z-3.000 F180
G1 X367.587 Y7.588 F650
G1 Z-4.000 F180
G1 X367.587 Y7.588 F650
G1 Z-5.000 F180
G1 X367.587 Y7.588 F650
G1 Z-6.000 F180
G1 X367.587 Y7.588 F650
G1 Z-6.350 F180
G1 X367.587 Y7.588 F650
G0 Z5.000
G0 X378.699 Y7.588
G0 Z0.500
G1 Z-1.000 F180
G1 X378.699 Y7.588 F650
G1 Z-2.000 F180
G1 X378.699 Y7.588 F650
G1 Z-3.000 F180
G1 X378.699 Y7.588 F650
G1 Z-4.000 F180
G1 X378.699 Y7.588 F650
G1 Z-5.000 F180
G1 X378.699 Y7.588 F650
G1 Z-6.000 F180
G1 X378.699 Y7.588 F650
G1 Z-6.350 F180
G1 X378.699 Y7.588 F650
G0 Z5.000
G0 X389.810 Y7.588
G0 Z0.500
G1 Z-1.000 F180
G1 X389.810 Y7.588 F650
G1 Z-2.000 F180
G1 X389.810 Y7.588 F650
G1 Z-3.000 F180
G1 X389.810 Y7.588 F650
G1 Z-4.000 F180
G1 X389.810 Y7.588 F650
G1 Z-5.000 F180
G1 X389.810 Y7.588 F650
G1 Z-6.000 F180
G1 X389.810 Y7.588 F650
G1 Z-6.350 F180
G1 X389.810 Y7.588 F650
G0 Z5.000
G0 X400.921 Y7.588
G0 Z0.500
G1 Z-1.000 F180
G1 X400.921 Y7.588 F650
G1 Z-2.000 F180
G1 X400.921 Y7.588 F650
G1 Z-3.000 F180
G1 X400.921 Y7.588 F650
G1 Z-4.000 F180
G1 X400.921 Y7.588 F650
G1 Z-5.000 F180
G1 X400.921 Y7.588 F650
G1 Z-6.000 F180
G1 X400.921 Y7.588 F650
G1 Z-6.350 F180
G1 X400.921 Y7.588 F650
G0 Z5.000
G0 X412.032 Y7.588
G0 Z0.500
G1 Z-1.000 F180
G1 X412.032 Y7.588 F650
G1 Z-2.000 F180
G1 X412.032 Y7.588 F650
G1 Z-3.000 F180
G1 X412.032 Y7.588 F650
G1 Z-4.000 F180
G1 X412.032 Y7.588 F650
G1 Z-5.000 F180
G1 X412.032 Y7.588 F650
G1 Z-6.000 F180
G1 X412.032 Y7.588 F650
G1 Z-6.350 F180
G1 X412.032 Y7.588 F650
G0 Z5.000
G0 X423.143 Y7.588
G0 Z0.500
G1 Z-1.000 F180
G1 X423.143 Y7.588 F650
G1 Z-2.000 F180
G1 X423.143 Y7.588 F650
G1 Z-3.000 F180
G1 X423.143 Y7.588 F650
G1 Z-4.000 F180
G1 X423.143 Y7.588 F650
G1 Z-5.000 F180
G1 X423.143 Y7.588 F650
G1 Z-6.000 F180
G1 X423.143 Y7.588 F650
G1 Z-6.350 F180
G1 X423.143 Y7.588 F650
G0 Z5.000
G0 X434.254 Y7.588
G0 Z0.500
G1 Z-1.000 F180
G1 X434.254 Y7.588 F650
G1 Z-2.000 F180
G1 X434.254 Y7.588 F650
G1 Z-3.000 F180
G1 X434.254 Y7.588 F650
G1 Z-4.000 F180
G1 X434.254 Y7.588 F650
G1 Z-5.000 F180
G1 X434.254 Y7.588 F650
G1 Z-6.000 F180
G1 X434.254 Y7.588 F650
G1 Z-6.350 F180
G1 X434.254 Y7.588 F650
G0 Z5.000
G0 X445.365 Y7.588
G0 Z0.500
G1 Z-1.000 F180
G1 X445.365 Y7.588 F650
G1 Z-2.000 F180
G1 X445.365 Y7.588 F650
G1 Z-3.000 F180
G1 X445.365 Y7.588 F650
G1 Z-4.000 F180
G1 X445.365 Y7.588 F650
G1 Z-5.000 F180
G1 X445.365 Y7.588 F650
G1 Z-6.000 F180
G1 X445.365 Y7.588 F650
G1 Z-6.350 F180
G1 X445.365 Y7.588 F650
G0 Z5.000
G0 X456.476 Y7.588
G0 Z0.500
G1 Z-1.000 F180
G1 X456.476 Y7.588 F650
G1 Z-2.000 F180
G1 X456.476 Y7.588 F650
G1 Z-3.000 F180
G1 X456.476 Y7.588 F650
G1 Z-4.000 F180
G1 X456.476 Y7.588 F650
G1 Z-5.000 F180
G1 X456.476 Y7.588 F650
G1 Z-6.000 F180
G1 X456.476 Y7.588 F650
G1 Z-6.350 F180
G1 X456.476 Y7.588 F650
G0 Z5.000
G0 X461.587 Y17.587
G0 Z0.500
G1 Z-1.000 F180
G1 X461.587 Y17.587 F650
G1 Z-2.000 F180
G1 X461.587 Y17.587 F650
G1 Z-3.000 F180
G1 X461.587 Y17.587 F650
G1 Z-4.000 F180
G1 X461.587 Y17.587 F650
G1 Z-5.000 F180
G1 X461.587 Y17.587 F650
G1 Z-6.000 F180
G1 X461.587 Y17.587 F650
G1 Z-6.350 F180
G1 X461.587 Y17.587 F650
G0 Z5.000
G0 X461.587 Y27.587
G0 Z0.500
G1 Z-1.000 F180
G1 X461.587 Y27.587 F650
G1 Z-2.000 F180
G1 X461.587 Y27.587 F650
G1 Z-3.000 F180
G1 X461.587 Y27.587 F650
G1 Z-4.000 F180
G1 X461.587 Y27.587 F650
G1 Z-5.000 F180
G1 X461.587 Y27.587 F650
G1 Z-6.000 F180
G1 X461.587 Y27.587 F650
G1 Z-6.350 F180
G1 X461.587 Y27.587 F650
G0 Z5.000
G0 X461.587 Y37.587
G0 Z0.500
G1 Z-1.000 F180
G1 X461.587 Y37.587 F650
G1 Z-2.000 F180
G1 X461.587 Y37.587 F650
G1 Z-3.000 F180
G1 X461.587 Y37.587 F650
G1 Z-4.000 F180
G1 X461.587 Y37.587 F650
G1 Z-5.000 F180
G1 X461.587 Y37.587 F650
G1 Z-6.000 F180
G1 X461.587 Y37.587 F650
G1 Z-6.350 F180
G1 X461.587 Y37.587 F650
G0 Z5.000
G0 X461.587 Y47.587
G0 Z0.500
G1 Z-1.000 F180
G1 X461.587 Y47.587 F650
G1 Z-2.000 F180
G1 X461.587 Y47.587 F650
G1 Z-3.000 F180
G1 X461.587 Y47.587 F650
G1 Z-4.000 F180
G1 X461.587 Y47.587 F650
G1 Z-5.000 F180
G1 X461.587 Y47.587 F650
G1 Z-6.000 F180
G1 X461.587 Y47.587 F650
G1 Z-6.350 F180
G1 X461.587 Y47.587 F650
G0 Z5.000
G0 X461.587 Y57.587
G0 Z0.500
G1 Z-1.000 F180
G1 X461.587 Y57.587 F650
G1 Z-2.000 F180
G1 X461.587 Y57.587 F650
G1 Z-3.000 F180
G1 X461.587 Y57.587 F650
G1 Z-4.000 F180
G1 X461.587 Y57.587 F650
G1 Z-5.000 F180
G1 X461.587 Y57.587 F650
G1 Z-6.000 F180
G1 X461.587 Y57.587 F650
G1 Z-6.350 F180
G1 X461.587 Y57.587 F650
G0 Z5.000
G0 X461.587 Y67.588
G0 Z0.500
G1 Z-1.000 F180
G1 X461.587 Y67.588 F650
G1 Z-2.000 F180
G1 X461.587 Y67.588 F650
G1 Z-3.000 F180
G1 X461.587 Y67.588 F650
G1 Z-4.000 F180
G1 X461.587 Y67.588 F650
G1 Z-5.000 F180
G1 X461.587 Y67.588 F650
G1 Z-6.000 F180
G1 X461.587 Y67.588 F650
G1 Z-6.350 F180
G1 X461.587 Y67.588 F650
G0 Z5.000
G0 X456.476 Y71.588
G0 Z0.500
G1 Z-1.000 F180
G1 X456.476 Y71.588 F650
G1 Z-2.000 F180
G1 X456.476 Y71.588 F650
G1 Z-3.000 F180
G1 X456.476 Y71.588 F650
G1 Z-4.000 F180
G1 X456.476 Y71.588 F650
G1 Z-5.000 F180
G1 X456.476 Y71.588 F650
G1 Z-6.000 F180
G1 X456.476 Y71.588 F650
G1 Z-6.350 F180
G1 X456.476 Y71.588 F650
G0 Z5.000
G0 X445.365 Y71.588
G0 Z0.500
G1 Z-1.000 F180
G1 X445.365 Y71.588 F650
G1 Z-2.000 F180
G1 X445.365 Y71.588 F650
G1 Z-3.000 F180
G1 X445.365 Y71.588 F650
G1 Z-4.000 F180
G1 X445.365 Y71.588 F650
G1 Z-5.000 F180
G1 X445.365 Y71.588 F650
G1 Z-6.000 F180
G1 X445.365 Y71.588 F650
G1 Z-6.350 F180
G1 X445.365 Y71.588 F650
G0 Z5.000
G0 X434.254 Y71.588
G0 Z0.500
G1 Z-1.000 F180
G1 X434.254 Y71.588 F650
G1 Z-2.000 F180
G1 X434.254 Y71.588 F650
G1 Z-3.000 F180
G1 X434.254 Y71.588 F650
G1 Z-4.000 F180
G1 X434.254 Y71.588 F650
G1 Z-5.000 F180
G1 X434.254 Y71.588 F650
G1 Z-6.000 F180
G1 X434.254 Y71.588 F650
G1 Z-6.350 F180
G1 X434.254 Y71.588 F650
G0 Z5.000
G0 X423.143 Y71.588
G0 Z0.500
G1 Z-1.000 F180
G1 X423.143 Y71.588 F650
G1 Z-2.000 F180
G1 X423.143 Y71.588 F650
G1 Z-3.000 F180
G1 X423.143 Y71.588 F650
G1 Z-4.000 F180
G1 X423.143 Y71.588 F650
G1 Z-5.000 F180
G1 X423.143 Y71.588 F650
G1 Z-6.000 F180
G1 X423.143 Y71.588 F650
G1 Z-6.350 F180
G1 X423.143 Y71.588 F650
G0 Z5.000
G0 X412.032 Y71.588
G0 Z0.500
G1 Z-1.000 F180
G1 X412.032 Y71.588 F650
G1 Z-2.000 F180
G1 X412.032 Y71.588 F650
G1 Z-3.000 F180
G1 X412.032 Y71.588 F650
G1 Z-4.000 F180
G1 X412.032 Y71.588 F650
G1 Z-5.000 F180
G1 X412.032 Y71.588 F650
G1 Z-6.000 F180
G1 X412.032 Y71.588 F650
G1 Z-6.350 F180
G1 X412.032 Y71.588 F650
G0 Z5.000
G0 X400.921 Y71.588
G0 Z0.500
G1 Z-1.000 F180
G1 X400.921 Y71.588 F650
G1 Z-2.000 F180
G1 X400.921 Y71.588 F650
G1 Z-3.000 F180
G1 X400.921 Y71.588 F650
G1 Z-4.000 F180
G1 X400.921 Y71.588 F650
G1 Z-5.000 F180
G1 X400.921 Y71.588 F650
G1 Z-6.000 F180
G1 X400.921 Y71.588 F650
G1 Z-6.350 F180
G1 X400.921 Y71.588 F650
G0 Z5.000
G0 X389.810 Y71.588
G0 Z0.500
G1 Z-1.000 F180
G1 X389.810 Y71.588 F650
G1 Z-2.000 F180
G1 X389.810 Y71.588 F650
G1 Z-3.000 F180
G1 X389.810 Y71.588 F650
G1 Z-4.000 F180
G1 X389.810 Y71.588 F650
G1 Z-5.000 F180
G1 X389.810 Y71.588 F650
G1 Z-6.000 F180
G1 X389.810 Y71.588 F650
G1 Z-6.350 F180
G1 X389.810 Y71.588 F650
G0 Z5.000
G0 X378.699 Y71.588
G0 Z0.500
G1 Z-1.000 F180
G1 X378.699 Y71.588 F650
G1 Z-2.000 F180
G1 X378.699 Y71.588 F650
G1 Z-3.000 F180
G1 X378.699 Y71.588 F650
G1 Z-4.000 F180
G1 X378.699 Y71.588 F650
G1 Z-5.000 F180
G1 X378.699 Y71.588 F650
G1 Z-6.000 F180
G1 X378.699 Y71.588 F650
G1 Z-6.350 F180
G1 X378.699 Y71.588 F650
G0 Z5.000
G0 X367.587 Y67.588
G0 Z0.500
G1 Z-1.000 F180
G1 X367.587 Y67.588 F650
G1 Z-2.000 F180
G1 X367.587 Y67.588 F650
G1 Z-3.000 F180
G1 X367.587 Y67.588 F650
G1 Z-4.000 F180
G1 X367.587 Y67.588 F650
G1 Z-5.000 F180
G1 X367.587 Y67.588 F650
G1 Z-6.000 F180
G1 X367.587 Y67.588 F650
G1 Z-6.350 F180
G1 X367.587 Y67.588 F650
G0 Z5.000
G0 X367.587 Y57.587
G0 Z0.500
G1 Z-1.000 F180
G1 X367.587 Y57.587 F650
G1 Z-2.000 F180
G1 X367.587 Y57.587 F650
G1 Z-3.000 F180
G1 X367.587 Y57.587 F650
G1 Z-4.000 F180
G1 X367.587 Y57.587 F650
G1 Z-5.000 F180
G1 X367.587 Y57.587 F650
G1 Z-6.000 F180
G1 X367.587 Y57.587 F650
G1 Z-6.350 F180
G1 X367.587 Y57.587 F650
G0 Z5.000
G0 X367.587 Y47.587
G0 Z0.500
G1 Z-1.000 F180
G1 X367.587 Y47.587 F650
G1 Z-2.000 F180
G1 X367.587 Y47.587 F650
G1 Z-3.000 F180
G1 X367.587 Y47.587 F650
G1 Z-4.000 F180
G1 X367.587 Y47.587 F650
G1 Z-5.000 F180
G1 X367.587 Y47.587 F650
G1 Z-6.000 F180
G1 X367.587 Y47.587 F650
G1 Z-6.350 F180
G1 X367.587 Y47.587 F650
G0 Z5.000
G0 X367.587 Y37.587
G0 Z0.500
G1 Z-1.000 F180
G1 X367.587 Y37.587 F650
G1 Z-2.000 F180
G1 X367.587 Y37.587 F650
G1 Z-3.000 F180
G1 X367.587 Y37.587 F650
G1 Z-4.000 F180
G1 X367.587 Y37.587 F650
G1 Z-5.000 F180
G1 X367.587 Y37.587 F650
G1 Z-6.000 F180
G1 X367.587 Y37.587 F650
G1 Z-6.350 F180
G1 X367.587 Y37.587 F650
G0 Z5.000
G0 X367.587 Y27.587
G0 Z0.500
G1 Z-1.000 F180
G1 X367.587 Y27.587 F650
G1 Z-2.000 F180
G1 X367.587 Y27.587 F650
G1 Z-3.000 F180
G1 X367.587 Y27.587 F650
G1 Z-4.000 F180
G1 X367.587 Y27.587 F650
G1 Z-5.000 F180
G1 X367.587 Y27.587 F650
G1 Z-6.000 F180
G1 X367.587 Y27.587 F650
G1 Z-6.350 F180
G1 X367.587 Y27.587 F650
G0 Z5.000
G0 X367.587 Y17.587
G0 Z0.500
G1 Z-1.000 F180
G1 X367.587 Y17.587 F650
G1 Z-2.000 F180
G1 X367.587 Y17.587 F650
G1 Z-3.000 F180
G1 X367.587 Y17.587 F650
G1 Z-4.000 F180
G1 X367.587 Y17.587 F650
G1 Z-5.000 F180
G1 X367.587 Y17.587 F650
G1 Z-6.000 F180
G1 X367.587 Y17.587 F650
G1 Z-6.350 F180
G1 X367.587 Y17.587 F650
G0 Z5.000
(relief holes for right)
G0 X487.587 Y7.588
G0 Z0.500
G1 Z-1.000 F180
G1 X487.587 Y7.588 F650
G1 Z-2.000 F180
G1 X487.587 Y7.588 F650
G1 Z-3.000 F180
G1 X487.587 Y7.588 F650
G1 Z-4.000 F180
G1 X487.587 Y7.588 F650
G1 Z-5.000 F180
G1 X487.587 Y7.588 F650
G1 Z-6.000 F180
G1 X487.587 Y7.588 F650
G1 Z-6.350 F180
G1 X487.587 Y7.588 F650
G0 Z5.000
G0 X498.699 Y7.588
G0 Z0.500
G1 Z-1.000 F180
G1 X498.699 Y7.588 F650
G1 Z-2.000 F180
G1 X498.699 Y7.588 F650
G1 Z-3.000 F180
G1 X498.699 Y7.588 F650
G1 Z-4.000 F180
G1 X498.699 Y7.588 F650
G1 Z-5.000 F180
G1 X498.699 Y7.588 F650
G1 Z-6.000 F180
G1 X498.699 Y7.588 F650
G1 Z-6.350 F180
G1 X498.699 Y7.588 F650
G0 Z5.000
G0 X509.810 Y7.588
G0 Z0.500
G1 Z-1.000 F180
G1 X509.810 Y7.588 F650
G1 Z-2.000 F180
G1 X509.810 Y7.588 F650
G1 Z-3.000 F180
G1 X509.810 Y7.588 F650
G1 Z-4.000 F180
G1 X509.810 Y7.588 F650
G1 Z-5.000 F180
G1 X509.810 Y7.588 F650
G1 Z-6.000 F180
G1 X509.810 Y7.588 F650
G1 Z-6.350 F180
G1 X509.810 Y7.588 F650
G0 Z5.000
G0 X520.921 Y7.588
G0 Z0.500
G1 Z-1.000 F180
G1 X520.921 Y7.588 F650
G1 Z-2.000 F180
G1 X520.921 Y7.588 F650
G1 Z-3.000 F180
G1 X520.921 Y7.588 F650
G1 Z-4.000 F180
G1 X520.921 Y7.588 F650
G1 Z-5.000 F180
G1 X520.921 Y7.588 F650
G1 Z-6.000 F180
G1 X520.921 Y7.588 F650
G1 Z-6.350 F180
G1 X520.921 Y7.588 F650
G0 Z5.000
G0 X532.032 Y7.588
G0 Z0.500
G1 Z-1.000 F180
G1 X532.032 Y7.588 F650
G1 Z-2.000 F180
G1 X532.032 Y7.588 F650
G1 Z-3.000 F180
G1 X532.032 Y7.588 F650
G1 Z-4.000 F180
G1 X532.032 Y7.588 F650
G1 Z-5.000 F180
G1 X532.032 Y7.588 F650
G1 Z-6.000 F180
G1 X532.032 Y7.588 F650
G1 Z-6.350 F180
G1 X532.032 Y7.588 F650
G0 Z5.000
G0 X543.143 Y7.588
G0 Z0.500
G1 Z-1.000 F180
G1 X543.143 Y7.588 F650
G1 Z-2.000 F180
G1 X543.143 Y7.588 F650
G1 Z-3.000 F180
G1 X543.143 Y7.588 F650
G1 Z-4.000 F180
G1 X543.143 Y7.588 F650
G1 Z-5.000 F180
G1 X543.143 Y7.588 F650
G1 Z-6.000 F180
G1 X543.143 Y7.588 F650
G1 Z-6.350 F180
G1 X543.143 Y7.588 F650
G0 Z5.000
G0 X554.254 Y7.588
G0 Z0.500
G1 Z-1.000 F180
G1 X554.254 Y7.588 F650
G1 Z-2.000 F180
G1 X554.254 Y7.588 F650
G1 Z-3.000 F180
G1 X554.254 Y7.588 F650
G1 Z-4.000 F180
G1 X554.254 Y7.588 F650
G1 Z-5.000 F180
G1 X554.254 Y7.588 F650
G1 Z-6.000 F180
G1 X554.254 Y7.588 F650
G1 Z-6.350 F180
G1 X554.254 Y7.588 F650
G0 Z5.000
G0 X565.365 Y7.588
G0 Z0.500
G1 Z-1.000 F180
G1 X565.365 Y7.588 F650
G1 Z-2.000 F180
G1 X565.365 Y7.588 F650
G1 Z-3.000 F180
G1 X565.365 Y7.588 F650
G1 Z-4.000 F180
G1 X565.365 Y7.588 F650
G1 Z-5.000 F180
G1 X565.365 Y7.588 F650
G1 Z-6.000 F180
G1 X565.365 Y7.588 F650
G1 Z-6.350 F180
G1 X565.365 Y7.588 F650
G0 Z5.000
G0 X576.476 Y7.588
G0 Z0.500
G1 Z-1.000 F180
G1 X576.476 Y7.588 F650
G1 Z-2.000 F180
G1 X576.476 Y7.588 F650
G1 Z-3.000 F180
G1 X576.476 Y7.588 F650
G1 Z-4.000 F180
G1 X576.476 Y7.588 F650
G1 Z-5.000 F180
G1 X576.476 Y7.588 F650
G1 Z-6.000 F180
G1 X576.476 Y7.588 F650
G1 Z-6.350 F180
G1 X576.476 Y7.588 F650
G0 Z5.000
G0 X581.587 Y17.587
G0 Z0.500
G1 Z-1.000 F180
G1 X581.587 Y17.587 F650
G1 Z-2.000 F180
G1 X581.587 Y17.587 F650
G1 Z-3.000 F180
G1 X581.587 Y17.587 F650
G1 Z-4.000 F180
G1 X581.587 Y17.587 F650
G1 Z-5.000 F180
G1 X581.587 Y17.587 F650
G1 Z-6.000 F180
G1 X581.587 Y17.587 F650
G1 Z-6.350 F180
G1 X581.587 Y17.587 F650
G0 Z5.000
G0 X581.587 Y27.587
G0 Z0.500
G1 Z-1.000 F180
G1 X581.587 Y27.587 F650
G1 Z-2.000 F180
G1 X581.587 Y27.587 F650
G1 Z-3.000 F180
G1 X581.587 Y27.587 F650
G1 Z-4.000 F180
G1 X581.587 Y27.587 F650
G1 Z-5.000 F180
G1 X581.587 Y27.587 F650
G1 Z-6.000 F180
G1 X581.587 Y27.587 F650
G1 Z-6.350 F180
G1 X581.587 Y27.587 F650
G0 Z5.000
G0 X581.587 Y37.587
G0 Z0.500
G1 Z-1.000 F180
G1 X581.587 Y37.587 F650
G1 Z-2.000 F180
G1 X581.587 Y37.587 F650
G1 Z-3.000 F180
G1 X581.587 Y37.587 F650
G1 Z-4.000 F180
G1 X581.587 Y37.587 F650
G1 Z-5.000 F180
G1 X581.587 Y37.587 F650
G1 Z-6.000 F180
G1 X581.587 Y37.587 F650
G1 Z-6.350 F180
G1 X581.587 Y37.587 F650
G0 Z5.000
G0 X581.587 Y47.587
G0 Z0.500
G1 Z-1.000 F180
G1 X581.587 Y47.587 F650
G1 Z-2.000 F180
G1 X581.587 Y47.587 F650
G1 Z-3.000 F180
G1 X581.587 Y47.587 F650
G1 Z-4.000 F180
G1 X581.587 Y47.587 F650
G1 Z-5.000 F180
G1 X581.587 Y47.587 F650
G1 Z-6.000 F180
G1 X581.587 Y47.587 F650
G1 Z-6.350 F180
G1 X581.587 Y47.587 F650
G0 Z5.000
G0 X581.587 Y57.587
G0 Z0.500
G1 Z-1.000 F180
G1 X581.587 Y57.587 F650
G1 Z-2.000 F180
G1 X581.587 Y57.587 F650
G1 Z-3.000 F180
G1 X581.587 Y57.587 F650
G1 Z-4.000 F180
G1 X581.587 Y57.587 F650
G1 Z-5.000 F180
G1 X581.587 Y57.587 F650
G1 Z-6.000 F180
G1 X581.587 Y57.587 F650
G1 Z-6.350 F180
G1 X581.587 Y57.587 F650
G0 Z5.000
G0 X581.587 Y67.588
G0 Z0.500
G1 Z-1.000 F180
G1 X581.587 Y67.588 F650
G1 Z-2.000 F180
G1 X581.587 Y67.588 F650
G1 Z-3.000 F180
G1 X581.587 Y67.588 F650
G1 Z-4.000 F180
G1 X581.587 Y67.588 F650
G1 Z-5.000 F180
G1 X581.587 Y67.588 F650
G1 Z-6.000 F180
G1 X581.587 Y67.588 F650
G1 Z-6.350 F180
G1 X581.587 Y67.588 F650
G0 Z5.000
G0 X576.476 Y71.588
G0 Z0.500
G1 Z-1.000 F180
G1 X576.476 Y71.588 F650
G1 Z-2.000 F180
G1 X576.476 Y71.588 F650
G1 Z-3.000 F180
G1 X576.476 Y71.588 F650
G1 Z-4.000 F180
G1 X576.476 Y71.588 F650
G1 Z-5.000 F180
G1 X576.476 Y71.588 F650
G1 Z-6.000 F180
G1 X576.476 Y71.588 F650
G1 Z-6.350 F180
G1 X576.476 Y71.588 F650
G0 Z5.000
G0 X565.365 Y71.588
G0 Z0.500
G1 Z-1.000 F180
G1 X565.365 Y71.588 F650
G1 Z-2.000 F180
G1 X565.365 Y71.588 F650
G1 Z-3.000 F180
G1 X565.365 Y71.588 F650
G1 Z-4.000 F180
G1 X565.365 Y71.588 F650
G1 Z-5.000 F180
G1 X565.365 Y71.588 F650
G1 Z-6.000 F180
G1 X565.365 Y71.588 F650
G1 Z-6.350 F180
G1 X565.365 Y71.588 F650
G0 Z5.000
G0 X554.254 Y71.588
G0 Z0.500
G1 Z-1.000 F180
G1 X554.254 Y71.588 F650
G1 Z-2.000 F180
G1 X554.254 Y71.588 F650
G1 Z-3.000 F180
G1 X554.254 Y71.588 F650
G1 Z-4.000 F180
G1 X554.254 Y71.588 F650
G1 Z-5.000 F180
G1 X554.254 Y71.588 F650
G1 Z-6.000 F180
G1 X554.254 Y71.588 F650
G1 Z-6.350 F180
G1 X554.254 Y71.588 F650
G0 Z5.000
G0 X543.143 Y71.588
G0 Z0.500
G1 Z-1.000 F180
G1 X543.143 Y71.588 F650
G1 Z-2.000 F180
G1 X543.143 Y71.588 F650
G1 Z-3.000 F180
G1 X543.143 Y71.588 F650
G1 Z-4.000 F180
G1 X543.143 Y71.588 F650
G1 Z-5.000 F180
G1 X543.143 Y71.588 F650
G1 Z-6.000 F180
G1 X543.143 Y71.588 F650
G1 Z-6.350 F180
G1 X543.143 Y71.588 F650
G0 Z5.000
G0 X532.032 Y71.588
G0 Z0.500
G1 Z-1.000 F180
G1 X532.032 Y71.588 F650
G1 Z-2.000 F180
G1 X532.032 Y71.588 F650
G1 Z-3.000 F180
G1 X532.032 Y71.588 F650
G1 Z-4.000 F180
G1 X532.032 Y71.588 F650
G1 Z-5.000 F180
G1 X532.032 Y71.588 F650
G1 Z-6.000 F180
G1 X532.032 Y71.588 F650
G1 Z-6.350 F180
G1 X532.032 Y71.588 F650
G0 Z5.000
G0 X520.921 Y71.588
G0 Z0.500
G1 Z-1.000 F180
G1 X520.921 Y71.588 F650
G1 Z-2.000 F180
G1 X520.921 Y71.588 F650
G1 Z-3.000 F180
G1 X520.921 Y71.588 F650
G1 Z-4.000 F180
G1 X520.921 Y71.588 F650
G1 Z-5.000 F180
G1 X520.921 Y71.588 F650
G1 Z-6.000 F180
G1 X520.921 Y71.588 F650
G1 Z-6.350 F180
G1 X520.921 Y71.588 F650
G0 Z5.000
G0 X509.810 Y71.588
G0 Z0.500
G1 Z-1.000 F180
G1 X509.810 Y71.588 F650
G1 Z-2.000 F180
G1 X509.810 Y71.588 F650
G1 Z-3.000 F180
G1 X509.810 Y71.588 F650
G1 Z-4.000 F180
G1 X509.810 Y71.588 F650
G1 Z-5.000 F180
G1 X509.810 Y71.588 F650
G1 Z-6.000 F180
G1 X509.810 Y71.588 F650
G1 Z-6.350 F180
G1 X509.810 Y71.588 F650
G0 Z5.000
G0 X498.699 Y71.588
G0 Z0.500
G1 Z-1.000 F180
G1 X498.699 Y71.588 F650
G1 Z-2.000 F180
G1 X498.699 Y71.588 F650
G1 Z-3.000 F180
G1 X498.699 Y71.588 F650
G1 Z-4.000 F180
G1 X498.699 Y71.588 F650
G1 Z-5.000 F180
G1 X498.699 Y71.588 F650
G1 Z-6.000 F180
G1 X498.699 Y71.588 F650
G1 Z-6.350 F180
G1 X498.699 Y71.588 F650
G0 Z5.000
G0 X487.587 Y67.588
G0 Z0.500
G1 Z-1.000 F180
G1 X487.587 Y67.588 F650
G1 Z-2.000 F180
G1 X487.587 Y67.588 F650
G1 Z-3.000 F180
G1 X487.587 Y67.588 F650
G1 Z-4.000 F180
G1 X487.587 Y67.588 F650
G1 Z-5.000 F180
G1 X487.587 Y67.588 F650
G1 Z-6.000 F180
G1 X487.587 Y67.588 F650
G1 Z-6.350 F180
G1 X487.587 Y67.588 F650
G0 Z5.000
G0 X487.587 Y57.587
G0 Z0.500
G1 Z-1.000 F180
G1 X487.587 Y57.587 F650
G1 Z-2.000 F180
G1 X487.587 Y57.587 F650
G1 Z-3.000 F180
G1 X487.587 Y57.587 F650
G1 Z-4.000 F180
G1 X487.587 Y57.587 F650
G1 Z-5.000 F180
G1 X487.587 Y57.587 F650
G1 Z-6.000 F180
G1 X487.587 Y57.587 F650
G1 Z-6.350 F180
G1 X487.587 Y57.587 F650
G0 Z5.000
G0 X487.587 Y47.587
G0 Z0.500
G1 Z-1.000 F180
G1 X487.587 Y47.587 F650
G1 Z-2.000 F180
G1 X487.587 Y47.587 F650
G1 Z-3.000 F180
G1 X487.587 Y47.587 F650
G1 Z-4.000 F180
G1 X487.587 Y47.587 F650
G1 Z-5.000 F180
G1 X487.587 Y47.587 F650
G1 Z-6.000 F180
G1 X487.587 Y47.587 F650
G1 Z-6.350 F180
G1 X487.587 Y47.587 F650
G0 Z5.000
G0 X487.587 Y37.587
G0 Z0.500
G1 Z-1.000 F180
G1 X487.587 Y37.587 F650
G1 Z-2.000 F180
G1 X487.587 Y37.587 F650
G1 Z-3.000 F180
G1 X487.587 Y37.587 F650
G1 Z-4.000 F180
G1 X487.587 Y37.587 F650
G1 Z-5.000 F180
G1 X487.587 Y37.587 F650
G1 Z-6.000 F180
G1 X487.587 Y37.587 F650
G1 Z-6.350 F180
G1 X487.587 Y37.587 F650
G0 Z5.000
G0 X487.587 Y27.587
G0 Z0.500
G1 Z-1.000 F180
G1 X487.587 Y27.587 F650
G1 Z-2.000 F180
G1 X487.587 Y27.587 F650
G1 Z-3.000 F180
G1 X487.587 Y27.587 F650
G1 Z-4.000 F180
G1 X487.587 Y27.587 F650
G1 Z-5.000 F180
G1 X487.587 Y27.587 F650
G1 Z-6.000 F180
G1 X487.587 Y27.587 F650
G1 Z-6.350 F180
G1 X487.587 Y27.587 F650
G0 Z5.000
G0 X487.587 Y17.587
G0 Z0.500
G1 Z-1.000 F180
G1 X487.587 Y17.587 F650
G1 Z-2.000 F180
G1 X487.587 Y17.587 F650
G1 Z-3.000 F180
G1 X487.587 Y17.587 F650
G1 Z-4.000 F180
G1 X487.587 Y17.587 F650
G1 Z-5.000 F180
G1 X487.587 Y17.587 F650
G1 Z-6.000 F180
G1 X487.587 Y17.587 F650
G1 Z-6.350 F180
G1 X487.587 Y17.587 F650
G0 Z5.000
(relief holes for bottom)
G0 X607.587 Y7.588
G0 Z0.500
G1 Z-1.000 F180
G1 X607.587 Y7.588 F650
G1 Z-2.000 F180
G1 X607.587 Y7.588 F650
G1 Z-3.000 F180
G1 X607.587 Y7.588 F650
G1 Z-4.000 F180
G1 X607.587 Y7.588 F650
G1 Z-5.000 F180
G1 X607.587 Y7.588 F650
G1 Z-6.000 F180
G1 X607.587 Y7.588 F650
G1 Z-6.350 F180
G1 X607.587 Y7.588 F650
G0 Z5.000
G0 X618.254 Y7.588
G0 Z0.500
G1 Z-1.000 F180
G1 X618.254 Y7.588 F650
G1 Z-2.000 F180
G1 X618.254 Y7.588 F650
G1 Z-3.000 F180
G1 X618.254 Y7.588 F650
G1 Z-4.000 F180
G1 X618.254 Y7.588 F650
G1 Z-5.000 F180
G1 X618.254 Y7.588 F650
G1 Z-6.000 F180
G1 X618.254 Y7.588 F650
G1 Z-6.350 F180
G1 X618.254 Y7.588 F650
G0 Z5.000
G0 X628.921 Y7.588
G0 Z0.500
G1 Z-1.000 F180
G1 X628.921 Y7.588 F650
G1 Z-2.000 F180
G1 X628.921 Y7.588 F650
G1 Z-3.000 F180
G1 X628.921 Y7.588 F650
G1 Z-4.000 F180
G1 X628.921 Y7.588 F650
G1 Z-5.000 F180
G1 X628.921 Y7.588 F650
G1 Z-6.000 F180
G1 X628.921 Y7.588 F650
G1 Z-6.350 F180
G1 X628.921 Y7.588 F650
G0 Z5.000
G0 X639.587 Y7.588
G0 Z0.500
G1 Z-1.000 F180
G1 X639.587 Y7.588 F650
G1 Z-2.000 F180
G1 X639.587 Y7.588 F650
G1 Z-3.000 F180
G1 X639.587 Y7.588 F650
G1 Z-4.000 F180
G1 X639.587 Y7.588 F650
G1 Z-5.000 F180
G1 X639.587 Y7.588 F650
G1 Z-6.000 F180
G1 X639.587 Y7.588 F650
G1 Z-6.350 F180
G1 X639.587 Y7.588 F650
G0 Z5.000
G0 X650.254 Y7.588
G0 Z0.500
G1 Z-1.000 F180
G1 X650.254 Y7.588 F650
G1 Z-2.000 F180
G1 X650.254 Y7.588 F650
G1 Z-3.000 F180
G1 X650.254 Y7.588 F650
G1 Z-4.000 F180
G1 X650.254 Y7.588 F650
G1 Z-5.000 F180
G1 X650.254 Y7.588 F650
G1 Z-6.000 F180
G1 X650.254 Y7.588 F650
G1 Z-6.350 F180
G1 X650.254 Y7.588 F650
G0 Z5.000
G0 X660.921 Y7.588
G0 Z0.500
G1 Z-1.000 F180
G1 X660.921 Y7.588 F650
G1 Z-2.000 F180
G1 X660.921 Y7.588 F650
G1 Z-3.000 F180
G1 X660.921 Y7.588 F650
G1 Z-4.000 F180
G1 X660.921 Y7.588 F650
G1 Z-5.000 F180
G1 X660.921 Y7.588 F650
G1 Z-6.000 F180
G1 X660.921 Y7.588 F650
G1 Z-6.350 F180
G1 X660.921 Y7.588 F650
G0 Z5.000
G0 X671.587 Y7.588
G0 Z0.500
G1 Z-1.000 F180
G1 X671.587 Y7.588 F650
G1 Z-2.000 F180
G1 X671.587 Y7.588 F650
G1 Z-3.000 F180
G1 X671.587 Y7.588 F650
G1 Z-4.000 F180
G1 X671.587 Y7.588 F650
G1 Z-5.000 F180
G1 X671.587 Y7.588 F650
G1 Z-6.000 F180
G1 X671.587 Y7.588 F650
G1 Z-6.350 F180
G1 X671.587 Y7.588 F650
G0 Z5.000
G0 X682.254 Y7.588
G0 Z0.500
G1 Z-1.000 F180
G1 X682.254 Y7.588 F650
G1 Z-2.000 F180
G1 X682.254 Y7.588 F650
G1 Z-3.000 F180
G1 X682.254 Y7.588 F650
G1 Z-4.000 F180
G1 X682.254 Y7.588 F650
G1 Z-5.000 F180
G1 X682.254 Y7.588 F650
G1 Z-6.000 F180
G1 X682.254 Y7.588 F650
G1 Z-6.350 F180
G1 X682.254 Y7.588 F650
G0 Z5.000
G0 X692.921 Y7.588
G0 Z0.500
G1 Z-1.000 F180
G1 X692.921 Y7.588 F650
G1 Z-2.000 F180
G1 X692.921 Y7.588 F650
G1 Z-3.000 F180
G1 X692.921 Y7.588 F650
G1 Z-4.000 F180
G1 X692.921 Y7.588 F650
G1 Z-5.000 F180
G1 X692.921 Y7.588 F650
G1 Z-6.000 F180
G1 X692.921 Y7.588 F650
G1 Z-6.350 F180
G1 X692.921 Y7.588 F650
G0 Z5.000
G0 X703.587 Y7.588
G0 Z0.500
G1 Z-1.000 F180
G1 X703.587 Y7.588 F650
G1 Z-2.000 F180
G1 X703.587 Y7.588 F650
G1 Z-3.000 F180
G1 X703.587 Y7.588 F650
G1 Z-4.000 F180
G1 X703.587 Y7.588 F650
G1 Z-5.000 F180
G1 X703.587 Y7.588 F650
G1 Z-6.000 F180
G1 X703.587 Y7.588 F650
G1 Z-6.350 F180
G1 X703.587 Y7.588 F650
G0 Z5.000
G0 X714.254 Y7.588
G0 Z0.500
G1 Z-1.000 F180
G1 X714.254 Y7.588 F650
G1 Z-2.000 F180
G1 X714.254 Y7.588 F650
G1 Z-3.000 F180
G1 X714.254 Y7.588 F650
G1 Z-4.000 F180
G1 X714.254 Y7.588 F650
G1 Z-5.000 F180
G1 X714.254 Y7.588 F650
G1 Z-6.000 F180
G1 X714.254 Y7.588 F650
G1 Z-6.350 F180
G1 X714.254 Y7.588 F650
G0 Z5.000
G0 X724.921 Y7.588
G0 Z0.500
G1 Z-1.000 F180
G1 X724.921 Y7.588 F650
G1 Z-2.000 F180
G1 X724.921 Y7.588 F650
G1 Z-3.000 F180
G1 X724.921 Y7.588 F650
G1 Z-4.000 F180
G1 X724.921 Y7.588 F650
G1 Z-5.000 F180
G1 X724.921 Y7.588 F650
G1 Z-6.000 F180
G1 X724.921 Y7.588 F650
G1 Z-6.350 F180
G1 X724.921 Y7.588 F650
G0 Z5.000
G0 X735.587 Y7.588
G0 Z0.500
G1 Z-1.000 F180
G1 X735.587 Y7.588 F650
G1 Z-2.000 F180
G1 X735.587 Y7.588 F650
G1 Z-3.000 F180
G1 X735.587 Y7.588 F650
G1 Z-4.000 F180
G1 X735.587 Y7.588 F650
G1 Z-5.000 F180
G1 X735.587 Y7.588 F650
G1 Z-6.000 F180
G1 X735.587 Y7.588 F650
G1 Z-6.350 F180
G1 X735.587 Y7.588 F650
G0 Z5.000
G0 X746.254 Y7.588
G0 Z0.500
G1 Z-1.000 F180
G1 X746.254 Y7.588 F650
G1 Z-2.000 F180
G1 X746.254 Y7.588 F650
G1 Z-3.000 F180
G1 X746.254 Y7.588 F650
G1 Z-4.000 F180
G1 X746.254 Y7.588 F650
G1 Z-5.000 F180
G1 X746.254 Y7.588 F650
G1 Z-6.000 F180
G1 X746.254 Y7.588 F650
G1 Z-6.350 F180
G1 X746.254 Y7.588 F650
G0 Z5.000
G0 X756.921 Y7.588
G0 Z0.500
G1 Z-1.000 F180
G1 X756.921 Y7.588 F650
G1 Z-2.000 F180
G1 X756.921 Y7.588 F650
G1 Z-3.000 F180
G1 X756.921 Y7.588 F650
G1 Z-4.000 F180
G1 X756.921 Y7.588 F650
G1 Z-5.000 F180
G1 X756.921 Y7.588 F650
G1 Z-6.000 F180
G1 X756.921 Y7.588 F650
G1 Z-6.350 F180
G1 X756.921 Y7.588 F650
G0 Z5.000
G0 X767.587 Y7.588
G0 Z0.500
G1 Z-1.000 F180
G1 X767.587 Y7.588 F650
G1 Z-2.000 F180
G1 X767.587 Y7.588 F650
G1 Z-3.000 F180
G1 X767.587 Y7.588 F650
G1 Z-4.000 F180
G1 X767.587 Y7.588 F650
G1 Z-5.000 F180
G1 X767.587 Y7.588 F650
G1 Z-6.000 F180
G1 X767.587 Y7.588 F650
G1 Z-6.350 F180
G1 X767.587 Y7.588 F650
G0 Z5.000
G0 X767.587 Y18.699
G0 Z0.500
G1 Z-1.000 F180
G1 X767.587 Y18.699 F650
G1 Z-2.000 F180
G1 X767.587 Y18.699 F650
G1 Z-3.000 F180
G1 X767.587 Y18.699 F650
G1 Z-4.000 F180
G1 X767.587 Y18.699 F650
G1 Z-5.000 F180
G1 X767.587 Y18.699 F650
G1 Z-6.000 F180
G1 X767.587 Y18.699 F650
G1 Z-6.350 F180
G1 X767.587 Y18.699 F650
G0 Z5.000
G0 X767.587 Y29.810
G0 Z0.500
G1 Z-1.000 F180
G1 X767.587 Y29.810 F650
G1 Z-2.000 F180
G1 X767.587 Y29.810 F650
G1 Z-3.000 F180
G1 X767.587 Y29.810 F650
G1 Z-4.000 F180
G1 X767.587 Y29.810 F650
G1 Z-5.000 F180
G1 X767.587 Y29.810 F650
G1 Z-6.000 F180
G1 X767.587 Y29.810 F650
G1 Z-6.350 F180
G1 X767.587 Y29.810 F650
G0 Z5.000
G0 X767.587 Y40.921
G0 Z0.500
G1 Z-1.000 F180
G1 X767.587 Y40.921 F650
G1 Z-2.000 F180
G1 X767.587 Y40.921 F650
G1 Z-3.000 F180
G1 X767.587 Y40.921 F650
G1 Z-4.000 F180
G1 X767.587 Y40.921 F650
G1 Z-5.000 F180
G1 X767.587 Y40.921 F650
G1 Z-6.000 F180
G1 X767.587 Y40.921 F650
G1 Z-6.350 F180
G1 X767.587 Y40.921 F650
G0 Z5.000
G0 X767.587 Y52.032
G0 Z0.500
G1 Z-1.000 F180
G1 X767.587 Y52.032 F650
G1 Z-2.000 F180
G1 X767.587 Y52.032 F650
G1 Z-3.000 F180
G1 X767.587 Y52.032 F650
G1 Z-4.000 F180
G1 X767.587 Y52.032 F650
G1 Z-5.000 F180
G1 X767.587 Y52.032 F650
G1 Z-6.000 F180
G1 X767.587 Y52.032 F650
G1 Z-6.350 F180
G1 X767.587 Y52.032 F650
G0 Z5.000
G0 X767.587 Y63.143
G0 Z0.500
G1 Z-1.000 F180
G1 X767.587 Y63.143 F650
G1 Z-2.000 F180
G1 X767.587 Y63.143 F650
G1 Z-3.000 F180
G1 X767.587 Y63.143 F650
G1 Z-4.000 F180
G1 X767.587 Y63.143 F650
G1 Z-5.000 F180
G1 X767.587 Y63.143 F650
G1 Z-6.000 F180
G1 X767.587 Y63.143 F650
G1 Z-6.350 F180
G1 X767.587 Y63.143 F650
G0 Z5.000
G0 X767.587 Y74.254
G0 Z0.500
G1 Z-1.000 F180
G1 X767.587 Y74.254 F650
G1 Z-2.000 F180
G1 X767.587 Y74.254 F650
G1 Z-3.000 F180
G1 X767.587 Y74.254 F650
G1 Z-4.000 F180
G1 X767.587 Y74.254 F650
G1 Z-5.000 F180
G1 X767.587 Y74.254 F650
G1 Z-6.000 F180
G1 X767.587 Y74.254 F650
G1 Z-6.350 F180
G1 X767.587 Y74.254 F650
G0 Z5.000
G0 X767.587 Y85.365
G0 Z0.500
G1 Z-1.000 F180
G1 X767.587 Y85.365 F650
G1 Z-2.000 F180
G1 X767.587 Y85.365 F650
G1 Z-3.000 F180
G1 X767.587 Y85.365 F650
G1 Z-4.000 F180
G1 X767.587 Y85.365 F650
G1 Z-5.000 F180
G1 X767.587 Y85.365 F650
G1 Z-6.000 F180
G1 X767.587 Y85.365 F650
G1 Z-6.350 F180
G1 X767.587 Y85.365 F650
G0 Z5.000
G0 X767.587 Y96.476
G0 Z0.500
G1 Z-1.000 F180
G1 X767.587 Y96.476 F650
G1 Z-2.000 F180
G1 X767.587 Y96.476 F650
G1 Z-3.000 F180
G1 X767.587 Y96.476 F650
G1 Z-4.000 F180
G1 X767.587 Y96.476 F650
G1 Z-5.000 F180
G1 X767.587 Y96.476 F650
G1 Z-6.000 F180
G1 X767.587 Y96.476 F650
G1 Z-6.350 F180
G1 X767.587 Y96.476 F650
G0 Z5.000
G0 X767.587 Y107.588
G0 Z0.500
G1 Z-1.000 F180
G1 X767.587 Y107.588 F650
G1 Z-2.000 F180
G1 X767.587 Y107.588 F650
G1 Z-3.000 F180
G1 X767.587 Y107.588 F650
G1 Z-4.000 F180
G1 X767.587 Y107.588 F650
G1 Z-5.000 F180
G1 X767.587 Y107.588 F650
G1 Z-6.000 F180
G1 X767.587 Y107.588 F650
G1 Z-6.350 F180
G1 X767.587 Y107.588 F650
G0 Z5.000
G0 X756.921 Y107.588
G0 Z0.500
G1 Z-1.000 F180
G1 X756.921 Y107.588 F650
G1 Z-2.000 F180
G1 X756.921 Y107.588 F650
G1 Z-3.000 F180
G1 X756.921 Y107.588 F650
G1 Z-4.000 F180
G1 X756.921 Y107.588 F650
G1 Z-5.000 F180
G1 X756.921 Y107.588 F650
G1 Z-6.000 F180
G1 X756.921 Y107.588 F650
G1 Z-6.350 F180
G1 X756.921 Y107.588 F650
G0 Z5.000
G0 X746.254 Y107.588
G0 Z0.500
G1 Z-1.000 F180
G1 X746.254 Y107.588 F650
G1 Z-2.000 F180
G1 X746.254 Y107.588 F650
G1 Z-3.000 F180
G1 X746.254 Y107.588 F650
G1 Z-4.000 F180
G1 X746.254 Y107.588 F650
G1 Z-5.000 F180
G1 X746.254 Y107.588 F650
G1 Z-6.000 F180
G1 X746.254 Y107.588 F650
G1 Z-6.350 F180
G1 X746.254 Y107.588 F650
G0 Z5.000
G0 X735.587 Y107.588
G0 Z0.500
G1 Z-1.000 F180
G1 X735.587 Y107.588 F650
G1 Z-2.000 F180
G1 X735.587 Y107.588 F650
G1 Z-3.000 F180
G1 X735.587 Y107.588 F650
G1 Z-4.000 F180
G1 X735.587 Y107.588 F650
G1 Z-5.000 F180
G1 X735.587 Y107.588 F650
G1 Z-6.000 F180
G1 X735.587 Y107.588 F650
G1 Z-6.350 F180
G1 X735.587 Y107.588 F650
G0 Z5.000
G0 X724.921 Y107.588
G0 Z0.500
G1 Z-1.000 F180
G1 X724.921 Y107.588 F650
G1 Z-2.000 F180
G1 X724.921 Y107.588 F650
G1 Z-3.000 F180
G1 X724.921 Y107.588 F650
G1 Z-4.000 F180
G1 X724.921 Y107.588 F650
G1 Z-5.000 F180
G1 X724.921 Y107.588 F650
G1 Z-6.000 F180
G1 X724.921 Y107.588 F650
G1 Z-6.350 F180
G1 X724.921 Y107.588 F650
G0 Z5.000
G0 X714.254 Y107.588
G0 Z0.500
G1 Z-1.000 F180
G1 X714.254 Y107.588 F650
G1 Z-2.000 F180
G1 X714.254 Y107.588 F650
G1 Z-3.000 F180
G1 X714.254 Y107.588 F650
G1 Z-4.000 F180
G1 X714.254 Y107.588 F650
G1 Z-5.000 F180
G1 X714.254 Y107.588 F650
G1 Z-6.000 F180
G1 X714.254 Y107.588 F650
G1 Z-6.350 F180
G1 X714.254 Y107.588 F650
G0 Z5.000
G0 X703.587 Y107.588
G0 Z0.500
G1 Z-1.000 F180
G1 X703.587 Y107.588 F650
G1 Z-2.000 F180
G1 X703.587 Y107.588 F650
G1 Z-3.000 F180
G1 X703.587 Y107.588 F650
G1 Z-4.000 F180
G1 X703.587 Y107.588 F650
G1 Z-5.000 F180
G1 X703.587 Y107.588 F650
G1 Z-6.000 F180
G1 X703.587 Y107.588 F650
G1 Z-6.350 F180
G1 X703.587 Y107.588 F650
G0 Z5.000
G0 X692.921 Y107.588
G0 Z0.500
G1 Z-1.000 F180
G1 X692.921 Y107.588 F650
G1 Z-2.000 F180
G1 X692.921 Y107.588 F650
G1 Z-3.000 F180
G1 X692.921 Y107.588 F650
G1 Z-4.000 F180
G1 X692.921 Y107.588 F650
G1 Z-5.000 F180
G1 X692.921 Y107.588 F650
G1 Z-6.000 F180
G1 X692.921 Y107.588 F650
G1 Z-6.350 F180
G1 X692.921 Y107.588 F650
G0 Z5.000
G0 X682.254 Y107.588
G0 Z0.500
G1 Z-1.000 F180
G1 X682.254 Y107.588 F650
G1 Z-2.000 F180
G1 X682.254 Y107.588 F650
G1 Z-3.000 F180
G1 X682.254 Y107.588 F650
G1 Z-4.000 F180
G1 X682.254 Y107.588 F650
G1 Z-5.000 F180
G1 X682.254 Y107.588 F650
G1 Z-6.000 F180
G1 X682.254 Y107.588 F650
G1 Z-6.350 F180
G1 X682.254 Y107.588 F650
G0 Z5.000
G0 X671.587 Y107.588
G0 Z0.500
G1 Z-1.000 F180
G1 X671.587 Y107.588 F650
G1 Z-2.000 F180
G1 X671.587 Y107.588 F650
G1 Z-3.000 F180
G1 X671.587 Y107.588 F650
G1 Z-4.000 F180
G1 X671.587 Y107.588 F650
G1 Z-5.000 F180
G1 X671.587 Y107.588 F650
G1 Z-6.000 F180
G1 X671.587 Y107.588 F650
G1 Z-6.350 F180
G1 X671.587 Y107.588 F650
G0 Z5.000
G0 X660.921 Y107.588
G0 Z0.500
G1 Z-1.000 F180
G1 X660.921 Y107.588 F650
G1 Z-2.000 F180
G1 X660.921 Y107.588 F650
G1 Z-3.000 F180
G1 X660.921 Y107.588 F650
G1 Z-4.000 F180
G1 X660.921 Y107.588 F650
G1 Z-5.000 F180
G1 X660.921 Y107.588 F650
G1 Z-6.000 F180
G1 X660.921 Y107.588 F650
G1 Z-6.350 F180
G1 X660.921 Y107.588 F650
G0 Z5.000
G0 X650.254 Y107.588
G0 Z0.500
G1 Z-1.000 F180
G1 X650.254 Y107.588 F650
G1 Z-2.000 F180
G1 X650.254 Y107.588 F650
G1 Z-3.000 F180
G1 X650.254 Y107.588 F650
G1 Z-4.000 F180
G1 X650.254 Y107.588 F650
G1 Z-5.000 F180
G1 X650.254 Y107.588 F650
G1 Z-6.000 F180
G1 X650.254 Y107.588 F650
G1 Z-6.350 F180
G1 X650.254 Y107.588 F650
G0 Z5.000
G0 X639.587 Y107.588
G0 Z0.500
G1 Z-1.000 F180
G1 X639.587 Y107.588 F650
G1 Z-2.000 F180
G1 X639.587 Y107.588 F650
G1 Z-3.000 F180
G1 X639.587 Y107.588 F650
G1 Z-4.000 F180
G1 X639.587 Y107.588 F650
G1 Z-5.000 F180
G1 X639.587 Y107.588 F650
G1 Z-6.000 F180
G1 X639.587 Y107.588 F650
G1 Z-6.350 F180
G1 X639.587 Y107.588 F650
G0 Z5.000
G0 X628.921 Y107.588
G0 Z0.500
G1 Z-1.000 F180
G1 X628.921 Y107.588 F650
G1 Z-2.000 F180
G1 X628.921 Y107.588 F650
G1 Z-3.000 F180
G1 X628.921 Y107.588 F650
G1 Z-4.000 F180
G1 X628.921 Y107.588 F650
G1 Z-5.000 F180
G1 X628.921 Y107.588 F650
G1 Z-6.000 F180
G1 X628.921 Y107.588 F650
G1 Z-6.350 F180
G1 X628.921 Y107.588 F650
G0 Z5.000
G0 X618.254 Y107.588
G0 Z0.500
G1 Z-1.000 F180
G1 X618.254 Y107.588 F650
G1 Z-2.000 F180
G1 X618.254 Y107.588 F650
G1 Z-3.000 F180
G1 X618.254 Y107.588 F650
G1 Z-4.000 F180
G1 X618.254 Y107.588 F650
G1 Z-5.000 F180
G1 X618.254 Y107.588 F650
G1 Z-6.000 F180
G1 X618.254 Y107.588 F650
G1 Z-6.350 F180
G1 X618.254 Y107.588 F650
G0 Z5.000
G0 X607.587 Y107.588
G0 Z0.500
G1 Z-1.000 F180
G1 X607.587 Y107.588 F650
G1 Z-2.000 F180
G1 X607.587 Y107.588 F650
G1 Z-3.000 F180
G1 X607.587 Y107.588 F650
G1 Z-4.000 F180
G1 X607.587 Y107.588 F650
G1 Z-5.000 F180
G1 X607.587 Y107.588 F650
G1 Z-6.000 F180
G1 X607.587 Y107.588 F650
G1 Z-6.350 F180
G1 X607.587 Y107.588 F650
G0 Z5.000
G0 X607.587 Y96.476
G0 Z0.500
G1 Z-1.000 F180
G1 X607.587 Y96.476 F650
G1 Z-2.000 F180
G1 X607.587 Y96.476 F650
G1 Z-3.000 F180
G1 X607.587 Y96.476 F650
G1 Z-4.000 F180
G1 X607.587 Y96.476 F650
G1 Z-5.000 F180
G1 X607.587 Y96.476 F650
G1 Z-6.000 F180
G1 X607.587 Y96.476 F650
G1 Z-6.350 F180
G1 X607.587 Y96.476 F650
G0 Z5.000
G0 X607.587 Y85.365
G0 Z0.500
G1 Z-1.000 F180
G1 X607.587 Y85.365 F650
G1 Z-2.000 F180
G1 X607.587 Y85.365 F650
G1 Z-3.000 F180
G1 X607.587 Y85.365 F650
G1 Z-4.000 F180
G1 X607.587 Y85.365 F650
G1 Z-5.000 F180
G1 X607.587 Y85.365 F650
G1 Z-6.000 F180
G1 X607.587 Y85.365 F650
G1 Z-6.350 F180
G1 X607.587 Y85.365 F650
G0 Z5.000
G0 X607.587 Y74.254
G0 Z0.500
G1 Z-1.000 F180
G1 X607.587 Y74.254 F650
G1 Z-2.000 F180
G1 X607.587 Y74.254 F650
G1 Z-3.000 F180
G1 X607.587 Y74.254 F650
G1 Z-4.000 F180
G1 X607.587 Y74.254 F650
G1 Z-5.000 F180
G1 X607.587 Y74.254 F650
G1 Z-6.000 F180
G1 X607.587 Y74.254 F650
G1 Z-6.350 F180
G1 X607.587 Y74.254 F650
G0 Z5.000
G0 X607.587 Y63.143
G0 Z0.500
G1 Z-1.000 F180
G1 X607.587 Y63.143 F650
G1 Z-2.000 F180
G1 X607.587 Y63.143 F650
G1 Z-3.000 F180
G1 X607.587 Y63.143 F650
G1 Z-4.000 F180
G1 X607.587 Y63.143 F650
G1 Z-5.000 F180
G1 X607.587 Y63.143 F650
G1 Z-6.000 F180
G1 X607.587 Y63.143 F650
G1 Z-6.350 F180
G1 X607.587 Y63.143 F650
G0 Z5.000
G0 X607.587 Y52.032
G0 Z0.500
G1 Z-1.000 F180
G1 X607.587 Y52.032 F650
G1 Z-2.000 F180
G1 X607.587 Y52.032 F650
G1 Z-3.000 F180
G1 X607.587 Y52.032 F650
G1 Z-4.000 F180
G1 X607.587 Y52.032 F650
G1 Z-5.000 F180
G1 X607.587 Y52.032 F650
G1 Z-6.000 F180
G1 X607.587 Y52.032 F650
G1 Z-6.350 F180
G1 X607.587 Y52.032 F650
G0 Z5.000
G0 X607.587 Y40.921
G0 Z0.500
G1 Z-1.000 F180
G1 X607.587 Y40.921 F650
G1 Z-2.000 F180
G1 X607.587 Y40.921 F650
G1 Z-3.000 F180
G1 X607.587 Y40.921 F650
G1 Z-4.000 F180
G1 X607.587 Y40.921 F650
G1 Z-5.000 F180
G1 X607.587 Y40.921 F650
G1 Z-6.000 F180
G1 X607.587 Y40.921 F650
G1 Z-6.350 F180
G1 X607.587 Y40.921 F650
G0 Z5.000
G0 X607.587 Y29.810
G0 Z0.500
G1 Z-1.000 F180
G1 X607.587 Y29.810 F650
G1 Z-2.000 F180
G1 X607.587 Y29.810 F650
G1 Z-3.000 F180
G1 X607.587 Y29.810 F650
G1 Z-4.000 F180
G1 X607.587 Y29.810 F650
G1 Z-5.000 F180
G1 X607.587 Y29.810 F650
G1 Z-6.000 F180
G1 X607.587 Y29.810 F650
G1 Z-6.350 F180
G1 X607.587 Y29.810 F650
G0 Z5.000
G0 X607.587 Y18.699
G0 Z0.500
G1 Z-1.000 F180
G1 X607.587 Y18.699 F650
G1 Z-2.000 F180
G1 X607.587 Y18.699 F650
G1 Z-3.000 F180
G1 X607.587 Y18.699 F650
G1 Z-4.000 F180
G1 X607.587 Y18.699 F650
G1 Z-5.000 F180
G1 X607.587 Y18.699 F650
G1 Z-6.000 F180
G1 X607.587 Y18.699 F650
G1 Z-6.350 F180
G1 X607.587 Y18.699 F650
G0 Z5.000
(relief holes for top)
G0 X12.254 Y133.588
G0 Z0.500
G1 Z-1.000 F180
G1 X12.254 Y133.588 F650
G1 Z-2.000 F180
G1 X12.254 Y133.588 F650
G1 Z-3.000 F180
G1 X12.254 Y133.588 F650
G1 Z-4.000 F180
G1 X12.254 Y133.588 F650
G1 Z-5.000 F180
G1 X12.254 Y133.588 F650
G1 Z-6.000 F180
G1 X12.254 Y133.588 F650
G1 Z-6.350 F180
G1 X12.254 Y133.588 F650
G0 Z5.000
G0 X22.921 Y133.588
G0 Z0.500
G1 Z-1.000 F180
G1 X22.921 Y133.588 F650
G1 Z-2.000 F180
G1 X22.921 Y133.588 F650
G1 Z-3.000 F180
G1 X22.921 Y133.588 F650
G1 Z-4.000 F180
G1 X22.921 Y133.588 F650
G1 Z-5.000 F180
G1 X22.921 Y133.588 F650
G1 Z-6.000 F180
G1 X22.921 Y133.588 F650
G1 Z-6.350 F180
G1 X22.921 Y133.588 F650
G0 Z5.000
G0 X33.587 Y133.588
G0 Z0.500
G1 Z-1.000 F180
G1 X33.587 Y133.588 F650
G1 Z-2.000 F180
G1 X33.587 Y133.588 F650
G1 Z-3.000 F180
G1 X33.587 Y133.588 F650
G1 Z-4.000 F180
G1 X33.587 Y133.588 F650
G1 Z-5.000 F180
G1 X33.587 Y133.588 F650
G1 Z-6.000 F180
G1 X33.587 Y133.588 F650
G1 Z-6.350 F180
G1 X33.587 Y133.588 F650
G0 Z5.000
G0 X44.254 Y133.588
G0 Z0.500
G1 Z-1.000 F180
G1 X44.254 Y133.588 F650
G1 Z-2.000 F180
G1 X44.254 Y133.588 F650
G1 Z-3.000 F180
G1 X44.254 Y133.588 F650
G1 Z-4.000 F180
G1 X44.254 Y133.588 F650
G1 Z-5.000 F180
G1 X44.254 Y133.588 F650
G1 Z-6.000 F180
G1 X44.254 Y133.588 F650
G1 Z-6.350 F180
G1 X44.254 Y133.588 F650
G0 Z5.000
G0 X54.921 Y133.588
G0 Z0.500
G1 Z-1.000 F180
G1 X54.921 Y133.588 F650
G1 Z-2.000 F180
G1 X54.921 Y133.588 F650
G1 Z-3.000 F180
G1 X54.921 Y133.588 F650
G1 Z-4.000 F180
G1 X54.921 Y133.588 F650
G1 Z-5.000 F180
G1 X54.921 Y133.588 F650
G1 Z-6.000 F180
G1 X54.921 Y133.588 F650
G1 Z-6.350 F180
G1 X54.921 Y133.588 F650
G0 Z5.000
G0 X65.588 Y133.588
G0 Z0.500
G1 Z-1.000 F180
G1 X65.588 Y133.588 F650
G1 Z-2.000 F180
G1 X65.588 Y133.588 F650
G1 Z-3.000 F180
G1 X65.588 Y133.588 F650
G1 Z-4.000 F180
G1 X65.588 Y133.588 F650
G1 Z-5.000 F180
G1 X65.588 Y133.588 F650
G1 Z-6.000 F180
G1 X65.588 Y133.588 F650
G1 Z-6.350 F180
G1 X65.588 Y133.588 F650
G0 Z5.000
G0 X76.254 Y133.588
G0 Z0.500
G1 Z-1.000 F180
G1 X76.254 Y133.588 F650
G1 Z-2.000 F180
G1 X76.254 Y133.588 F650
G1 Z-3.000 F180
G1 X76.254 Y133.588 F650
G1 Z-4.000 F180
G1 X76.254 Y133.588 F650
G1 Z-5.000 F180
G1 X76.254 Y133.588 F650
G1 Z-6.000 F180
G1 X76.254 Y133.588 F650
G1 Z-6.350 F180
G1 X76.254 Y133.588 F650
G0 Z5.000
G0 X86.921 Y133.588
G0 Z0.500
G1 Z-1.000 F180
G1 X86.921 Y133.588 F650
G1 Z-2.000 F180
G1 X86.921 Y133.588 F650
G1 Z-3.000 F180
G1 X86.921 Y133.588 F650
G1 Z-4.000 F180
G1 X86.921 Y133.588 F650
G1 Z-5.000 F180
G1 X86.921 Y133.588 F650
G1 Z-6.000 F180
G1 X86.921 Y133.588 F650
G1 Z-6.350 F180
G1 X86.921 Y133.588 F650
G0 Z5.000
G0 X97.588 Y133.588
G0 Z0.500
G1 Z-1.000 F180
G1 X97.588 Y133.588 F650
G1 Z-2.000 F180
G1 X97.588 Y133.588 F650
G1 Z-3.000 F180
G1 X97.588 Y133.588 F650
G1 Z-4.000 F180
G1 X97.588 Y133.588 F650
G1 Z-5.000 F180
G1 X97.588 Y133.588 F650
G1 Z-6.000 F180
G1 X97.588 Y133.588 F650
G1 Z-6.350 F180
G1 X97.588 Y133.588 F650
G0 Z5.000
G0 X108.254 Y133.588
G0 Z0.500
G1 Z-1.000 F180
G1 X108.254 Y133.588 F650
G1 Z-2.000 F180
G1 X108.254 Y133.588 F650
G1 Z-3.000 F180
G1 X108.254 Y133.588 F650
G1 Z-4.000 F180
G1 X108.254 Y133.588 F650
G1 Z-5.000 F180
G1 X108.254 Y133.588 F650
G1 Z-6.000 F180
G1 X108.254 Y133.588 F650
G1 Z-6.350 F180
G1 X108.254 Y133.588 F650
G0 Z5.000
G0 X118.921 Y133.588
G0 Z0.500
G1 Z-1.000 F180
G1 X118.921 Y133.588 F650
G1 Z-2.000 F180
G1 X118.921 Y133.588 F650
G1 Z-3.000 F180
G1 X118.921 Y133.588 F650
G1 Z-4.000 F180
G1 X118.921 Y133.588 F650
G1 Z-5.000 F180
G1 X118.921 Y133.588 F650
G1 Z-6.000 F180
G1 X118.921 Y133.588 F650
G1 Z-6.350 F180
G1 X118.921 Y133.588 F650
G0 Z5.000
G0 X129.588 Y133.588
G0 Z0.500
G1 Z-1.000 F180
G1 X129.588 Y133.588 F650
G1 Z-2.000 F180
G1 X129.588 Y133.588 F650
G1 Z-3.000 F180
G1 X129.588 Y133.588 F650
G1 Z-4.000 F180
G1 X129.588 Y133.588 F650
G1 Z-5.000 F180
G1 X129.588 Y133.588 F650
G1 Z-6.000 F180
G1 X129.588 Y133.588 F650
G1 Z-6.350 F180
G1 X129.588 Y133.588 F650
G0 Z5.000
G0 X140.254 Y133.588
G0 Z0.500
G1 Z-1.000 F180
G1 X140.254 Y133.588 F650
G1 Z-2.000 F180
G1 X140.254 Y133.588 F650
G1 Z-3.000 F180
G1 X140.254 Y133.588 F650
G1 Z-4.000 F180
G1 X140.254 Y133.588 F650
G1 Z-5.000 F180
G1 X140.254 Y133.588 F650
G1 Z-6.000 F180
G1 X140.254 Y133.588 F650
G1 Z-6.350 F180
G1 X140.254 Y133.588 F650
G0 Z5.000
G0 X150.921 Y133.588
G0 Z0.500
G1 Z-1.000 F180
G1 X150.921 Y133.588 F650
G1 Z-2.000 F180
G1 X150.921 Y133.588 F650
G1 Z-3.000 F180
G1 X150.921 Y133.588 F650
G1 Z-4.000 F180
G1 X150.921 Y133.588 F650
G1 Z-5.000 F180
G1 X150.921 Y133.588 F650
G1 Z-6.000 F180
G1 X150.921 Y133.588 F650
G1 Z-6.350 F180
G1 X150.921 Y133.588 F650
G0 Z5.000
G0 X155.588 Y138.699
G0 Z0.500
G1 Z-1.000 F180
G1 X155.588 Y138.699 F650
G1 Z-2.000 F180
G1 X155.588 Y138.699 F650
G1 Z-3.000 F180
G1 X155.588 Y138.699 F650
G1 Z-4.000 F180
G1 X155.588 Y138.699 F650
G1 Z-5.000 F180
G1 X155.588 Y138.699 F650
G1 Z-6.000 F180
G1 X155.588 Y138.699 F650
G1 Z-6.350 F180
G1 X155.588 Y138.699 F650
G0 Z5.000
G0 X155.588 Y149.810
G0 Z0.500
G1 Z-1.000 F180
G1 X155.588 Y149.810 F650
G1 Z-2.000 F180
G1 X155.588 Y149.810 F650
G1 Z-3.000 F180
G1 X155.588 Y149.810 F650
G1 Z-4.000 F180
G1 X155.588 Y149.810 F650
G1 Z-5.000 F180
G1 X155.588 Y149.810 F650
G1 Z-6.000 F180
G1 X155.588 Y149.810 F650
G1 Z-6.350 F180
G1 X155.588 Y149.810 F650
G0 Z5.000
G0 X155.588 Y160.921
G0 Z0.500
G1 Z-1.000 F180
G1 X155.588 Y160.921 F650
G1 Z-2.000 F180
G1 X155.588 Y160.921 F650
G1 Z-3.000 F180
G1 X155.588 Y160.921 F650
G1 Z-4.000 F180
G1 X155.588 Y160.921 F650
G1 Z-5.000 F180
G1 X155.588 Y160.921 F650
G1 Z-6.000 F180
G1 X155.588 Y160.921 F650
G1 Z-6.350 F180
G1 X155.588 Y160.921 F650
G0 Z5.000
G0 X155.588 Y172.032
G0 Z0.500
G1 Z-1.000 F180
G1 X155.588 Y172.032 F650
G1 Z-2.000 F180
G1 X155.588 Y172.032 F650
G1 Z-3.000 F180
G1 X155.588 Y172.032 F650
G1 Z-4.000 F180
G1 X155.588 Y172.032 F650
G1 Z-5.000 F180
G1 X155.588 Y172.032 F650
G1 Z-6.000 F180
G1 X155.588 Y172.032 F650
G1 Z-6.350 F180
G1 X155.588 Y172.032 F650
G0 Z5.000
G0 X155.588 Y183.143
G0 Z0.500
G1 Z-1.000 F180
G1 X155.588 Y183.143 F650
G1 Z-2.000 F180
G1 X155.588 Y183.143 F650
G1 Z-3.000 F180
G1 X155.588 Y183.143 F650
G1 Z-4.000 F180
G1 X155.588 Y183.143 F650
G1 Z-5.000 F180
G1 X155.588 Y183.143 F650
G1 Z-6.000 F180
G1 X155.588 Y183.143 F650
G1 Z-6.350 F180
G1 X155.588 Y183.143 F650
G0 Z5.000
G0 X155.588 Y194.254
G0 Z0.500
G1 Z-1.000 F180
G1 X155.588 Y194.254 F650
G1 Z-2.000 F180
G1 X155.588 Y194.254 F650
G1 Z-3.000 F180
G1 X155.588 Y194.254 F650
G1 Z-4.000 F180
G1 X155.588 Y194.254 F650
G1 Z-5.000 F180
G1 X155.588 Y194.254 F650
G1 Z-6.000 F180
G1 X155.588 Y194.254 F650
G1 Z-6.350 F180
G1 X155.588 Y194.254 F650
G0 Z5.000
G0 X155.588 Y205.365
G0 Z0.500
G1 Z-1.000 F180
G1 X155.588 Y205.365 F650
G1 Z-2.000 F180
G1 X155.588 Y205.365 F650
G1 Z-3.000 F180
G1 X155.588 Y205.365 F650
G1 Z-4.000 F180
G1 X155.588 Y205.365 F650
G1 Z-5.000 F180
G1 X155.588 Y205.365 F650
G1 Z-6.000 F180
G1 X155.588 Y205.365 F650
G1 Z-6.350 F180
G1 X155.588 Y205.365 F650
G0 Z5.000
G0 X155.588 Y216.476
G0 Z0.500
G1 Z-1.000 F180
G1 X155.588 Y216.476 F650
G1 Z-2.000 F180
G1 X155.588 Y216.476 F650
G1 Z-3.000 F180
G1 X155.588 Y216.476 F650
G1 Z-4.000 F180
G1 X155.588 Y216.476 F650
G1 Z-5.000 F180
G1 X155.588 Y216.476 F650
G1 Z-6.000 F180
G1 X155.588 Y216.476 F650
G1 Z-6.350 F180
G1 X155.588 Y216.476 F650
G0 Z5.000
G0 X150.921 Y221.588
G0 Z0.500
G1 Z-1.000 F180
G1 X150.921 Y221.588 F650
G1 Z-2.000 F180
G1 X150.921 Y221.588 F650
G1 Z-3.000 F180
G1 X150.921 Y221.588 F650
G1 Z-4.000 F180
G1 X150.921 Y221.588 F650
G1 Z-5.000 F180
G1 X150.921 Y221.588 F650
G1 Z-6.000 F180
G1 X150.921 Y221.588 F650
G1 Z-6.350 F180
G1 X150.921 Y221.588 F650
G0 Z5.000
G0 X140.254 Y221.588
G0 Z0.500
G1 Z-1.000 F180
G1 X140.254 Y221.588 F650
G1 Z-2.000 F180
G1 X140.254 Y221.588 F650
G1 Z-3.000 F180
G1 X140.254 Y221.588 F650
G1 Z-4.000 F180
G1 X140.254 Y221.588 F650
G1 Z-5.000 F180
G1 X140.254 Y221.588 F650
G1 Z-6.000 F180
G1 X140.254 Y221.588 F650
G1 Z-6.350 F180
G1 X140.254 Y221.588 F650
G0 Z5.000
G0 X129.588 Y221.588
G0 Z0.500
G1 Z-1.000 F180
G1 X129.588 Y221.588 F650
G1 Z-2.000 F180
G1 X129.588 Y221.588 F650
G1 Z-3.000 F180
G1 X129.588 Y221.588 F650
G1 Z-4.000 F180
G1 X129.588 Y221.588 F650
G1 Z-5.000 F180
G1 X129.588 Y221.588 F650
G1 Z-6.000 F180
G1 X129.588 Y221.588 F650
G1 Z-6.350 F180
G1 X129.588 Y221.588 F650
G0 Z5.000
G0 X118.921 Y221.588
G0 Z0.500
G1 Z-1.000 F180
G1 X118.921 Y221.588 F650
G1 Z-2.000 F180
G1 X118.921 Y221.588 F650
G1 Z-3.000 F180
G1 X118.921 Y221.588 F650
G1 Z-4.000 F180
G1 X118.921 Y221.588 F650
G1 Z-5.000 F180
G1 X118.921 Y221.588 F650
G1 Z-6.000 F180
G1 X118.921 Y221.588 F650
G1 Z-6.350 F180
G1 X118.921 Y221.588 F650
G0 Z5.000
G0 X108.254 Y221.588
G0 Z0.500
G1 Z-1.000 F180
G1 X108.254 Y221.588 F650
G1 Z-2.000 F180
G1 X108.254 Y221.588 F650
G1 Z-3.000 F180
G1 X108.254 Y221.588 F650
G1 Z-4.000 F180
G1 X108.254 Y221.588 F650
G1 Z-5.000 F180
G1 X108.254 Y221.588 F650
G1 Z-6.000 F180
G1 X108.254 Y221.588 F650
G1 Z-6.350 F180
G1 X108.254 Y221.588 F650
G0 Z5.000
G0 X97.588 Y221.588
G0 Z0.500
G1 Z-1.000 F180
G1 X97.588 Y221.588 F650
G1 Z-2.000 F180
G1 X97.588 Y221.588 F650
G1 Z-3.000 F180
G1 X97.588 Y221.588 F650
G1 Z-4.000 F180
G1 X97.588 Y221.588 F650
G1 Z-5.000 F180
G1 X97.588 Y221.588 F650
G1 Z-6.000 F180
G1 X97.588 Y221.588 F650
G1 Z-6.350 F180
G1 X97.588 Y221.588 F650
G0 Z5.000
G0 X86.921 Y221.588
G0 Z0.500
G1 Z-1.000 F180
G1 X86.921 Y221.588 F650
G1 Z-2.000 F180
G1 X86.921 Y221.588 F650
G1 Z-3.000 F180
G1 X86.921 Y221.588 F650
G1 Z-4.000 F180
G1 X86.921 Y221.588 F650
G1 Z-5.000 F180
G1 X86.921 Y221.588 F650
G1 Z-6.000 F180
G1 X86.921 Y221.588 F650
G1 Z-6.350 F180
G1 X86.921 Y221.588 F650
G0 Z5.000
G0 X76.254 Y221.588
G0 Z0.500
G1 Z-1.000 F180
G1 X76.254 Y221.588 F650
G1 Z-2.000 F180
G1 X76.254 Y221.588 F650
G1 Z-3.000 F180
G1 X76.254 Y221.588 F650
G1 Z-4.000 F180
G1 X76.254 Y221.588 F650
G1 Z-5.000 F180
G1 X76.254 Y221.588 F650
G1 Z-6.000 F180
G1 X76.254 Y221.588 F650
G1 Z-6.350 F180
G1 X76.254 Y221.588 F650
G0 Z5.000
G0 X65.588 Y221.588
G0 Z0.500
G1 Z-1.000 F180
G1 X65.588 Y221.588 F650
G1 Z-2.000 F180
G1 X65.588 Y221.588 F650
G1 Z-3.000 F180
G1 X65.588 Y221.588 F650
G1 Z-4.000 F180
G1 X65.588 Y221.588 F650
G1 Z-5.000 F180
G1 X65.588 Y221.588 F650
G1 Z-6.000 F180
G1 X65.588 Y221.588 F650
G1 Z-6.350 F180
G1 X65.588 Y221.588 F650
G0 Z5.000
G0 X54.921 Y221.588
G0 Z0.500
G1 Z-1.000 F180
G1 X54.921 Y221.588 F650
G1 Z-2.000 F180
G1 X54.921 Y221.588 F650
G1 Z-3.000 F180
G1 X54.921 Y221.588 F650
G1 Z-4.000 F180
G1 X54.921 Y221.588 F650
G1 Z-5.000 F180
G1 X54.921 Y221.588 F650
G1 Z-6.000 F180
G1 X54.921 Y221.588 F650
G1 Z-6.350 F180
G1 X54.921 Y221.588 F650
G0 Z5.000
G0 X44.254 Y221.588
G0 Z0.500
G1 Z-1.000 F180
G1 X44.254 Y221.588 F650
G1 Z-2.000 F180
G1 X44.254 Y221.588 F650
G1 Z-3.000 F180
G1 X44.254 Y221.588 F650
G1 Z-4.000 F180
G1 X44.254 Y221.588 F650
G1 Z-5.000 F180
G1 X44.254 Y221.588 F650
G1 Z-6.000 F180
G1 X44.254 Y221.588 F650
G1 Z-6.350 F180
G1 X44.254 Y221.588 F650
G0 Z5.000
G0 X33.587 Y221.588
G0 Z0.500
G1 Z-1.000 F180
G1 X33.587 Y221.588 F650
G1 Z-2.000 F180
G1 X33.587 Y221.588 F650
G1 Z-3.000 F180
G1 X33.587 Y221.588 F650
G1 Z-4.000 F180
G1 X33.587 Y221.588 F650
G1 Z-5.000 F180
G1 X33.587 Y221.588 F650
G1 Z-6.000 F180
G1 X33.587 Y221.588 F650
G1 Z-6.350 F180
G1 X33.587 Y221.588 F650
G0 Z5.000
G0 X22.921 Y221.588
G0 Z0.500
G1 Z-1.000 F180
G1 X22.921 Y221.588 F650
G1 Z-2.000 F180
G1 X22.921 Y221.588 F650
G1 Z-3.000 F180
G1 X22.921 Y221.588 F650
G1 Z-4.000 F180
G1 X22.921 Y221.588 F650
G1 Z-5.000 F180
G1 X22.921 Y221.588 F650
G1 Z-6.000 F180
G1 X22.921 Y221.588 F650
G1 Z-6.350 F180
G1 X22.921 Y221.588 F650
G0 Z5.000
G0 X12.254 Y221.588
G0 Z0.500
G1 Z-1.000 F180
G1 X12.254 Y221.588 F650
G1 Z-2.000 F180
G1 X12.254 Y221.588 F650
G1 Z-3.000 F180
G1 X12.254 Y221.588 F650
G1 Z-4.000 F180
G1 X12.254 Y221.588 F650
G1 Z-5.000 F180
G1 X12.254 Y221.588 F650
G1 Z-6.000 F180
G1 X12.254 Y221.588 F650
G1 Z-6.350 F180
G1 X12.254 Y221.588 F650
G0 Z5.000
G0 X7.588 Y216.476
G0 Z0.500
G1 Z-1.000 F180
G1 X7.588 Y216.476 F650
G1 Z-2.000 F180
G1 X7.588 Y216.476 F650
G1 Z-3.000 F180
G1 X7.588 Y216.476 F650
G1 Z-4.000 F180
G1 X7.588 Y216.476 F650
G1 Z-5.000 F180
G1 X7.588 Y216.476 F650
G1 Z-6.000 F180
G1 X7.588 Y216.476 F650
G1 Z-6.350 F180
G1 X7.588 Y216.476 F650
G0 Z5.000
G0 X7.588 Y205.365
G0 Z0.500
G1 Z-1.000 F180
G1 X7.588 Y205.365 F650
G1 Z-2.000 F180
G1 X7.588 Y205.365 F650
G1 Z-3.000 F180
G1 X7.588 Y205.365 F650
G1 Z-4.000 F180
G1 X7.588 Y205.365 F650
G1 Z-5.000 F180
G1 X7.588 Y205.365 F650
G1 Z-6.000 F180
G1 X7.588 Y205.365 F650
G1 Z-6.350 F180
G1 X7.588 Y205.365 F650
G0 Z5.000
G0 X7.588 Y194.254
G0 Z0.500
G1 Z-1.000 F180
G1 X7.588 Y194.254 F650
G1 Z-2.000 F180
G1 X7.588 Y194.254 F650
G1 Z-3.000 F180
G1 X7.588 Y194.254 F650
G1 Z-4.000 F180
G1 X7.588 Y194.254 F650
G1 Z-5.000 F180
G1 X7.588 Y194.254 F650
G1 Z-6.000 F180
G1 X7.588 Y194.254 F650
G1 Z-6.350 F180
G1 X7.588 Y194.254 F650
G0 Z5.000
G0 X7.588 Y183.143
G0 Z0.500
G1 Z-1.000 F180
G1 X7.588 Y183.143 F650
G1 Z-2.000 F180
G1 X7.588 Y183.143 F650
G1 Z-3.000 F180
G1 X7.588 Y183.143 F650
G1 Z-4.000 F180
G1 X7.588 Y183.143 F650
G1 Z-5.000 F180
G1 X7.588 Y183.143 F650
G1 Z-6.000 F180
G1 X7.588 Y183.143 F650
G1 Z-6.350 F180
G1 X7.588 Y183.143 F650
G0 Z5.000
G0 X7.588 Y172.032
G0 Z0.500
G1 Z-1.000 F180
G1 X7.588 Y172.032 F650
G1 Z-2.000 F180
G1 X7.588 Y172.032 F650
G1 Z-3.000 F180
G1 X7.588 Y172.032 F650
G1 Z-4.000 F180
G1 X7.588 Y172.032 F650
G1 Z-5.000 F180
G1 X7.588 Y172.032 F650
G1 Z-6.000 F180
G1 X7.588 Y172.032 F650
G1 Z-6.350 F180
G1 X7.588 Y172.032 F650
G0 Z5.000
G0 X7.588 Y160.921
G0 Z0.500
G1 Z-1.000 F180
G1 X7.588 Y160.921 F650
G1 Z-2.000 F180
G1 X7.588 Y160.921 F650
G1 Z-3.000 F180
G1 X7.588 Y160.921 F650
G1 Z-4.000 F180
G1 X7.588 Y160.921 F650
G1 Z-5.000 F180
G1 X7.588 Y160.921 F650
G1 Z-6.000 F180
G1 X7.588 Y160.921 F650
G1 Z-6.350 F180
G1 X7.588 Y160.921 F650
G0 Z5.000
G0 X7.588 Y149.810
G0 Z0.500
G1 Z-1.000 F180
G1 X7.588 Y149.810 F650
G1 Z-2.000 F180
G1 X7.588 Y149.810 F650
G1 Z-3.000 F180
G1 X7.588 Y149.810 F650
G1 Z-4.000 F180
G1 X7.588 Y149.810 F650
G1 Z-5.000 F180
G1 X7.588 Y149.810 F650
G1 Z-6.000 F180
G1 X7.588 Y149.810 F650
G1 Z-6.350 F180
G1 X7.588 Y149.810 F650
G0 Z5.000
G0 X7.588 Y138.699
G0 Z0.500
G1 Z-1.000 F180
G1 X7.588 Y138.699 F650
G1 Z-2.000 F180
G1 X7.588 Y138.699 F650
G1 Z-3.000 F180
G1 X7.588 Y138.699 F650
G1 Z-4.000 F180
G1 X7.588 Y138.699 F650
G1 Z-5.000 F180
G1 X7.588 Y138.699 F650
G1 Z-6.000 F180
G1 X7.588 Y138.699 F650
G1 Z-6.350 F180
G1 X7.588 Y138.699 F650
G0 Z5.000
(profile cut with 3.175 mm cutter)
(front panel)
G0 X1.587 Y1.587
G0 Z0.500
G1 Z-1.000 F180
G1 F650
G1 X4.921 Y1.587
G1 X8.921 Y1.587
G1 X12.254 Y1.587
G1 X12.254 Y7.588
G1 X22.921 Y7.588
G1 X22.921 Y1.587
G1 X26.254 Y1.587
G1 X30.254 Y1.587
G1 X33.587 Y1.587
G1 X33.587 Y7.588
G1 X44.254 Y7.588
G1 X44.254 Y1.587
G1 X47.587 Y1.587
G1 X51.587 Y1.587
G1 X54.921 Y1.587
G1 X54.921 Y7.588
G1 X65.588 Y7.588
G1 X65.588 Y1.587
G1 X68.921 Y1.587
G1 X72.921 Y1.587
G1 X76.254 Y1.587
G1 X76.254 Y7.588
G1 X86.921 Y7.588
G1 X86.921 Y1.587
G1 X90.254 Y1.587
G1 X94.254 Y1.587
G1 X97.588 Y1.587
G1 X97.588 Y7.588
G1 X108.254 Y7.588
G1 X108.254 Y1.587
G1 X111.587 Y1.587
G1 X115.588 Y1.587
G1 X118.921 Y1.587
G1 X118.921 Y7.588
G1 X129.588 Y7.588
G1 X129.588 Y1.587
G1 X132.921 Y1.587
G1 X136.921 Y1.587
G1 X140.254 Y1.587
G1 X140.254 Y7.588
G1 X150.921 Y7.588
G1 X150.921 Y1.587
G1 X154.254 Y1.587
G1 X158.254 Y1.587
G1 X161.588 Y1.587
G1 X167.588 Y1.587
G1 X167.588 Y4.588
G1 X167.588 Y8.588
G1 X167.588 Y11.588
G1 X161.588 Y11.588
G1 X161.588 Y21.587
G1 X167.588 Y21.587
G1 X167.588 Y24.587
G1 X167.588 Y28.587
G1 X167.588 Y31.587
G1 X161.588 Y31.587
G1 X161.588 Y41.587
G1 X167.588 Y41.587
G1 X167.588 Y44.587
G1 X167.588 Y48.587
G1 X167.588 Y51.587
G1 X161.588 Y51.587
G1 X161.588 Y61.587
G1 X167.588 Y61.587
G1 X167.588 Y64.588
G1 X167.588 Y68.588
G1 X167.588 Y71.588
G1 X161.588 Y71.588
G1 X161.588 Y77.588
G1 X158.254 Y77.588
G1 X154.254 Y77.588
G1 X150.921 Y77.588
G1 X150.921 Y71.588
G1 X140.254 Y71.588
G1 X140.254 Y77.588
G1 X136.921 Y77.588
G1 X132.921 Y77.588
G1 X129.588 Y77.588
G1 X129.588 Y71.588
G1 X118.921 Y71.588
G1 X118.921 Y77.588
G1 X115.588 Y77.588
G1 X111.588 Y77.588
G1 X108.254 Y77.588
G1 X108.254 Y71.588
G1 X97.588 Y71.588
G1 X97.588 Y77.588
G1 X94.254 Y77.588
G1 X90.254 Y77.588
G1 X86.921 Y77.588
G1 X86.921 Y71.588
G1 X76.254 Y71.588
G1 X76.254 Y77.588
G1 X72.921 Y77.588
G1 X68.921 Y77.588
G1 X65.588 Y77.588
G1 X65.588 Y71.588
G1 X54.921 Y71.588
G1 X54.921 Y77.588
G1 X51.588 Y77.588
G1 X47.588 Y77.588
G1 X44.254 Y77.588
G1 X44.254 Y71.588
G1 X33.587 Y71.588
G1 X33.587 Y77.588
G1 X30.254 Y77.588
G1 X26.254 Y77.588
G1 X22.921 Y77.588
G1 X22.921 Y71.588
G1 X12.254 Y71.588
G1 X12.254 Y77.588
G1 X8.921 Y77.588
G1 X4.921 Y77.588
G1 X1.587 Y77.588
G1 X1.587 Y71.588
G1 X1.587 Y68.588
G1 X1.587 Y64.588
G1 X1.587 Y61.587
G1 X7.588 Y61.587
G1 X7.588 Y51.587
G1 X1.587 Y51.587
G1 X1.587 Y48.587
G1 X1.587 Y44.587
G1 X1.587 Y41.587
G1 X7.588 Y41.587
G1 X7.588 Y31.587
G1 X1.587 Y31.587
G1 X1.587 Y28.587
G1 X1.587 Y24.587
G1 X1.587 Y21.587
G1 X7.588 Y21.587
G1 X7.588 Y11.588
G1 X1.587 Y11.588
G1 X1.587 Y8.588
G1 X1.587 Y4.588
G1 X1.587 Y1.587
G0 Z5.000
G0 X1.587 Y1.587
G0 Z0.500
G1 Z-2.000 F180
G1 F650
G1 X4.921 Y1.587
G1 Z-1.500 F180
G1 X8.921 Y1.587
G1 Z-2.000 F180
G1 X12.254 Y1.587
G1 X12.254 Y7.588
G1 X22.921 Y7.588
G1 X22.921 Y1.587
G1 X26.254 Y1.587
G1 Z-1.500 F180
G1 X30.254 Y1.587
G1 Z-2.000 F180
G1 X33.587 Y1.587
G1 X33.587 Y7.588
G1 X44.254 Y7.588
G1 X44.254 Y1.587
G1 X47.587 Y1.587
G1 Z-1.500 F180
G1 X51.587 Y1.587
G1 Z-2.000 F180
G1 X54.921 Y1.587
G1 X54.921 Y7.588
G1 X65.588 Y7.588
G1 X65.588 Y1.587
G1 X68.921 Y1.587
G1 Z-1.500 F180
G1 X72.921 Y1.587
G1 Z-2.000 F180
G1 X76.254 Y1.587
G1 X76.254 Y7.588
G1 X86.921 Y7.588
G1 X86.921 Y1.587
G1 X90.254 Y1.587
G1 Z-1.500 F180
G1 X94.254 Y1.587
G1 Z-2.000 F180
G1 X97.588 Y1.587
G1 X97.588 Y7.588
G1 X108.254 Y7.588
G1 X108.254 Y1.587
G1 X111.587 Y1.587
G1 Z-1.500 F180
G1 X115.588 Y1.587
G1 Z-2.000 F180
G1 X118.921 Y1.587
G1 X118.921 Y7.588
G1 X129.588 Y7.588
G1 X129.588 Y1.587
G1 X132.921 Y1.587
G1 Z-1.500 F180
G1 X136.921 Y1.587
G1 Z-2.000 F180
G1 X140.254 Y1.587
G1 X140.254 Y7.588
G1 X150.921 Y7.588
G1 X150.921 Y1.587
G1 X154.254 Y1.587
G1 Z-1.500 F180
G1 X158.254 Y1.587
G1 Z-2.000 F180
G1 X161.588 Y1.587
G1 X167.588 Y1.587
G1 X167.588 Y4.588
G1 Z-1.500 F180
G1 X167.588 Y8.588
G1 Z-2.000 F180
G1 X167.588 Y11.588
G1 X161.588 Y11.588
G1 X161.588 Y21.587
G1 X167.588 Y21.587
G1 X167.588 Y24.587
G1 Z-1.500 F180
G1 X167.588 Y28.587
G1 Z-2.000 F180
G1 X167.588 Y31.587
G1 X161.588 Y31.587
G1 X161.588 Y41.587
G1 X167.588 Y41.587
G1 X167.588 Y44.587
G1 Z-1.500 F180
G1 X167.588 Y48.587
G1 Z-2.000 F180
G1 X167.588 Y51.587
G1 X161.588 Y51.587
G1 X161.588 Y61.587
G1 X167.588 Y61.587
G1 X167.588 Y64.588
G1 Z-1.500 F180
G1 X167.588 Y68.588
G1 Z-2.000 F180
G1 X167.588 Y71.588
G1 X161.588 Y71.588
G1 X161.588 Y77.588
G1 X158.254 Y77.588
G1 Z-1.500 F180
G1 X154.254 Y77.588
G1 Z-2.000 F180
G1 X150.921 Y77.588
G1 X150.921 Y71.588
G1 X140.254 Y71.588
G1 X140.254 Y77.588
G1 X136.921 Y77.588
G1 Z-1.500 F180
G1 X132.921 Y77.588
G1 Z-2.000 F180
G1 X129.588 Y77.588
G1 X129.588 Y71.588
G1 X118.921 Y71.588
G1 X118.921 Y77.588
G1 X115.588 Y77.588
G1 Z-1.500 F180
G1 X111.588 Y77.588
G1 Z-2.000 F180
G1 X108.254 Y77.588
G1 X108.254 Y71.588
G1 X97.588 Y71.588
G1 X97.588 Y77.588
G1 X94.254 Y77.588
G1 Z-1.500 F180
G1 X90.254 Y77.588
G1 Z-2.000 F180
G1 X86.921 Y77.588
G1 X86.921 Y71.588
G1 X76.254 Y71.588
G1 X76.254 Y77.588
G1 X72.921 Y77.588
G1 Z-1.500 F180
G1 X68.921 Y77.588
G1 Z-2.000 F180
G1 X65.588 Y77.588
G1 X65.588 Y71.588
G1 X54.921 Y71.588
G1 X54.921 Y77.588
G1 X51.588 Y77.588
G1 Z-1.500 F180
G1 X47.588 Y77.588
G1 Z-2.000 F180
G1 X44.254 Y77.588
G1 X44.254 Y71.588
G1 X33.587 Y71.588
G1 X33.587 Y77.588
G1 X30.254 Y77.588
G1 Z-1.500 F180
G1 X26.254 Y77.588
G1 Z-2.000 F180
G1 X22.921 Y77.588
G1 X22.921 Y71.588
G1 X12.254 Y71.588
G1 X12.254 Y77.588
G1 X8.921 Y77.588
G1 Z-1.500 F180
G1 X4.921 Y77.588
G1 Z-2.000 F180
G1 X1.587 Y77.588
G1 X1.587 Y71.588
G1 X1.587 Y68.588
G1 Z-1.500 F180
G1 X1.587 Y64.588
G1 Z-2.000 F180
G1 X1.587 Y61.587
G1 X7.588 Y61.587
G1 X7.588 Y51.587
G1 X1.587 Y51.587
G1 X1.587 Y48.587
G1 Z-1.500 F180
G1 X1.587 Y44.587
G1 Z-2.000 F180
G1 X1.587 Y41.587
G1 X7.588 Y41.587
G1 X7.588 Y31.587
G1 X1.587 Y31.587
G1 X1.587 Y28.587
G1 Z-1.500 F180
G1 X1.587 Y24.587
G1 Z-2.000 F180
G1 X1.587 Y21.587
G1 X7.588 Y21.587
G1 X7.588 Y11.588
G1 X1.587 Y11.588
G1 X1.587 Y8.588
G1 Z-1.500 F180
G1 X1.587 Y4.588
G1 Z-2.000 F180
G1 X1.587 Y1.587
G0 Z5.000
G0 X1.587 Y1.587
G0 Z0.500
G1 Z-3.000 F180
G1 F650
G1 X4.921 Y1.587
G1 Z-1.500 F180
G1 X8.921 Y1.587
G1 Z-3.000 F180
G1 X12.254 Y1.587
G1 X12.254 Y7.588
G1 X22.921 Y7.588
G1 X22.921 Y1.587
G1 X26.254 Y1.587
G1 Z-1.500 F180
G1 X30.254 Y1.587
G1 Z-3.000 F180
G1 X33.587 Y1.587
G1 X33.587 Y7.588
G1 X44.254 Y7.588
G1 X44.254 Y1.587
G1 X47.587 Y1.587
G1 Z-1.500 F180
G1 X51.587 Y1.587
G1 Z-3.000 F180
G1 X54.921 Y1.587
G1 X54.921 Y7.588
G1 X65.588 Y7.588
G1 X65.588 Y1.587
G1 X68.921 Y1.587
G1 Z-1.500 F180
G1 X72.921 Y1.587
G1 Z-3.000 F180
G1 X76.254 Y1.587
G1 X76.254 Y7.588
G1 X86.921 Y7.588
G1 X86.921 Y1.587
G1 X90.254 Y1.587
G1 Z-1.500 F180
G1 X94.254 Y1.587
G1 Z-3.000 F180
G1 X97.588 Y1.587
G1 X97.588 Y7.588
G1 X108.254 Y7.588
G1 X108.254 Y1.587
G1 X111.587 Y1.587
G1 Z-1.500 F180
G1 X115.588 Y1.587
G1 Z-3.000 F180
G1 X118.921 Y1.587
G1 X118.921 Y7.588
G1 X129.588 Y7.588
G1 X129.588 Y1.587
G1 X132.921 Y1.587
G1 Z-1.500 F180
G1 X136.921 Y1.587
G1 Z-3.000 F180
G1 X140.254 Y1.587
G1 X140.254 Y7.588
G1 X150.921 Y7.588
G1 X150.921 Y1.587
G1 X154.254 Y1.587
G1 Z-1.500 F180
G1 X158.254 Y1.587
G1 Z-3.000 F180
G1 X161.588 Y1.587
G1 X167.588 Y1.587
G1 X167.588 Y4.588
G1 Z-1.500 F180
G1 X167.588 Y8.588
G1 Z-3.000 F180
G1 X167.588 Y11.588
G1 X161.588 Y11.588
G1 X161.588 Y21.587
G1 X167.588 Y21.587
G1 X167.588 Y24.587
G1 Z-1.500 F180
G1 X167.588 Y28.587
G1 Z-3.000 F180
G1 X167.588 Y31.587
G1 X161.588 Y31.587
G1 X161.588 Y41.587
G1 X167.588 Y41.587
G1 X167.588 Y44.587
G1 Z-1.500 F180
G1 X167.588 Y48.587
G1 Z-3.000 F180
G1 X167.588 Y51.587
G1 X161.588 Y51.587
G1 X161.588 Y61.587
G1 X167.588 Y61.587
G1 X167.588 Y64.588
G1 Z-1.500 F180
G1 X167.588 Y68.588
G1 Z-3.000 F180
G1 X167.588 Y71.588
G1 X161.588 Y71.588
G1 X161.588 Y77.588
G1 X158.254 Y77.588
G1 Z-1.500 F180
G1 X154.254 Y77.588
G1 Z-3.000 F180
G1 X150.921 Y77.588
G1 X150.921 Y71.588
G1 X140.254 Y71.588
G1 X140.254 Y77.588
G1 X136.921 Y77.588
G1 Z-1.500 F180
G1 X132.921 Y77.588
G1 Z-3.000 F180
G1 X129.588 Y77.588
G1 X129.588 Y71.588
G1 X118.921 Y71.588
G1 X118.921 Y77.588
G1 X115.588 Y77.588
G1 Z-1.500 F180
G1 X111.588 Y77.588
G1 Z-3.000 F180
G1 X108.254 Y77.588
G1 X108.254 Y71.588
G1 X97.588 Y71.588
G1 X97.588 Y77.588
G1 X94.254 Y77.588
G1 Z-1.500 F180
G1 X90.254 Y77.588
G1 Z-3.000 F180
G1 X86.921 Y77.588
G1 X86.921 Y71.588
G1 X76.254 Y71.588
G1 X76.254 Y77.588
G1 X72.921 Y77.588
G1 Z-1.500 F180
G1 X68.921 Y77.588
G1 Z-3.000 F180
G1 X65.588 Y77.588
G1 X65.588 Y71.588
G1 X54.921 Y71.588
G1 X54.921 Y77.588
G1 X51.588 Y77.588
G1 Z-1.500 F180
G1 X47.588 Y77.588
G1 Z-3.000 F180
G1 X44.254 Y77.588
G1 X44.254 Y71.588
G1 X33.587 Y71.588
G1 X33.587 Y77.588
G1 X30.254 Y77.588
G1 Z-1.500 F180
G1 X26.254 Y77.588
G1 Z-3.000 F180
G1 X22.921 Y77.588
G1 X22.921 Y71.588
G1 X12.254 Y71.588
G1 X12.254 Y77.588
G1 X8.921 Y77.588
G1 Z-1.500 F180
G1 X4.921 Y77.588
G1 Z-3.000 F180
G1 X1.587 Y77.588
G1 X1.587 Y71.588
G1 X1.587 Y68.588
G1 Z-1.500 F180
G1 X1.587 Y64.588
G1 Z-3.000 F180
G1 X1.587 Y61.587
G1 X7.588 Y61.587
G1 X7.588 Y51.587
G1 X1.587 Y51.587
G1 X1.587 Y48.587
G1 Z-1.500 F180
G1 X1.587 Y44.587
G1 Z-3.000 F180
G1 X1.587 Y41.587
G1 X7.588 Y41.587
G1 X7.588 Y31.587
G1 X1.587 Y31.587
G1 X1.587 Y28.587
G1 Z-1.500 F180
G1 X1.587 Y24.587
G1 Z-3.000 F180
G1 X1.587 Y21.587
G1 X7.588 Y21.587
G1 X7.588 Y11.588
G1 X1.587 Y11.588
G1 X1.587 Y8.588
G1 Z-1.500 F180
G1 X1.587 Y4.588
G1 Z-3.000 F180
G1 X1.587 Y1.587
G0 Z5.000
G0 X1.587 Y1.587
G0 Z0.500
G1 Z-4.000 F180
G1 F650
G1 X4.921 Y1.587
G1 Z-1.500 F180
G1 X8.921 Y1.587
G1 Z-4.000 F180
G1 X12.254 Y1.587
G1 X12.254 Y7.588
G1 X22.921 Y7.588
G1 X22.921 Y1.587
G1 X26.254 Y1.587
G1 Z-1.500 F180
G1 X30.254 Y1.587
G1 Z-4.000 F180
G1 X33.587 Y1.587
G1 X33.587 Y7.588
G1 X44.254 Y7.588
G1 X44.254 Y1.587
G1 X47.587 Y1.587
G1 Z-1.500 F180
G1 X51.587 Y1.587
G1 Z-4.000 F180
G1 X54.921 Y1.587
G1 X54.921 Y7.588
G1 X65.588 Y7.588
G1 X65.588 Y1.587
G1 X68.921 Y1.587
G1 Z-1.500 F180
G1 X72.921 Y1.587
G1 Z-4.000 F180
G1 X76.254 Y1.587
G1 X76.254 Y7.588
G1 X86.921 Y7.588
G1 X86.921 Y1.587
G1 X90.254 Y1.587
G1 Z-1.500 F180
G1 X94.254 Y1.587
G1 Z-4.000 F180
G1 X97.588 Y1.587
G1 X97.588 Y7.588
G1 X108.254 Y7.588
G1 X108.254 Y1.587
G1 X111.587 Y1.587
G1 Z-1.500 F180
G1 X115.588 Y1.587
G1 Z-4.000 F180
G1 X118.921 Y1.587
G1 X118.921 Y7.588
G1 X129.588 Y7.588
G1 X129.588 Y1.587
G1 X132.921 Y1.587
G1 Z-1.500 F180
G1 X136.921 Y1.587
G1 Z-4.000 F180
G1 X140.254 Y1.587
G1 X140.254 Y7.588
G1 X150.921 Y7.588
G1 X150.921 Y1.587
G1 X154.254 Y1.587
G1 Z-1.500 F180
G1 X158.254 Y1.587
G1 Z-4.000 F180
G1 X161.588 Y1.587
G1 X167.588 Y1.587
G1 X167.588 Y4.588
G1 Z-1.500 F180
G1 X167.588 Y8.588
G1 Z-4.000 F180
G1 X167.588 Y11.588
G1 X161.588 Y11.588
G1 X161.588 Y21.587
G1 X167.588 Y21.587
G1 X167.588 Y24.587
G1 Z-1.500 F180
G1 X167.588 Y28.587
G1 Z-4.000 F180
G1 X167.588 Y31.587
G1 X161.588 Y31.587
G1 X161.588 Y41.587
G1 X167.588 Y41.587
G1 X167.588 Y44.587
G1 Z-1.500 F180
G1 X167.588 Y48.587
G1 Z-4.000 F180
G1 X167.588 Y51.587
G1 X161.588 Y51.587
G1 X161.588 Y61.587
G1 X167.588 Y61.587
G1 X167.588 Y64.588
G1 Z-1.500 F180
G1 X167.588 Y68.588
G1 Z-4.000 F180
G1 X167.588 Y71.588
G1 X161.588 Y71.588
G1 X161.588 Y77.588
G1 X158.254 Y77.588
G1 Z-1.500 F180
G1 X154.254 Y77.588
G1 Z-4.000 F180
G1 X150.921 Y77.588
G1 X150.921 Y71.588
G1 X140.254 Y71.588
G1 X140.254 Y77.588
G1 X136.921 Y77.588
G1 Z-1.500 F180
G1 X132.921 Y77.588
G1 Z-4.000 F180
G1 X129.588 Y77.588
G1 X129.588 Y71.588
G1 X118.921 Y71.588
G1 X118.921 Y77.588
G1 X115.588 Y77.588
G1 Z-1.500 F180
G1 X111.588 Y77.588
G1 Z-4.000 F180
G1 X108.254 Y77.588
G1 X108.254 Y71.588
G1 X97.588 Y71.588
G1 X97.588 Y77.588
G1 X94.254 Y77.588
G1 Z-1.500 F180
G1 X90.254 Y77.588
G1 Z-4.000 F180
G1 X86.921 Y77.588
G1 X86.921 Y71.588
G1 X76.254 Y71.588
G1 X76.254 Y77.588
G1 X72.921 Y77.588
G1 Z-1.500 F180
G1 X68.921 Y77.588
G1 Z-4.000 F180
G1 X65.588 Y77.588
G1 X65.588 Y71.588
G1 X54.921 Y71.588
G1 X54.921 Y77.588
G1 X51.588 Y77.588
G1 Z-1.500 F180
G1 X47.588 Y77.588
G1 Z-4.000 F180
G1 X44.254 Y77.588
G1 X44.254 Y71.588
G1 X33.587 Y71.588
G1 X33.587 Y77.588
G1 X30.254 Y77.588
G1 Z-1.500 F180
G1 X26.254 Y77.588
G1 Z-4.000 F180
G1 X22.921 Y77.588
G1 X22.921 Y71.588
G1 X12.254 Y71.588
G1 X12.254 Y77.588
G1 X8.921 Y77.588
G1 Z-1.500 F180
G1 X4.921 Y77.588
G1 Z-4.000 F180
G1 X1.587 Y77.588
G1 X1.587 Y71.588
G1 X1.587 Y68.588
G1 Z-1.500 F180
G1 X1.587 Y64.588
G1 Z-4.000 F180
G1 X1.587 Y61.587
G1 X7.588 Y61.587
G1 X7.588 Y51.587
G1 X1.587 Y51.587
G1 X1.587 Y48.587
G1 Z-1.500 F180
G1 X1.587 Y44.587
G1 Z-4.000 F180
G1 X1.587 Y41.587
G1 X7.588 Y41.587
G1 X7.588 Y31.587
G1 X1.587 Y31.587
G1 X1.587 Y28.587
G1 Z-1.500 F180
G1 X1.587 Y24.587
G1 Z-4.000 F180
G1 X1.587 Y21.587
G1 X7.588 Y21.587
G1 X7.588 Y11.588
G1 X1.587 Y11.588
G1 X1.587 Y8.588
G1 Z-1.500 F180
G1 X1.587 Y4.588
G1 Z-4.000 F180
G1 X1.587 Y1.587
G0 Z5.000
G0 X1.587 Y1.587
G0 Z0.500
G1 Z-5.000 F180
G1 F650
G1 X4.921 Y1.587
G1 Z-1.500 F180
G1 X8.921 Y1.587
G1 Z-5.000 F180
G1 X12.254 Y1.587
G1 X12.254 Y7.588
G1 X22.921 Y7.588
G1 X22.921 Y1.587
G1 X26.254 Y1.587
G1 Z-1.500 F180
G1 X30.254 Y1.587
G1 Z-5.000 F180
G1 X33.587 Y1.587
G1 X33.587 Y7.588
G1 X44.254 Y7.588
G1 X44.254 Y1.587
G1 X47.587 Y1.587
G1 Z-1.500 F180
G1 X51.587 Y1.587
G1 Z-5.000 F180
G1 X54.921 Y1.587
G1 X54.921 Y7.588
G1 X65.588 Y7.588
G1 X65.588 Y1.587
G1 X68.921 Y1.587
G1 Z-1.500 F180
G1 X72.921 Y1.587
G1 Z-5.000 F180
G1 X76.254 Y1.587
G1 X76.254 Y7.588
G1 X86.921 Y7.588
G1 X86.921 Y1.587
G1 X90.254 Y1.587
G1 Z-1.500 F180
G1 X94.254 Y1.587
G1 Z-5.000 F180
G1 X97.588 Y1.587
G1 X97.588 Y7.588
G1 X108.254 Y7.588
G1 X108.254 Y1.587
G1 X111.587 Y1.587
G1 Z-1.500 F180
G1 X115.588 Y1.587
G1 Z-5.000 F180
G1 X118.921 Y1.587
G1 X118.921 Y7.588
G1 X129.588 Y7.588
G1 X129.588 Y1.587
G1 X132.921 Y1.587
G1 Z-1.500 F180
G1 X136.921 Y1.587
G1 Z-5.000 F180
G1 X140.254 Y1.587
G1 X140.254 Y7.588
G1 X150.921 Y7.588
G1 X150.921 Y1.587
G1 X154.254 Y1.587
G1 Z-1.500 F180
G1 X158.254 Y1.587
G1 Z-5.000 F180
G1 X161.588 Y1.587
G1 X167.588 Y1.587
G1 X167.588 Y4.588
G1 Z-1.500 F180
G1 X167.588 Y8.588
G1 Z-5.000 F180
G1 X167.588 Y11.588
G1 X161.588 Y11.588
G1 X161.588 Y21.587
G1 X167.588 Y21.587
G1 X167.588 Y24.587
G1 Z-1.500 F180
G1 X167.588 Y28.587
G1 Z-5.000 F180
G1 X167.588 Y31.587
G1 X161.588 Y31.587
G1 X161.588 Y41.587
G1 X167.588 Y41.587
G1 X167.588 Y44.587
G1 Z-1.500 F180
G1 X167.588 Y48.587
G1 Z-5.000 F180
G1 X167.588 Y51.587
G1 X161.588 Y51.587
G1 X161.588 Y61.587
G1 X167.588 Y61.587
G1 X167.588 Y64.588
G1 Z-1.500 F180
G1 X167.588 Y68.588
G1 Z-5.000 F180
G1 X167.588 Y71.588
G1 X161.588 Y71.588
G1 X161.588 Y77.588
G1 X158.254 Y77.588
G1 Z-1.500 F180
G1 X154.254 Y77.588
G1 Z-5.000 F180
G1 X150.921 Y77.588
G1 X150.921 Y71.588
G1 X140.254 Y71.588
G1 X140.254 Y77.588
G1 X136.921 Y77.588
G1 Z-1.500 F180
G1 X132.921 Y77.588
G1 Z-5.000 F180
G1 X129.588 Y77.588
G1 X129.588 Y71.588
G1 X118.921 Y71.588
G1 X118.921 Y77.588
G1 X115.588 Y77.588
G1 Z-1.500 F180
G1 X111.588 Y77.588
G1 Z-5.000 F180
G1 X108.254 Y77.588
G1 X108.254 Y71.588
G1 X97.588 Y71.588
G1 X97.588 Y77.588
G1 X94.254 Y77.588
G1 Z-1.500 F180
G1 X90.254 Y77.588
G1 Z-5.000 F180
G1 X86.921 Y77.588
G1 X86.921 Y71.588
G1 X76.254 Y71.588
G1 X76.254 Y77.588
G1 X72.921 Y77.588
G1 Z-1.500 F180
G1 X68.921 Y77.588
G1 Z-5.000 F180
G1 X65.588 Y77.588
G1 X65.588 Y71.588
G1 X54.921 Y71.588
G1 X54.921 Y77.588
G1 X51.588 Y77.588
G1 Z-1.500 F180
G1 X47.588 Y77.588
G1 Z-5.000 F180
G1 X44.254 Y77.588
G1 X44.254 Y71.588
G1 X33.587 Y71.588
G1 X33.587 Y77.588
G1 X30.254 Y77.588
G1 Z-1.500 F180
G1 X26.254 Y77.588
G1 Z-5.000 F180
G1 X22.921 Y77.588
G1 X22.921 Y71.588
G1 X12.254 Y71.588
G1 X12.254 Y77.588
G1 X8.921 Y77.588
G1 Z-1.500 F180
G1 X4.921 Y77.588
G1 Z-5.000 F180
G1 X1.587 Y77.588
G1 X1.587 Y71.588
G1 X1.587 Y68.588
G1 Z-1.500 F180
G1 X1.587 Y64.588
G1 Z-5.000 F180
G1 X1.587 Y61.587
G1 X7.588 Y61.587
G1 X7.588 Y51.587
G1 X1.587 Y51.587
G1 X1.587 Y48.587
G1 Z-1.500 F180
G1 X1.587 Y44.587
G1 Z-5.000 F180
G1 X1.587 Y41.587
G1 X7.588 Y41.587
G1 X7.588 Y31.587
G1 X1.587 Y31.587
G1 X1.587 Y28.587
G1 Z-1.500 F180
G1 X1.587 Y24.587
G1 Z-5.000 F180
G1 X1.587 Y21.587
G1 X7.588 Y21.587
G1 X7.588 Y11.588
G1 X1.587 Y11.588
G1 X1.587 Y8.588
G1 Z-1.500 F180
G1 X1.587 Y4.588
G1 Z-5.000 F180
G1 X1.587 Y1.587
G0 Z5.000
G0 X1.587 Y1.587
G0 Z0.500
G1 Z-6.000 F180
G1 F650
G1 X4.921 Y1.587
G1 Z-1.500 F180
G1 X8.921 Y1.587
G1 Z-6.000 F180
G1 X12.254 Y1.587
G1 X12.254 Y7.588
G1 X22.921 Y7.588
G1 X22.921 Y1.587
G1 X26.254 Y1.587
G1 Z-1.500 F180
G1 X30.254 Y1.587
G1 Z-6.000 F180
G1 X33.587 Y1.587
G1 X33.587 Y7.588
G1 X44.254 Y7.588
G1 X44.254 Y1.587
G1 X47.587 Y1.587
G1 Z-1.500 F180
G1 X51.587 Y1.587
G1 Z-6.000 F180
G1 X54.921 Y1.587
G1 X54.921 Y7.588
G1 X65.588 Y7.588
G1 X65.588 Y1.587
G1 X68.921 Y1.587
G1 Z-1.500 F180
G1 X72.921 Y1.587
G1 Z-6.000 F180
G1 X76.254 Y1.587
G1 X76.254 Y7.588
G1 X86.921 Y7.588
G1 X86.921 Y1.587
G1 X90.254 Y1.587
G1 Z-1.500 F180
G1 X94.254 Y1.587
G1 Z-6.000 F180
G1 X97.588 Y1.587
G1 X97.588 Y7.588
G1 X108.254 Y7.588
G1 X108.254 Y1.587
G1 X111.587 Y1.587
G1 Z-1.500 F180
G1 X115.588 Y1.587
G1 Z-6.000 F180
G1 X118.921 Y1.587
G1 X118.921 Y7.588
G1 X129.588 Y7.588
G1 X129.588 Y1.587
G1 X132.921 Y1.587
G1 Z-1.500 F180
G1 X136.921 Y1.587
G1 Z-6.000 F180
G1 X140.254 Y1.587
G1 X140.254 Y7.588
G1 X150.921 Y7.588
G1 X150.921 Y1.587
G1 X154.254 Y1.587
G1 Z-1.500 F180
G1 X158.254 Y1.587
G1 Z-6.000 F180
G1 X161.588 Y1.587
G1 X167.588 Y1.587
G1 X167.588 Y4.588
G1 Z-1.500 F180
G1 X167.588 Y8.588
G1 Z-6.000 F180
G1 X167.588 Y11.588
G1 X161.588 Y11.588
G1 X161.588 Y21.587
G1 X167.588 Y21.587
G1 X167.588 Y24.587
G1 Z-1.500 F180
G1 X167.588 Y28.587
G1 Z-6.000 F180
G1 X167.588 Y31.587
G1 X161.588 Y31.587
G1 X161.588 Y41.587
G1 X167.588 Y41.587
G1 X167.588 Y44.587
G1 Z-1.500 F180
G1 X167.588 Y48.587
G1 Z-6.000 F180
G1 X167.588 Y51.587
G1 X161.588 Y51.587
G1 X161.588 Y61.587
G1 X167.588 Y61.587
G1 X167.588 Y64.588
G1 Z-1.500 F180
G1 X167.588 Y68.588
G1 Z-6.000 F180
G1 X167.588 Y71.588
G1 X161.588 Y71.588
G1 X161.588 Y77.588
G1 X158.254 Y77.588
G1 Z-1.500 F180
G1 X154.254 Y77.588
G1 Z-6.000 F180
G1 X150.921 Y77.588
G1 X150.921 Y71.588
G1 X140.254 Y71.588
G1 X140.254 Y77.588
G1 X136.921 Y77.588
G1 Z-1.500 F180
G1 X132.921 Y77.588
G1 Z-6.000 F180
G1 X129.588 Y77.588
G1 X129.588 Y71.588
G1 X118.921 Y71.588
G1 X118.921 Y77.588
G1 X115.588 Y77.588
G1 Z-1.500 F180
G1 X111.588 Y77.588
G1 Z-6.000 F180
G1 X108.254 Y77.588
G1 X108.254 Y71.588
G1 X97.588 Y71.588
G1 X97.588 Y77.588
G1 X94.254 Y77.588
G1 Z-1.500 F180
G1 X90.254 Y77.588
G1 Z-6.000 F180
G1 X86.921 Y77.588
G1 X86.921 Y71.588
G1 X76.254 Y71.588
G1 X76.254 Y77.588
G1 X72.921 Y77.588
G1 Z-1.500 F180
G1 X68.921 Y77.588
G1 Z-6.000 F180
G1 X65.588 Y77.588
G1 X65.588 Y71.588
G1 X54.921 Y71.588
G1 X54.921 Y77.588
G1 X51.588 Y77.588
G1 Z-1.500 F180
G1 X47.588 Y77.588
G1 Z-6.000 F180
G1 X44.254 Y77.588
G1 X44.254 Y71.588
G1 X33.587 Y71.588
G1 X33.587 Y77.588
G1 X30.254 Y77.588
G1 Z-1.500 F180
G1 X26.254 Y77.588
G1 Z-6.000 F180
G1 X22.921 Y77.588
G1 X22.921 Y71.588
G1 X12.254 Y71.588
G1 X12.254 Y77.588
G1 X8.921 Y77.588
G1 Z-1.500 F180
G1 X4.921 Y77.588
G1 Z-6.000 F180
G1 X1.587 Y77.588
G1 X1.587 Y71.588
G1 X1.587 Y68.588
G1 Z-1.500 F180
G1 X1.587 Y64.588
G1 Z-6.000 F180
G1 X1.587 Y61.587
G1 X7.588 Y61.587
G1 X7.588 Y51.587
G1 X1.587 Y51.587
G1 X1.587 Y48.587
G1 Z-1.500 F180
G1 X1.587 Y44.587
G1 Z-6.000 F180
G1 X1.587 Y41.587
G1 X7.588 Y41.587
G1 X7.588 Y31.587
G1 X1.587 Y31.587
G1 X1.587 Y28.587
G1 Z-1.500 F180
G1 X1.587 Y24.587
G1 Z-6.000 F180
G1 X1.587 Y21.587
G1 X7.588 Y21.587
G1 X7.588 Y11.588
G1 X1.587 Y11.588
G1 X1.587 Y8.588
G1 Z-1.500 F180
G1 X1.587 Y4.588
G1 Z-6.000 F180
G1 X1.587 Y1.587
G0 Z5.000
G0 X1.587 Y1.587
G0 Z0.500
G1 Z-6.350 F180
G1 F650
G1 X4.921 Y1.587
G1 Z-1.500 F180
G1 X8.921 Y1.587
G1 Z-6.350 F180
G1 X12.254 Y1.587
G1 X12.254 Y7.588
G1 X22.921 Y7.588
G1 X22.921 Y1.587
G1 X26.254 Y1.587
G1 Z-1.500 F180
G1 X30.254 Y1.587
G1 Z-6.350 F180
G1 X33.587 Y1.587
G1 X33.587 Y7.588
G1 X44.254 Y7.588
G1 X44.254 Y1.587
G1 X47.587 Y1.587
G1 Z-1.500 F180
G1 X51.587 Y1.587
G1 Z-6.350 F180
G1 X54.921 Y1.587
G1 X54.921 Y7.588
G1 X65.588 Y7.588
G1 X65.588 Y1.587
G1 X68.921 Y1.587
G1 Z-1.500 F180
G1 X72.921 Y1.587
G1 Z-6.350 F180
G1 X76.254 Y1.587
G1 X76.254 Y7.588
G1 X86.921 Y7.588
G1 X86.921 Y1.587
G1 X90.254 Y1.587
G1 Z-1.500 F180
G1 X94.254 Y1.587
G1 Z-6.350 F180
G1 X97.588 Y1.587
G1 X97.588 Y7.588
G1 X108.254 Y7.588
G1 X108.254 Y1.587
G1 X111.587 Y1.587
G1 Z-1.500 F180
G1 X115.588 Y1.587
G1 Z-6.350 F180
G1 X118.921 Y1.587
G1 X118.921 Y7.588
G1 X129.588 Y7.588
G1 X129.588 Y1.587
G1 X132.921 Y1.587
G1 Z-1.500 F180
G1 X136.921 Y1.587
G1 Z-6.350 F180
G1 X140.254 Y1.587
G1 X140.254 Y7.588
G1 X150.921 Y7.588
G1 X150.921 Y1.587
G1 X154.254 Y1.587
G1 Z-1.500 F180
G1 X158.254 Y1.587
G1 Z-6.350 F180
G1 X161.588 Y1.587
G1 X167.588 Y1.587
G1 X167.588 Y4.588
G1 Z-1.500 F180
G1 X167.588 Y8.588
G1 Z-6.350 F180
G1 X167.588 Y11.588
G1 X161.588 Y11.588
G1 X161.588 Y21.587
G1 X167.588 Y21.587
G1 X167.588 Y24.587
G1 Z-1.500 F180
G1 X167.588 Y28.587
G1 Z-6.350 F180
G1 X167.588 Y31.587
G1 X161.588 Y31.587
G1 X161.588 Y41.587
G1 X167.588 Y41.587
G1 X167.588 Y44.587
G1 Z-1.500 F180
G1 X167.588 Y48.587
G1 Z-6.350 F180
G1 X167.588 Y51.587
G1 X161.588 Y51.587
G1 X161.588 Y61.587
G1 X167.588 Y61.587
G1 X167.588 Y64.588
G1 Z-1.500 F180
G1 X167.588 Y68.588
G1 Z-6.350 F180
G1 X167.588 Y71.588
G1 X161.588 Y71.588
G1 X161.588 Y77.588
G1 X158.254 Y77.588
G1 Z-1.500 F180
G1 X154.254 Y77.588
G1 Z-6.350 F180
G1 X150.921 Y77.588
G1 X150.921 Y71.588
G1 X140.254 Y71.588
G1 X140.254 Y77.588
G1 X136.921 Y77.588
G1 Z-1.500 F180
G1 X132.921 Y77.588
G1 Z-6.350 F180
G1 X129.588 Y77.588
G1 X129.588 Y71.588
G1 X118.921 Y71.588
G1 X118.921 Y77.588
G1 X115.588 Y77.588
G1 Z-1.500 F180
G1 X111.588 Y77.588
G1 Z-6.350 F180
G1 X108.254 Y77.588
G1 X108.254 Y71.588
G1 X97.588 Y71.588
G1 X97.588 Y77.588
G1 X94.254 Y77.588
G1 Z-1.500 F180
G1 X90.254 Y77.588
G1 Z-6.350 F180
G1 X86.921 Y77.588
G1 X86.921 Y71.588
G1 X76.254 Y71.588
G1 X76.254 Y77.588
G1 X72.921 Y77.588
G1 Z-1.500 F180
G1 X68.921 Y77.588
G1 Z-6.350 F180
G1 X65.588 Y77.588
G1 X65.588 Y71.588
G1 X54.921 Y71.588
G1 X54.921 Y77.588
G1 X51.588 Y77.588
G1 Z-1.500 F180
G1 X47.588 Y77.588
G1 Z-6.350 F180
G1 X44.254 Y77.588
G1 X44.254 Y71.588
G1 X33.587 Y71.588
G1 X33.587 Y77.588
G1 X30.254 Y77.588
G1 Z-1.500 F180
G1 X26.254 Y77.588
G1 Z-6.350 F180
G1 X22.921 Y77.588
G1 X22.921 Y71.588
G1 X12.254 Y71.588
G1 X12.254 Y77.588
G1 X8.921 Y77.588
G1 Z-1.500 F180
G1 X4.921 Y77.588
G1 Z-6.350 F180
G1 X1.587 Y77.588
G1 X1.587 Y71.588
G1 X1.587 Y68.588
G1 Z-1.500 F180
G1 X1.587 Y64.588
G1 Z-6.350 F180
G1 X1.587 Y61.587
G1 X7.588 Y61.587
G1 X7.588 Y51.587
G1 X1.587 Y51.587
G1 X1.587 Y48.587
G1 Z-1.500 F180
G1 X1.587 Y44.587
G1 Z-6.350 F180
G1 X1.587 Y41.587
G1 X7.588 Y41.587
G1 X7.588 Y31.587
G1 X1.587 Y31.587
G1 X1.587 Y28.587
G1 Z-1.500 F180
G1 X1.587 Y24.587
G1 Z-6.350 F180
G1 X1.587 Y21.587
G1 X7.588 Y21.587
G1 X7.588 Y11.588
G1 X1.587 Y11.588
G1 X1.587 Y8.588
G1 Z-1.500 F180
G1 X1.587 Y4.588
G1 Z-6.350 F180
G1 X1.587 Y1.587
G0 Z5.000
(back panel)
G0 X181.588 Y1.587
G0 Z0.500
G1 Z-1.000 F180
G1 F650
G1 X184.921 Y1.587
G1 X188.921 Y1.587
G1 X192.254 Y1.587
G1 X192.254 Y7.588
G1 X202.921 Y7.588
G1 X202.921 Y1.587
G1 X206.254 Y1.587
G1 X210.254 Y1.587
G1 X213.588 Y1.587
G1 X213.588 Y7.588
G1 X224.254 Y7.588
G1 X224.254 Y1.587
G1 X227.588 Y1.587
G1 X231.588 Y1.587
G1 X234.921 Y1.587
G1 X234.921 Y7.588
G1 X245.588 Y7.588
G1 X245.588 Y1.587
G1 X248.921 Y1.587
G1 X252.921 Y1.587
G1 X256.254 Y1.587
G1 X256.254 Y7.588
G1 X266.921 Y7.588
G1 X266.921 Y1.587
G1 X270.254 Y1.587
G1 X274.254 Y1.587
G1 X277.587 Y1.587
G1 X277.587 Y7.588
G1 X288.254 Y7.588
G1 X288.254 Y1.587
G1 X291.587 Y1.587
G1 X295.587 Y1.587
G1 X298.921 Y1.587
G1 X298.921 Y7.588
G1 X309.587 Y7.588
G1 X309.587 Y1.587
G1 X312.921 Y1.587
G1 X316.921 Y1.587
G1 X320.254 Y1.587
G1 X320.254 Y7.588
G1 X330.921 Y7.588
G1 X330.921 Y1.587
G1 X334.254 Y1.587
G1 X338.254 Y1.587
G1 X341.587 Y1.587
G1 X347.587 Y1.587
G1 X347.587 Y4.588
G1 X347.587 Y8.588
G1 X347.587 Y11.588
G1 X341.587 Y11.588
G1 X341.587 Y21.587
G1 X347.587 Y21.587
G1 X347.587 Y24.587
G1 X347.587 Y28.587
G1 X347.587 Y31.587
G1 X341.587 Y31.587
G1 X341.587 Y41.587
G1 X347.587 Y41.587
G1 X347.587 Y44.587
G1 X347.587 Y48.587
G1 X347.587 Y51.587
G1 X341.587 Y51.587
G1 X341.587 Y61.587
