%
(finger-box generated by box-creator)
(GRBL compatible, millimetres, absolute positioning)
G21
G90
G94
G0 Z5.000
S18000 M3
(corner relief diameter 3.175 mm)
(relief holes for front)
G0 X10.667 Y6.000
G0 Z0.500
G1 Z-1.500 F180
G1 X10.667 Y6.000 F650
G1 Z-3.000 F180
G1 X10.667 Y6.000 F650
G1 Z-4.500 F180
G1 X10.667 Y6.000 F650
G1 Z-6.000 F180
G1 X10.667 Y6.000 F650
G1 Z-6.350 F180
G1 X10.667 Y6.000 F650
G0 Z5.000
G0 X21.333 Y6.000
G0 Z0.500
G1 Z-1.500 F180
G1 X21.333 Y6.000 F650
G1 Z-3.000 F180
G1 X21.333 Y6.000 F650
G1 Z-4.500 F180
G1 X21.333 Y6.000 F650
G1 Z-6.000 F180
G1 X21.333 Y6.000 F650
G1 Z-6.350 F180
G1 X21.333 Y6.000 F650
G0 Z5.000
G0 X32.000 Y6.000
G0 Z0.500
G1 Z-1.500 F180
G1 X32.000 Y6.000 F650
G1 Z-3.000 F180
G1 X32.000 Y6.000 F650
G1 Z-4.500 F180
G1 X32.000 Y6.000 F650
G1 Z-6.000 F180
G1 X32.000 Y6.000 F650
G1 Z-6.350 F180
G1 X32.000 Y6.000 F650
G0 Z5.000
G0 X42.667 Y6.000
G0 Z0.500
G1 Z-1.500 F180
G1 X42.667 Y6.000 F650
G1 Z-3.000 F180
G1 X42.667 Y6.000 F650
G1 Z-4.500 F180
G1 X42.667 Y6.000 F650
G1 Z-6.000 F180
G1 X42.667 Y6.000 F650
G1 Z-6.350 F180
G1 X42.667 Y6.000 F650
G0 Z5.000
G0 X53.333 Y6.000
G0 Z0.500
G1 Z-1.500 F180
G1 X53.333 Y6.000 F650
G1 Z-3.000 F180
G1 X53.333 Y6.000 F650
G1 Z-4.500 F180
G1 X53.333 Y6.000 F650
G1 Z-6.000 F180
G1 X53.333 Y6.000 F650
G1 Z-6.350 F180
G1 X53.333 Y6.000 F650
G0 Z5.000
G0 X64.000 Y6.000
G0 Z0.500
G1 Z-1.500 F180
G1 X64.000 Y6.000 F650
G1 Z-3.000 F180
G1 X64.000 Y6.000 F650
G1 Z-4.500 F180
G1 X64.000 Y6.000 F650
G1 Z-6.000 F180
G1 X64.000 Y6.000 F650
G1 Z-6.350 F180
G1 X64.000 Y6.000 F650
G0 Z5.000
G0 X74.667 Y6.000
G0 Z0.500
G1 Z-1.500 F180
G1 X74.667 Y6.000 F650
G1 Z-3.000 F180
G1 X74.667 Y6.000 F650
G1 Z-4.500 F180
G1 X74.667 Y6.000 F650
G1 Z-6.000 F180
G1 X74.667 Y6.000 F650
G1 Z-6.350 F180
G1 X74.667 Y6.000 F650
G0 Z5.000
G0 X85.333 Y6.000
G0 Z0.500
G1 Z-1.500 F180
G1 X85.333 Y6.000 F650
G1 Z-3.000 F180
G1 X85.333 Y6.000 F650
G1 Z-4.500 F180
G1 X85.333 Y6.000 F650
G1 Z-6.000 F180
G1 X85.333 Y6.000 F650
G1 Z-6.350 F180
G1 X85.333 Y6.000 F650
G0 Z5.000
G0 X96.000 Y6.000
G0 Z0.500
G1 Z-1.500 F180
G1 X96.000 Y6.000 F650
G1 Z-3.000 F180
G1 X96.000 Y6.000 F650
G1 Z-4.500 F180
G1 X96.000 Y6.000 F650
G1 Z-6.000 F180
G1 X96.000 Y6.000 F650
G1 Z-6.350 F180
G1 X96.000 Y6.000 F650
G0 Z5.000
G0 X106.667 Y6.000
G0 Z0.500
G1 Z-1.500 F180
G1 X106.667 Y6.000 F650
G1 Z-3.000 F180
G1 X106.667 Y6.000 F650
G1 Z-4.500 F180
G1 X106.667 Y6.000 F650
G1 Z-6.000 F180
G1 X106.667 Y6.000 F650
G1 Z-6.350 F180
G1 X106.667 Y6.000 F650
G0 Z5.000
G0 X117.333 Y6.000
G0 Z0.500
G1 Z-1.500 F180
G1 X117.333 Y6.000 F650
G1 Z-3.000 F180
G1 X117.333 Y6.000 F650
G1 Z-4.500 F180
G1 X117.333 Y6.000 F650
G1 Z-6.000 F180
G1 X117.333 Y6.000 F650
G1 Z-6.350 F180
G1 X117.333 Y6.000 F650
G0 Z5.000
G0 X128.000 Y6.000
G0 Z0.500
G1 Z-1.500 F180
G1 X128.000 Y6.000 F650
G1 Z-3.000 F180
G1 X128.000 Y6.000 F650
G1 Z-4.500 F180
G1 X128.000 Y6.000 F650
G1 Z-6.000 F180
G1 X128.000 Y6.000 F650
G1 Z-6.350 F180
G1 X128.000 Y6.000 F650
G0 Z5.000
G0 X138.667 Y6.000
G0 Z0.500
G1 Z-1.500 F180
G1 X138.667 Y6.000 F650
G1 Z-3.000 F180
G1 X138.667 Y6.000 F650
G1 Z-4.500 F180
G1 X138.667 Y6.000 F650
G1 Z-6.000 F180
G1 X138.667 Y6.000 F650
G1 Z-6.350 F180
G1 X138.667 Y6.000 F650
G0 Z5.000
G0 X149.333 Y6.000
G0 Z0.500
G1 Z-1.500 F180
G1 X149.333 Y6.000 F650
G1 Z-3.000 F180
G1 X149.333 Y6.000 F650
G1 Z-4.500 F180
G1 X149.333 Y6.000 F650
G1 Z-6.000 F180
G1 X149.333 Y6.000 F650
G1 Z-6.350 F180
G1 X149.333 Y6.000 F650
G0 Z5.000
G0 X160.000 Y10.000
G0 Z0.500
G1 Z-1.500 F180
G1 X160.000 Y10.000 F650
G1 Z-3.000 F180
G1 X160.000 Y10.000 F650
G1 Z-4.500 F180
G1 X160.000 Y10.000 F650
G1 Z-6.000 F180
G1 X160.000 Y10.000 F650
G1 Z-6.350 F180
G1 X160.000 Y10.000 F650
G0 Z5.000
G0 X160.000 Y20.000
G0 Z0.500
G1 Z-1.500 F180
G1 X160.000 Y20.000 F650
G1 Z-3.000 F180
G1 X160.000 Y20.000 F650
G1 Z-4.500 F180
G1 X160.000 Y20.000 F650
G1 Z-6.000 F180
G1 X160.000 Y20.000 F650
G1 Z-6.350 F180
G1 X160.000 Y20.000 F650
G0 Z5.000
G0 X160.000 Y30.000
G0 Z0.500
G1 Z-1.500 F180
G1 X160.000 Y30.000 F650
G1 Z-3.000 F180
G1 X160.000 Y30.000 F650
G1 Z-4.500 F180
G1 X160.000 Y30.000 F650
G1 Z-6.000 F180
G1 X160.000 Y30.000 F650
G1 Z-6.350 F180
G1 X160.000 Y30.000 F650
G0 Z5.000
G0 X160.000 Y40.000
G0 Z0.500
G1 Z-1.500 F180
G1 X160.000 Y40.000 F650
G1 Z-3.000 F180
G1 X160.000 Y40.000 F650
G1 Z-4.500 F180
G1 X160.000 Y40.000 F650
G1 Z-6.000 F180
G1 X160.000 Y40.000 F650
G1 Z-6.350 F180
G1 X160.000 Y40.000 F650
G0 Z5.000
G0 X160.000 Y50.000
G0 Z0.500
G1 Z-1.500 F180
G1 X160.000 Y50.000 F650
G1 Z-3.000 F180
G1 X160.000 Y50.000 F650
G1 Z-4.500 F180
G1 X160.000 Y50.000 F650
G1 Z-6.000 F180
G1 X160.000 Y50.000 F650
G1 Z-6.350 F180
G1 X160.000 Y50.000 F650
G0 Z5.000
G0 X160.000 Y60.000
G0 Z0.500
G1 Z-1.500 F180
G1 X160.000 Y60.000 F650
G1 Z-3.000 F180
G1 X160.000 Y60.000 F650
G1 Z-4.500 F180
G1 X160.000 Y60.000 F650
G1 Z-6.000 F180
G1 X160.000 Y60.000 F650
G1 Z-6.350 F180
G1 X160.000 Y60.000 F650
G0 Z5.000
G0 X160.000 Y70.000
G0 Z0.500
G1 Z-1.500 F180
G1 X160.000 Y70.000 F650
G1 Z-3.000 F180
G1 X160.000 Y70.000 F650
G1 Z-4.500 F180
G1 X160.000 Y70.000 F650
G1 Z-6.000 F180
G1 X160.000 Y70.000 F650
G1 Z-6.350 F180
G1 X160.000 Y70.000 F650
G0 Z5.000
G0 X149.333 Y70.000
G0 Z0.500
G1 Z-1.500 F180
G1 X149.333 Y70.000 F650
G1 Z-3.000 F180
G1 X149.333 Y70.000 F650
G1 Z-4.500 F180
G1 X149.333 Y70.000 F650
G1 Z-6.000 F180
G1 X149.333 Y70.000 F650
G1 Z-6.350 F180
G1 X149.333 Y70.000 F650
G0 Z5.000
G0 X138.667 Y70.000
G0 Z0.500
G1 Z-1.500 F180
G1 X138.667 Y70.000 F650
G1 Z-3.000 F180
G1 X138.667 Y70.000 F650
G1 Z-4.500 F180
G1 X138.667 Y70.000 F650
G1 Z-6.000 F180
G1 X138.667 Y70.000 F650
G1 Z-6.350 F180
G1 X138.667 Y70.000 F650
G0 Z5.000
G0 X128.000 Y70.000
G0 Z0.500
G1 Z-1.500 F180
G1 X128.000 Y70.000 F650
G1 Z-3.000 F180
G1 X128.000 Y70.000 F650
G1 Z-4.500 F180
G1 X128.000 Y70.000 F650
G1 Z-6.000 F180
G1 X128.000 Y70.000 F650
G1 Z-6.350 F180
G1 X128.000 Y70.000 F650
G0 Z5.000
G0 X117.333 Y70.000
G0 Z0.500
G1 Z-1.500 F180
G1 X117.333 Y70.000 F650
G1 Z-3.000 F180
G1 X117.333 Y70.000 F650
G1 Z-4.500 F180
G1 X117.333 Y70.000 F650
G1 Z-6.000 F180
G1 X117.333 Y70.000 F650
G1 Z-6.350 F180
G1 X117.333 Y70.000 F650
G0 Z5.000
G0 X106.667 Y70.000
G0 Z0.500
G1 Z-1.500 F180
G1 X106.667 Y70.000 F650
G1 Z-3.000 F180
G1 X106.667 Y70.000 F650
G1 Z-4.500 F180
G1 X106.667 Y70.000 F650
G1 Z-6.000 F180
G1 X106.667 Y70.000 F650
G1 Z-6.350 F180
G1 X106.667 Y70.000 F650
G0 Z5.000
G0 X96.000 Y70.000
G0 Z0.500
G1 Z-1.500 F180
G1 X96.000 Y70.000 F650
G1 Z-3.000 F180
G1 X96.000 Y70.000 F650
G1 Z-4.500 F180
G1 X96.000 Y70.000 F650
G1 Z-6.000 F180
G1 X96.000 Y70.000 F650
G1 Z-6.350 F180
G1 X96.000 Y70.000 F650
G0 Z5.000
G0 X85.333 Y70.000
G0 Z0.500
G1 Z-1.500 F180
G1 X85.333 Y70.000 F650
G1 Z-3.000 F180
G1 X85.333 Y70.000 F650
G1 Z-4.500 F180
G1 X85.333 Y70.000 F650
G1 Z-6.000 F180
G1 X85.333 Y70.000 F650
G1 Z-6.350 F180
G1 X85.333 Y70.000 F650
G0 Z5.000
G0 X74.667 Y70.000
G0 Z0.500
G1 Z-1.500 F180
G1 X74.667 Y70.000 F650
G1 Z-3.000 F180
G1 X74.667 Y70.000 F650
G1 Z-4.500 F180
G1 X74.667 Y70.000 F650
G1 Z-6.000 F180
G1 X74.667 Y70.000 F650
G1 Z-6.350 F180
G1 X74.667 Y70.000 F650
G0 Z5.000
G0 X64.000 Y70.000
G0 Z0.500
G1 Z-1.500 F180
G1 X64.000 Y70.000 F650
G1 Z-3.000 F180
G1 X64.000 Y70.000 F650
G1 Z-4.500 F180
G1 X64.000 Y70.000 F650
G1 Z-6.000 F180
G1 X64.000 Y70.000 F650
G1 Z-6.350 F180
G1 X64.000 Y70.000 F650
G0 Z5.000
G0 X53.333 Y70.000
G0 Z0.500
G1 Z-1.500 F180
G1 X53.333 Y70.000 F650
G1 Z-3.000 F180
G1 X53.333 Y70.000 F650
G1 Z-4.500 F180
G1 X53.333 Y70.000 F650
G1 Z-6.000 F180
G1 X53.333 Y70.000 F650
G1 Z-6.350 F180
G1 X53.333 Y70.000 F650
G0 Z5.000
G0 X42.667 Y70.000
G0 Z0.500
G1 Z-1.500 F180
G1 X42.667 Y70.000 F650
G1 Z-3.000 F180
G1 X42.667 Y70.000 F650
G1 Z-4.500 F180
G1 X42.667 Y70.000 F650
G1 Z-6.000 F180
G1 X42.667 Y70.000 F650
G1 Z-6.350 F180
G1 X42.667 Y70.000 F650
G0 Z5.000
G0 X32.000 Y70.000
G0 Z0.500
G1 Z-1.500 F180
G1 X32.000 Y70.000 F650
G1 Z-3.000 F180
G1 X32.000 Y70.000 F650
G1 Z-4.500 F180
G1 X32.000 Y70.000 F650
G1 Z-6.000 F180
G1 X32.000 Y70.000 F650
G1 Z-6.350 F180
G1 X32.000 Y70.000 F650
G0 Z5.000
G0 X21.333 Y70.000
G0 Z0.500
G1 Z-1.500 F180
G1 X21.333 Y70.000 F650
G1 Z-3.000 F180
G1 X21.333 Y70.000 F650
G1 Z-4.500 F180
G1 X21.333 Y70.000 F650
G1 Z-6.000 F180
G1 X21.333 Y70.000 F650
G1 Z-6.350 F180
G1 X21.333 Y70.000 F650
G0 Z5.000
G0 X10.667 Y70.000
G0 Z0.500
G1 Z-1.500 F180
G1 X10.667 Y70.000 F650
G1 Z-3.000 F180
G1 X10.667 Y70.000 F650
G1 Z-4.500 F180
G1 X10.667 Y70.000 F650
G1 Z-6.000 F180
G1 X10.667 Y70.000 F650
G1 Z-6.350 F180
G1 X10.667 Y70.000 F650
G0 Z5.000
G0 X6.000 Y60.000
G0 Z0.500
G1 Z-1.500 F180
G1 X6.000 Y60.000 F650
G1 Z-3.000 F180
G1 X6.000 Y60.000 F650
G1 Z-4.500 F180
G1 X6.000 Y60.000 F650
G1 Z-6.000 F180
G1 X6.000 Y60.000 F650
G1 Z-6.350 F180
G1 X6.000 Y60.000 F650
G0 Z5.000
G0 X6.000 Y50.000
G0 Z0.500
G1 Z-1.500 F180
G1 X6.000 Y50.000 F650
G1 Z-3.000 F180
G1 X6.000 Y50.000 F650
G1 Z-4.500 F180
G1 X6.000 Y50.000 F650
G1 Z-6.000 F180
G1 X6.000 Y50.000 F650
G1 Z-6.350 F180
G1 X6.000 Y50.000 F650
G0 Z5.000
G0 X6.000 Y40.000
G0 Z0.500
G1 Z-1.500 F180
G1 X6.000 Y40.000 F650
G1 Z-3.000 F180
G1 X6.000 Y40.000 F650
G1 Z-4.500 F180
G1 X6.000 Y40.000 F650
G1 Z-6.000 F180
G1 X6.000 Y40.000 F650
G1 Z-6.350 F180
G1 X6.000 Y40.000 F650
G0 Z5.000
G0 X6.000 Y30.000
G0 Z0.500
G1 Z-1.500 F180
G1 X6.000 Y30.000 F650
G1 Z-3.000 F180
G1 X6.000 Y30.000 F650
G1 Z-4.500 F180
G1 X6.000 Y30.000 F650
G1 Z-6.000 F180
G1 X6.000 Y30.000 F650
G1 Z-6.350 F180
G1 X6.000 Y30.000 F650
G0 Z5.000
G0 X6.000 Y20.000
G0 Z0.500
G1 Z-1.500 F180
G1 X6.000 Y20.000 F650
G1 Z-3.000 F180
G1 X6.000 Y20.000 F650
G1 Z-4.500 F180
G1 X6.000 Y20.000 F650
G1 Z-6.000 F180
G1 X6.000 Y20.000 F650
G1 Z-6.350 F180
G1 X6.000 Y20.000 F650
G0 Z5.000
G0 X6.000 Y10.000
G0 Z0.500
G1 Z-1.500 F180
G1 X6.000 Y10.000 F650
G1 Z-3.000 F180
G1 X6.000 Y10.000 F650
G1 Z-4.500 F180
G1 X6.000 Y10.000 F650
G1 Z-6.000 F180
G1 X6.000 Y10.000 F650
G1 Z-6.350 F180
G1 X6.000 Y10.000 F650
G0 Z5.000
(relief holes for back)
G0 X190.667 Y6.000
G0 Z0.500
G1 Z-1.500 F180
G1 X190.667 Y6.000 F650
G1 Z-3.000 F180
G1 X190.667 Y6.000 F650
G1 Z-4.500 F180
G1 X190.667 Y6.000 F650
G1 Z-6.000 F180
G1 X190.667 Y6.000 F650
G1 Z-6.350 F180
G1 X190.667 Y6.000 F650
G0 Z5.000
G0 X201.333 Y6.000
G0 Z0.500
G1 Z-1.500 F180
G1 X201.333 Y6.000 F650
G1 Z-3.000 F180
G1 X201.333 Y6.000 F650
G1 Z-4.500 F180
G1 X201.333 Y6.000 F650
G1 Z-6.000 F180
G1 X201.333 Y6.000 F650
G1 Z-6.350 F180
G1 X201.333 Y6.000 F650
G0 Z5.000
G0 X212.000 Y6.000
G0 Z0.500
G1 Z-1.500 F180
G1 X212.000 Y6.000 F650
G1 Z-3.000 F180
G1 X212.000 Y6.000 F650
G1 Z-4.500 F180
G1 X212.000 Y6.000 F650
G1 Z-6.000 F180
G1 X212.000 Y6.000 F650
G1 Z-6.350 F180
G1 X212.000 Y6.000 F650
G0 Z5.000
G0 X222.667 Y6.000
G0 Z0.500
G1 Z-1.500 F180
G1 X222.667 Y6.000 F650
G1 Z-3.000 F180
G1 X222.667 Y6.000 F650
G1 Z-4.500 F180
G1 X222.667 Y6.000 F650
G1 Z-6.000 F180
G1 X222.667 Y6.000 F650
G1 Z-6.350 F180
G1 X222.667 Y6.000 F650
G0 Z5.000
G0 X233.333 Y6.000
G0 Z0.500
G1 Z-1.500 F180
G1 X233.333 Y6.000 F650
G1 Z-3.000 F180
G1 X233.333 Y6.000 F650
G1 Z-4.500 F180
G1 X233.333 Y6.000 F650
G1 Z-6.000 F180
G1 X233.333 Y6.000 F650
G1 Z-6.350 F180
G1 X233.333 Y6.000 F650
G0 Z5.000
G0 X244.000 Y6.000
G0 Z0.500
G1 Z-1.500 F180
G1 X244.000 Y6.000 F650
G1 Z-3.000 F180
G1 X244.000 Y6.000 F650
G1 Z-4.500 F180
G1 X244.000 Y6.000 F650
G1 Z-6.000 F180
G1 X244.000 Y6.000 F650
G1 Z-6.350 F180
G1 X244.000 Y6.000 F650
G0 Z5.000
G0 X254.667 Y6.000
G0 Z0.500
G1 Z-1.500 F180
G1 X254.667 Y6.000 F650
G1 Z-3.000 F180
G1 X254.667 Y6.000 F650
G1 Z-4.500 F180
G1 X254.667 Y6.000 F650
G1 Z-6.000 F180
G1 X254.667 Y6.000 F650
G1 Z-6.350 F180
G1 X254.667 Y6.000 F650
G0 Z5.000
G0 X265.333 Y6.000
G0 Z0.500
G1 Z-1.500 F180
G1 X265.333 Y6.000 F650
G1 Z-3.000 F180
G1 X265.333 Y6.000 F650
G1 Z-4.500 F180
G1 X265.333 Y6.000 F650
G1 Z-6.000 F180
G1 X265.333 Y6.000 F650
G1 Z-6.350 F180
G1 X265.333 Y6.000 F650
G0 Z5.000
G0 X276.000 Y6.000
G0 Z0.500
G1 Z-1.500 F180
G1 X276.000 Y6.000 F650
G1 Z-3.000 F180
G1 X276.000 Y6.000 F650
G1 Z-4.500 F180
G1 X276.000 Y6.000 F650
G1 Z-6.000 F180
G1 X276.000 Y6.000 F650
G1 Z-6.350 F180
G1 X276.000 Y6.000 F650
G0 Z5.000
G0 X286.667 Y6.000
G0 Z0.500
G1 Z-1.500 F180
G1 X286.667 Y6.000 F650
G1 Z-3.000 F180
G1 X286.667 Y6.000 F650
G1 Z-4.500 F180
G1 X286.667 Y6.000 F650
G1 Z-6.000 F180
G1 X286.667 Y6.000 F650
G1 Z-6.350 F180
G1 X286.667 Y6.000 F650
G0 Z5.000
G0 X297.333 Y6.000
G0 Z0.500
G1 Z-1.500 F180
G1 X297.333 Y6.000 F650
G1 Z-3.000 F180
G1 X297.333 Y6.000 F650
G1 Z-4.500 F180
G1 X297.333 Y6.000 F650
G1 Z-6.000 F180
G1 X297.333 Y6.000 F650
G1 Z-6.350 F180
G1 X297.333 Y6.000 F650
G0 Z5.000
G0 X308.000 Y6.000
G0 Z0.500
G1 Z-1.500 F180
G1 X308.000 Y6.000 F650
G1 Z-3.000 F180
G1 X308.000 Y6.000 F650
G1 Z-4.500 F180
G1 X308.000 Y6.000 F650
G1 Z-6.000 F180
G1 X308.000 Y6.000 F650
G1 Z-6.350 F180
G1 X308.000 Y6.000 F650
G0 Z5.000
G0 X318.667 Y6.000
G0 Z0.500
G1 Z-1.500 F180
G1 X318.667 Y6.000 F650
G1 Z-3.000 F180
G1 X318.667 Y6.000 F650
G1 Z-4.500 F180
G1 X318.667 Y6.000 F650
G1 Z-6.000 F180
G1 X318.667 Y6.000 F650
G1 Z-6.350 F180
G1 X318.667 Y6.000 F650
G0 Z5.000
G0 X329.333 Y6.000
G0 Z0.500
G1 Z-1.500 F180
G1 X329.333 Y6.000 F650
G1 Z-3.000 F180
G1 X329.333 Y6.000 F650
G1 Z-4.500 F180
G1 X329.333 Y6.000 F650
G1 Z-6.000 F180
G1 X329.333 Y6.000 F650
G1 Z-6.350 F180
G1 X329.333 Y6.000 F650
G0 Z5.000
G0 X340.000 Y10.000
G0 Z0.500
G1 Z-1.500 F180
G1 X340.000 Y10.000 F650
G1 Z-3.000 F180
G1 X340.000 Y10.000 F650
G1 Z-4.500 F180
G1 X340.000 Y10.000 F650
G1 Z-6.000 F180
G1 X340.000 Y10.000 F650
G1 Z-6.350 F180
G1 X340.000 Y10.000 F650
G0 Z5.000
G0 X340.000 Y20.000
G0 Z0.500
G1 Z-1.500 F180
G1 X340.000 Y20.000 F650
G1 Z-3.000 F180
G1 X340.000 Y20.000 F650
G1 Z-4.500 F180
G1 X340.000 Y20.000 F650
G1 Z-6.000 F180
G1 X340.000 Y20.000 F650
G1 Z-6.350 F180
G1 X340.000 Y20.000 F650
G0 Z5.000
G0 X340.000 Y30.000
G0 Z0.500
G1 Z-1.500 F180
G1 X340.000 Y30.000 F650
G1 Z-3.000 F180
G1 X340.000 Y30.000 F650
G1 Z-4.500 F180
G1 X340.000 Y30.000 F650
G1 Z-6.000 F180
G1 X340.000 Y30.000 F650
G1 Z-6.350 F180
G1 X340.000 Y30.000 F650
G0 Z5.000
G0 X340.000 Y40.000
G0 Z0.500
G1 Z-1.500 F180
G1 X340.000 Y40.000 F650
G1 Z-3.000 F180
G1 X340.000 Y40.000 F650
G1 Z-4.500 F180
G1 X340.000 Y40.000 F650
G1 Z-6.000 F180
G1 X340.000 Y40.000 F650
G1 Z-6.350 F180
G1 X340.000 Y40.000 F650
G0 Z5.000
G0 X340.000 Y50.000
G0 Z0.500
G1 Z-1.500 F180
G1 X340.000 Y50.000 F650
G1 Z-3.000 F180
G1 X340.000 Y50.000 F650
G1 Z-4.500 F180
G1 X340.000 Y50.000 F650
G1 Z-6.000 F180
G1 X340.000 Y50.000 F650
G1 Z-6.350 F180
G1 X340.000 Y50.000 F650
G0 Z5.000
G0 X340.000 Y60.000
G0 Z0.500
G1 Z-1.500 F180
G1 X340.000 Y60.000 F650
G1 Z-3.000 F180
G1 X340.000 Y60.000 F650
G1 Z-4.500 F180
G1 X340.000 Y60.000 F650
G1 Z-6.000 F180
G1 X340.000 Y60.000 F650
G1 Z-6.350 F180
G1 X340.000 Y60.000 F650
G0 Z5.000
G0 X340.000 Y70.000
G0 Z0.500
G1 Z-1.500 F180
G1 X340.000 Y70.000 F650
G1 Z-3.000 F180
G1 X340.000 Y70.000 F650
G1 Z-4.500 F180
G1 X340.000 Y70.000 F650
G1 Z-6.000 F180
G1 X340.000 Y70.000 F650
G1 Z-6.350 F180
G1 X340.000 Y70.000 F650
G0 Z5.000
G0 X329.333 Y70.000
G0 Z0.500
G1 Z-1.500 F180
G1 X329.333 Y70.000 F650
G1 Z-3.000 F180
G1 X329.333 Y70.000 F650
G1 Z-4.500 F180
G1 X329.333 Y70.000 F650
G1 Z-6.000 F180
G1 X329.333 Y70.000 F650
G1 Z-6.350 F180
G1 X329.333 Y70.000 F650
G0 Z5.000
G0 X318.667 Y70.000
G0 Z0.500
G1 Z-1.500 F180
G1 X318.667 Y70.000 F650
G1 Z-3.000 F180
G1 X318.667 Y70.000 F650
G1 Z-4.500 F180
G1 X318.667 Y70.000 F650
G1 Z-6.000 F180
G1 X318.667 Y70.000 F650
G1 Z-6.350 F180
G1 X318.667 Y70.000 F650
G0 Z5.000
G0 X308.000 Y70.000
G0 Z0.500
G1 Z-1.500 F180
G1 X308.000 Y70.000 F650
G1 Z-3.000 F180
G1 X308.000 Y70.000 F650
G1 Z-4.500 F180
G1 X308.000 Y70.000 F650
G1 Z-6.000 F180
G1 X308.000 Y70.000 F650
G1 Z-6.350 F180
G1 X308.000 Y70.000 F650
G0 Z5.000
G0 X297.333 Y70.000
G0 Z0.500
G1 Z-1.500 F180
G1 X297.333 Y70.000 F650
G1 Z-3.000 F180
G1 X297.333 Y70.000 F650
G1 Z-4.500 F180
G1 X297.333 Y70.000 F650
G1 Z-6.000 F180
G1 X297.333 Y70.000 F650
G1 Z-6.350 F180
G1 X297.333 Y70.000 F650
G0 Z5.000
G0 X286.667 Y70.000
G0 Z0.500
G1 Z-1.500 F180
G1 X286.667 Y70.000 F650
G1 Z-3.000 F180
G1 X286.667 Y70.000 F650
G1 Z-4.500 F180
G1 X286.667 Y70.000 F650
G1 Z-6.000 F180
G1 X286.667 Y70.000 F650
G1 Z-6.350 F180
G1 X286.667 Y70.000 F650
G0 Z5.000
G0 X276.000 Y70.000
G0 Z0.500
G1 Z-1.500 F180
G1 X276.000 Y70.000 F650
G1 Z-3.000 F180
G1 X276.000 Y70.000 F650
G1 Z-4.500 F180
G1 X276.000 Y70.000 F650
G1 Z-6.000 F180
G1 X276.000 Y70.000 F650
G1 Z-6.350 F180
G1 X276.000 Y70.000 F650
G0 Z5.000
G0 X265.333 Y70.000
G0 Z0.500
G1 Z-1.500 F180
G1 X265.333 Y70.000 F650
G1 Z-3.000 F180
G1 X265.333 Y70.000 F650
G1 Z-4.500 F180
G1 X265.333 Y70.000 F650
G1 Z-6.000 F180
G1 X265.333 Y70.000 F650
G1 Z-6.350 F180
G1 X265.333 Y70.000 F650
G0 Z5.000
G0 X254.667 Y70.000
G0 Z0.500
G1 Z-1.500 F180
G1 X254.667 Y70.000 F650
G1 Z-3.000 F180
G1 X254.667 Y70.000 F650
G1 Z-4.500 F180
G1 X254.667 Y70.000 F650
G1 Z-6.000 F180
G1 X254.667 Y70.000 F650
G1 Z-6.350 F180
G1 X254.667 Y70.000 F650
G0 Z5.000
G0 X244.000 Y70.000
G0 Z0.500
G1 Z-1.500 F180
G1 X244.000 Y70.000 F650
G1 Z-3.000 F180
G1 X244.000 Y70.000 F650
G1 Z-4.500 F180
G1 X244.000 Y70.000 F650
G1 Z-6.000 F180
G1 X244.000 Y70.000 F650
G1 Z-6.350 F180
G1 X244.000 Y70.000 F650
G0 Z5.000
G0 X233.333 Y70.000
G0 Z0.500
G1 Z-1.500 F180
G1 X233.333 Y70.000 F650
G1 Z-3.000 F180
G1 X233.333 Y70.000 F650
G1 Z-4.500 F180
G1 X233.333 Y70.000 F650
G1 Z-6.000 F180
G1 X233.333 Y70.000 F650
G1 Z-6.350 F180
G1 X233.333 Y70.000 F650
G0 Z5.000
G0 X222.667 Y70.000
G0 Z0.500
G1 Z-1.500 F180
G1 X222.667 Y70.000 F650
G1 Z-3.000 F180
G1 X222.667 Y70.000 F650
G1 Z-4.500 F180
G1 X222.667 Y70.000 F650
G1 Z-6.000 F180
G1 X222.667 Y70.000 F650
G1 Z-6.350 F180
G1 X222.667 Y70.000 F650
G0 Z5.000
G0 X212.000 Y70.000
G0 Z0.500
G1 Z-1.500 F180
G1 X212.000 Y70.000 F650
G1 Z-3.000 F180
G1 X212.000 Y70.000 F650
G1 Z-4.500 F180
G1 X212.000 Y70.000 F650
G1 Z-6.000 F180
G1 X212.000 Y70.000 F650
G1 Z-6.350 F180
G1 X212.000 Y70.000 F650
G0 Z5.000
G0 X201.333 Y70.000
G0 Z0.500
G1 Z-1.500 F180
G1 X201.333 Y70.000 F650
G1 Z-3.000 F180
G1 X201.333 Y70.000 F650
G1 Z-4.500 F180
G1 X201.333 Y70.000 F650
G1 Z-6.000 F180
G1 X201.333 Y70.000 F650
G1 Z-6.350 F180
G1 X201.333 Y70.000 F650
G0 Z5.000
G0 X190.667 Y70.000
G0 Z0.500
G1 Z-1.500 F180
G1 X190.667 Y70.000 F650
G1 Z-3.000 F180
G1 X190.667 Y70.000 F650
G1 Z-4.500 F180
G1 X190.667 Y70.000 F650
G1 Z-6.000 F180
G1 X190.667 Y70.000 F650
G1 Z-6.350 F180
G1 X190.667 Y70.000 F650
G0 Z5.000
G0 X186.000 Y60.000
G0 Z0.500
G1 Z-1.500 F180
G1 X186.000 Y60.000 F650
G1 Z-3.000 F180
G1 X186.000 Y60.000 F650
G1 Z-4.500 F180
G1 X186.000 Y60.000 F650
G1 Z-6.000 F180
G1 X186.000 Y60.000 F650
G1 Z-6.350 F180
G1 X186.000 Y60.000 F650
G0 Z5.000
G0 X186.000 Y50.000
G0 Z0.500
G1 Z-1.500 F180
G1 X186.000 Y50.000 F650
G1 Z-3.000 F180
G1 X186.000 Y50.000 F650
G1 Z-4.500 F180
G1 X186.000 Y50.000 F650
G1 Z-6.000 F180
G1 X186.000 Y50.000 F650
G1 Z-6.350 F180
G1 X186.000 Y50.000 F650
G0 Z5.000
G0 X186.000 Y40.000
G0 Z0.500
G1 Z-1.500 F180
G1 X186.000 Y40.000 F650
G1 Z-3.000 F180
G1 X186.000 Y40.000 F650
G1 Z-4.500 F180
G1 X186.000 Y40.000 F650
G1 Z-6.000 F180
G1 X186.000 Y40.000 F650
G1 Z-6.350 F180
G1 X186.000 Y40.000 F650
G0 Z5.000
G0 X186.000 Y30.000
G0 Z0.500
G1 Z-1.500 F180
G1 X186.000 Y30.000 F650
G1 Z-3.000 F180
G1 X186.000 Y30.000 F650
G1 Z-4.500 F180
G1 X186.000 Y30.000 F650
G1 Z-6.000 F180
G1 X186.000 Y30.000 F650
G1 Z-6.350 F180
G1 X186.000 Y30.000 F650
G0 Z5.000
G0 X186.000 Y20.000
G0 Z0.500
G1 Z-1.500 F180
G1 X186.000 Y20.000 F650
G1 Z-3.000 F180
G1 X186.000 Y20.000 F650
G1 Z-4.500 F180
G1 X186.000 Y20.000 F650
G1 Z-6.000 F180
G1 X186.000 Y20.000 F650
G1 Z-6.350 F180
G1 X186.000 Y20.000 F650
G0 Z5.000
G0 X186.000 Y10.000
G0 Z0.500
G1 Z-1.500 F180
G1 X186.000 Y10.000 F650
G1 Z-3.000 F180
G1 X186.000 Y10.000 F650
G1 Z-4.500 F180
G1 X186.000 Y10.000 F650
G1 Z-6.000 F180
G1 X186.000 Y10.000 F650
G1 Z-6.350 F180
G1 X186.000 Y10.000 F650
G0 Z5.000
(relief holes for left)
G0 X6.000 Y96.000
G0 Z0.500
G1 Z-1.500 F180
G1 X6.000 Y96.000 F650
G1 Z-3.000 F180
G1 X6.000 Y96.000 F650
G1 Z-4.500 F180
G1 X6.000 Y96.000 F650
G1 Z-6.000 F180
G1 X6.000 Y96.000 F650
G1 Z-6.350 F180
G1 X6.000 Y96.000 F650
G0 Z5.000
G0 X17.111 Y96.000
G0 Z0.500
G1 Z-1.500 F180
G1 X17.111 Y96.000 F650
G1 Z-3.000 F180
G1 X17.111 Y96.000 F650
G1 Z-4.500 F180
G1 X17.111 Y96.000 F650
G1 Z-6.000 F180
G1 X17.111 Y96.000 F650
G1 Z-6.350 F180
G1 X17.111 Y96.000 F650
G0 Z5.000
G0 X28.222 Y96.000
G0 Z0.500
G1 Z-1.500 F180
G1 X28.222 Y96.000 F650
G1 Z-3.000 F180
G1 X28.222 Y96.000 F650
G1 Z-4.500 F180
G1 X28.222 Y96.000 F650
G1 Z-6.000 F180
G1 X28.222 Y96.000 F650
G1 Z-6.350 F180
G1 X28.222 Y96.000 F650
G0 Z5.000
G0 X39.333 Y96.000
G0 Z0.500
G1 Z-1.500 F180
G1 X39.333 Y96.000 F650
G1 Z-3.000 F180
G1 X39.333 Y96.000 F650
G1 Z-4.500 F180
G1 X39.333 Y96.000 F650
G1 Z-6.000 F180
G1 X39.333 Y96.000 F650
G1 Z-6.350 F180
G1 X39.333 Y96.000 F650
G0 Z5.000
G0 X50.444 Y96.000
G0 Z0.500
G1 Z-1.500 F180
G1 X50.444 Y96.000 F650
G1 Z-3.000 F180
G1 X50.444 Y96.000 F650
G1 Z-4.500 F180
G1 X50.444 Y96.000 F650
G1 Z-6.000 F180
G1 X50.444 Y96.000 F650
G1 Z-6.350 F180
G1 X50.444 Y96.000 F650
G0 Z5.000
G0 X61.556 Y96.000
G0 Z0.500
G1 Z-1.500 F180
G1 X61.556 Y96.000 F650
G1 Z-3.000 F180
G1 X61.556 Y96.000 F650
G1 Z-4.500 F180
G1 X61.556 Y96.000 F650
G1 Z-6.000 F180
G1 X61.556 Y96.000 F650
G1 Z-6.350 F180
G1 X61.556 Y96.000 F650
G0 Z5.000
G0 X72.667 Y96.000
G0 Z0.500
G1 Z-1.500 F180
G1 X72.667 Y96.000 F650
G1 Z-3.000 F180
G1 X72.667 Y96.000 F650
G1 Z-4.500 F180
G1 X72.667 Y96.000 F650
G1 Z-6.000 F180
G1 X72.667 Y96.000 F650
G1 Z-6.350 F180
G1 X72.667 Y96.000 F650
G0 Z5.000
G0 X83.778 Y96.000
G0 Z0.500
G1 Z-1.500 F180
G1 X83.778 Y96.000 F650
G1 Z-3.000 F180
G1 X83.778 Y96.000 F650
G1 Z-4.500 F180
G1 X83.778 Y96.000 F650
G1 Z-6.000 F180
G1 X83.778 Y96.000 F650
G1 Z-6.350 F180
G1 X83.778 Y96.000 F650
G0 Z5.000
G0 X94.889 Y96.000
G0 Z0.500
G1 Z-1.500 F180
G1 X94.889 Y96.000 F650
G1 Z-3.000 F180
G1 X94.889 Y96.000 F650
G1 Z-4.500 F180
G1 X94.889 Y96.000 F650
G1 Z-6.000 F180
G1 X94.889 Y96.000 F650
G1 Z-6.350 F180
G1 X94.889 Y96.000 F650
G0 Z5.000
G0 X100.000 Y106.000
G0 Z0.500
G1 Z-1.500 F180
G1 X100.000 Y106.000 F650
G1 Z-3.000 F180
G1 X100.000 Y106.000 F650
G1 Z-4.500 F180
G1 X100.000 Y106.000 F650
G1 Z-6.000 F180
G1 X100.000 Y106.000 F650
G1 Z-6.350 F180
G1 X100.000 Y106.000 F650
G0 Z5.000
G0 X100.000 Y116.000
G0 Z0.500
G1 Z-1.500 F180
G1 X100.000 Y116.000 F650
G1 Z-3.000 F180
G1 X100.000 Y116.000 F650
G1 Z-4.500 F180
G1 X100.000 Y116.000 F650
G1 Z-6.000 F180
G1 X100.000 Y116.000 F650
G1 Z-6.350 F180
G1 X100.000 Y116.000 F650
G0 Z5.000
G0 X100.000 Y126.000
G0 Z0.500
G1 Z-1.500 F180
G1 X100.000 Y126.000 F650
G1 Z-3.000 F180
G1 X100.000 Y126.000 F650
G1 Z-4.500 F180
G1 X100.000 Y126.000 F650
G1 Z-6.000 F180
G1 X100.000 Y126.000 F650
G1 Z-6.350 F180
G1 X100.000 Y126.000 F650
G0 Z5.000
G0 X100.000 Y136.000
G0 Z0.500
G1 Z-1.500 F180
G1 X100.000 Y136.000 F650
G1 Z-3.000 F180
G1 X100.000 Y136.000 F650
G1 Z-4.500 F180
G1 X100.000 Y136.000 F650
G1 Z-6.000 F180
G1 X100.000 Y136.000 F650
G1 Z-6.350 F180
G1 X100.000 Y136.000 F650
G0 Z5.000
G0 X100.000 Y146.000
G0 Z0.500
G1 Z-1.500 F180
G1 X100.000 Y146.000 F650
G1 Z-3.000 F180
G1 X100.000 Y146.000 F650
G1 Z-4.500 F180
G1 X100.000 Y146.000 F650
G1 Z-6.000 F180
G1 X100.000 Y146.000 F650
G1 Z-6.350 F180
G1 X100.000 Y146.000 F650
G0 Z5.000
G0 X100.000 Y156.000
G0 Z0.500
G1 Z-1.500 F180
G1 X100.000 Y156.000 F650
G1 Z-3.000 F180
G1 X100.000 Y156.000 F650
G1 Z-4.500 F180
G1 X100.000 Y156.000 F650
G1 Z-6.000 F180
G1 X100.000 Y156.000 F650
G1 Z-6.350 F180
G1 X100.000 Y156.000 F650
G0 Z5.000
G0 X94.889 Y160.000
G0 Z0.500
G1 Z-1.500 F180
G1 X94.889 Y160.000 F650
G1 Z-3.000 F180
G1 X94.889 Y160.000 F650
G1 Z-4.500 F180
G1 X94.889 Y160.000 F650
G1 Z-6.000 F180
G1 X94.889 Y160.000 F650
G1 Z-6.350 F180
G1 X94.889 Y160.000 F650
G0 Z5.000
G0 X83.778 Y160.000
G0 Z0.500
G1 Z-1.500 F180
G1 X83.778 Y160.000 F650
G1 Z-3.000 F180
G1 X83.778 Y160.000 F650
G1 Z-4.500 F180
G1 X83.778 Y160.000 F650
G1 Z-6.000 F180
G1 X83.778 Y160.000 F650
G1 Z-6.350 F180
G1 X83.778 Y160.000 F650
G0 Z5.000
G0 X72.667 Y160.000
G0 Z0.500
G1 Z-1.500 F180
G1 X72.667 Y160.000 F650
G1 Z-3.000 F180
G1 X72.667 Y160.000 F650
G1 Z-4.500 F180
G1 X72.667 Y160.000 F650
G1 Z-6.000 F180
G1 X72.667 Y160.000 F650
G1 Z-6.350 F180
G1 X72.667 Y160.000 F650
G0 Z5.000
G0 X61.556 Y160.000
G0 Z0.500
G1 Z-1.500 F180
G1 X61.556 Y160.000 F650
G1 Z-3.000 F180
G1 X61.556 Y160.000 F650
G1 Z-4.500 F180
G1 X61.556 Y160.000 F650
G1 Z-6.000 F180
G1 X61.556 Y160.000 F650
G1 Z-6.350 F180
G1 X61.556 Y160.000 F650
G0 Z5.000
G0 X50.444 Y160.000
G0 Z0.500
G1 Z-1.500 F180
G1 X50.444 Y160.000 F650
G1 Z-3.000 F180
G1 X50.444 Y160.000 F650
G1 Z-4.500 F180
G1 X50.444 Y160.000 F650
G1 Z-6.000 F180
G1 X50.444 Y160.000 F650
G1 Z-6.350 F180
G1 X50.444 Y160.000 F650
G0 Z5.000
G0 X39.333 Y160.000
G0 Z0.500
G1 Z-1.500 F180
G1 X39.333 Y160.000 F650
G1 Z-3.000 F180
G1 X39.333 Y160.000 F650
G1 Z-4.500 F180
G1 X39.333 Y160.000 F650
G1 Z-6.000 F180
G1 X39.333 Y160.000 F650
G1 Z-6.350 F180
G1 X39.333 Y160.000 F650
G0 Z5.000
G0 X28.222 Y160.000
G0 Z0.500
G1 Z-1.500 F180
G1 X28.222 Y160.000 F650
G1 Z-3.000 F180
G1 X28.222 Y160.000 F650
G1 Z-4.500 F180
G1 X28.222 Y160.000 F650
G1 Z-6.000 F180
G1 X28.222 Y160.000 F650
G1 Z-6.350 F180
G1 X28.222 Y160.000 F650
G0 Z5.000
G0 X17.111 Y160.000
G0 Z0.500
G1 Z-1.500 F180
G1 X17.111 Y160.000 F650
G1 Z-3.000 F180
G1 X17.111 Y160.000 F650
G1 Z-4.500 F180
G1 X17.111 Y160.000 F650
G1 Z-6.000 F180
G1 X17.111 Y160.000 F650
G1 Z-6.350 F180
G1 X17.111 Y160.000 F650
G0 Z5.000
G0 X6.000 Y156.000
G0 Z0.500
G1 Z-1.500 F180
G1 X6.000 Y156.000 F650
G1 Z-3.000 F180
G1 X6.000 Y156.000 F650
G1 Z-4.500 F180
G1 X6.000 Y156.000 F650
G1 Z-6.000 F180
G1 X6.000 Y156.000 F650
G1 Z-6.350 F180
G1 X6.000 Y156.000 F650
G0 Z5.000
G0 X6.000 Y146.000
G0 Z0.500
G1 Z-1.500 F180
G1 X6.000 Y146.000 F650
G1 Z-3.000 F180
G1 X6.000 Y146.000 F650
G1 Z-4.500 F180
G1 X6.000 Y146.000 F650
G1 Z-6.000 F180
G1 X6.000 Y146.000 F650
G1 Z-6.350 F180
G1 X6.000 Y146.000 F650
G0 Z5.000
G0 X6.000 Y136.000
G0 Z0.500
G1 Z-1.500 F180
G1 X6.000 Y136.000 F650
G1 Z-3.000 F180
G1 X6.000 Y136.000 F650
G1 Z-4.500 F180
G1 X6.000 Y136.000 F650
G1 Z-6.000 F180
G1 X6.000 Y136.000 F650
G1 Z-6.350 F180
G1 X6.000 Y136.000 F650
G0 Z5.000
G0 X6.000 Y126.000
G0 Z0.500
G1 Z-1.500 F180
G1 X6.000 Y126.000 F650
G1 Z-3.000 F180
G1 X6.000 Y126.000 F650
G1 Z-4.500 F180
G1 X6.000 Y126.000 F650
G1 Z-6.000 F180
G1 X6.000 Y126.000 F650
G1 Z-6.350 F180
G1 X6.000 Y126.000 F650
G0 Z5.000
G0 X6.000 Y116.000
G0 Z0.500
G1 Z-1.500 F180
G1 X6.000 Y116.000 F650
G1 Z-3.000 F180
G1 X6.000 Y116.000 F650
G1 Z-4.500 F180
G1 X6.000 Y116.000 F650
G1 Z-6.000 F180
G1 X6.000 Y116.000 F650
G1 Z-6.350 F180
G1 X6.000 Y116.000 F650
G0 Z5.000
G0 X6.000 Y106.000
G0 Z0.500
G1 Z-1.500 F180
G1 X6.000 Y106.000 F650
G1 Z-3.000 F180
G1 X6.000 Y106.000 F650
G1 Z-4.500 F180
G1 X6.000 Y106.000 F650
G1 Z-6.000 F180
G1 X6.000 Y106.000 F650
G1 Z-6.350 F180
G1 X6.000 Y106.000 F650
G0 Z5.000
(relief holes for right)
G0 X126.000 Y96.000
G0 Z0.500
G1 Z-1.500 F180
G1 X126.000 Y96.000 F650
G1 Z-3.000 F180
G1 X126.000 Y96.000 F650
G1 Z-4.500 F180
G1 X126.000 Y96.000 F650
G1 Z-6.000 F180
G1 X126.000 Y96.000 F650
G1 Z-6.350 F180
G1 X126.000 Y96.000 F650
G0 Z5.000
G0 X137.111 Y96.000
G0 Z0.500
G1 Z-1.500 F180
G1 X137.111 Y96.000 F650
G1 Z-3.000 F180
G1 X137.111 Y96.000 F650
G1 Z-4.500 F180
G1 X137.111 Y96.000 F650
G1 Z-6.000 F180
G1 X137.111 Y96.000 F650
G1 Z-6.350 F180
G1 X137.111 Y96.000 F650
G0 Z5.000
G0 X148.222 Y96.000
G0 Z0.500
G1 Z-1.500 F180
G1 X148.222 Y96.000 F650
G1 Z-3.000 F180
G1 X148.222 Y96.000 F650
G1 Z-4.500 F180
G1 X148.222 Y96.000 F650
G1 Z-6.000 F180
G1 X148.222 Y96.000 F650
G1 Z-6.350 F180
G1 X148.222 Y96.000 F650
G0 Z5.000
G0 X159.333 Y96.000
G0 Z0.500
G1 Z-1.500 F180
G1 X159.333 Y96.000 F650
G1 Z-3.000 F180
G1 X159.333 Y96.000 F650
G1 Z-4.500 F180
G1 X159.333 Y96.000 F650
G1 Z-6.000 F180
G1 X159.333 Y96.000 F650
G1 Z-6.350 F180
G1 X159.333 Y96.000 F650
G0 Z5.000
G0 X170.444 Y96.000
G0 Z0.500
G1 Z-1.500 F180
G1 X170.444 Y96.000 F650
G1 Z-3.000 F180
G1 X170.444 Y96.000 F650
G1 Z-4.500 F180
G1 X170.444 Y96.000 F650
G1 Z-6.000 F180
G1 X170.444 Y96.000 F650
G1 Z-6.350 F180
G1 X170.444 Y96.000 F650
G0 Z5.000
G0 X181.556 Y96.000
G0 Z0.500
G1 Z-1.500 F180
G1 X181.556 Y96.000 F650
G1 Z-3.000 F180
G1 X181.556 Y96.000 F650
G1 Z-4.500 F180
G1 X181.556 Y96.000 F650
G1 Z-6.000 F180
G1 X181.556 Y96.000 F650
G1 Z-6.350 F180
G1 X181.556 Y96.000 F650
G0 Z5.000
G0 X192.667 Y96.000
G0 Z0.500
G1 Z-1.500 F180
G1 X192.667 Y96.000 F650
G1 Z-3.000 F180
G1 X192.667 Y96.000 F650
G1 Z-4.500 F180
G1 X192.667 Y96.000 F650
G1 Z-6.000 F180
G1 X192.667 Y96.000 F650
G1 Z-6.350 F180
G1 X192.667 Y96.000 F650
G0 Z5.000
G0 X203.778 Y96.000
G0 Z0.500
G1 Z-1.500 F180
G1 X203.778 Y96.000 F650
G1 Z-3.000 F180
G1 X203.778 Y96.000 F650
G1 Z-4.500 F180
G1 X203.778 Y96.000 F650
G1 Z-6.000 F180
G1 X203.778 Y96.000 F650
G1 Z-6.350 F180
G1 X203.778 Y96.000 F650
G0 Z5.000
G0 X214.889 Y96.000
G0 Z0.500
G1 Z-1.500 F180
G1 X214.889 Y96.000 F650
G1 Z-3.000 F180
G1 X214.889 Y96.000 F650
G1 Z-4.500 F180
G1 X214.889 Y96.000 F650
G1 Z-6.000 F180
G1 X214.889 Y96.000 F650
G1 Z-6.350 F180
G1 X214.889 Y96.000 F650
G0 Z5.000
G0 X220.000 Y106.000
G0 Z0.500
G1 Z-1.500 F180
G1 X220.000 Y106.000 F650
G1 Z-3.000 F180
G1 X220.000 Y106.000 F650
G1 Z-4.500 F180
G1 X220.000 Y106.000 F650
G1 Z-6.000 F180
G1 X220.000 Y106.000 F650
G1 Z-6.350 F180
G1 X220.000 Y106.000 F650
G0 Z5.000
G0 X220.000 Y116.000
G0 Z0.500
G1 Z-1.500 F180
G1 X220.000 Y116.000 F650
G1 Z-3.000 F180
G1 X220.000 Y116.000 F650
G1 Z-4.500 F180
G1 X220.000 Y116.000 F650
G1 Z-6.000 F180
G1 X220.000 Y116.000 F650
G1 Z-6.350 F180
G1 X220.000 Y116.000 F650
G0 Z5.000
G0 X220.000 Y126.000
G0 Z0.500
G1 Z-1.500 F180
G1 X220.000 Y126.000 F650
G1 Z-3.000 F180
G1 X220.000 Y126.000 F650
G1 Z-4.500 F180
G1 X220.000 Y126.000 F650
G1 Z-6.000 F180
G1 X220.000 Y126.000 F650
G1 Z-6.350 F180
G1 X220.000 Y126.000 F650
G0 Z5.000
G0 X220.000 Y136.000
G0 Z0.500
G1 Z-1.500 F180
G1 X220.000 Y136.000 F650
G1 Z-3.000 F180
G1 X220.000 Y136.000 F650
G1 Z-4.500 F180
G1 X220.000 Y136.000 F650
G1 Z-6.000 F180
G1 X220.000 Y136.000 F650
G1 Z-6.350 F180
G1 X220.000 Y136.000 F650
G0 Z5.000
G0 X220.000 Y146.000
G0 Z0.500
G1 Z-1.500 F180
G1 X220.000 Y146.000 F650
G1 Z-3.000 F180
G1 X220.000 Y146.000 F650
G1 Z-4.500 F180
G1 X220.000 Y146.000 F650
G1 Z-6.000 F180
G1 X220.000 Y146.000 F650
G1 Z-6.350 F180
G1 X220.000 Y146.000 F650
G0 Z5.000
G0 X220.000 Y156.000
G0 Z0.500
G1 Z-1.500 F180
G1 X220.000 Y156.000 F650
G1 Z-3.000 F180
G1 X220.000 Y156.000 F650
G1 Z-4.500 F180
G1 X220.000 Y156.000 F650
G1 Z-6.000 F180
G1 X220.000 Y156.000 F650
G1 Z-6.350 F180
G1 X220.000 Y156.000 F650
G0 Z5.000
G0 X214.889 Y160.000
G0 Z0.500
G1 Z-1.500 F180
G1 X214.889 Y160.000 F650
G1 Z-3.000 F180
G1 X214.889 Y160.000 F650
G1 Z-4.500 F180
G1 X214.889 Y160.000 F650
G1 Z-6.000 F180
G1 X214.889 Y160.000 F650
G1 Z-6.350 F180
G1 X214.889 Y160.000 F650
G0 Z5.000
G0 X203.778 Y160.000
G0 Z0.500
G1 Z-1.500 F180
G1 X203.778 Y160.000 F650
G1 Z-3.000 F180
G1 X203.778 Y160.000 F650
G1 Z-4.500 F180
G1 X203.778 Y160.000 F650
G1 Z-6.000 F180
G1 X203.778 Y160.000 F650
G1 Z-6.350 F180
G1 X203.778 Y160.000 F650
G0 Z5.000
G0 X192.667 Y160.000
G0 Z0.500
G1 Z-1.500 F180
G1 X192.667 Y160.000 F650
G1 Z-3.000 F180
G1 X192.667 Y160.000 F650
G1 Z-4.500 F180
G1 X192.667 Y160.000 F650
G1 Z-6.000 F180
G1 X192.667 Y160.000 F650
G1 Z-6.350 F180
G1 X192.667 Y160.000 F650
G0 Z5.000
G0 X181.556 Y160.000
G0 Z0.500
G1 Z-1.500 F180
G1 X181.556 Y160.000 F650
G1 Z-3.000 F180
G1 X181.556 Y160.000 F650
G1 Z-4.500 F180
G1 X181.556 Y160.000 F650
G1 Z-6.000 F180
G1 X181.556 Y160.000 F650
G1 Z-6.350 F180
G1 X181.556 Y160.000 F650
G0 Z5.000
G0 X170.444 Y160.000
G0 Z0.500
G1 Z-1.500 F180
G1 X170.444 Y160.000 F650
G1 Z-3.000 F180
G1 X170.444 Y160.000 F650
G1 Z-4.500 F180
G1 X170.444 Y160.000 F650
G1 Z-6.000 F180
G1 X170.444 Y160.000 F650
G1 Z-6.350 F180
G1 X170.444 Y160.000 F650
G0 Z5.000
G0 X159.333 Y160.000
G0 Z0.500
G1 Z-1.500 F180
G1 X159.333 Y160.000 F650
G1 Z-3.000 F180
G1 X159.333 Y160.000 F650
G1 Z-4.500 F180
G1 X159.333 Y160.000 F650
G1 Z-6.000 F180
G1 X159.333 Y160.000 F650
G1 Z-6.350 F180
G1 X159.333 Y160.000 F650
G0 Z5.000
G0 X148.222 Y160.000
G0 Z0.500
G1 Z-1.500 F180
G1 X148.222 Y160.000 F650
G1 Z-3.000 F180
G1 X148.222 Y160.000 F650
G1 Z-4.500 F180
G1 X148.222 Y160.000 F650
G1 Z-6.000 F180
G1 X148.222 Y160.000 F650
G1 Z-6.350 F180
G1 X148.222 Y160.000 F650
G0 Z5.000
G0 X137.111 Y160.000
G0 Z0.500
G1 Z-1.500 F180
G1 X137.111 Y160.000 F650
G1 Z-3.000 F180
G1 X137.111 Y160.000 F650
G1 Z-4.500 F180
G1 X137.111 Y160.000 F650
G1 Z-6.000 F180
G1 X137.111 Y160.000 F650
G1 Z-6.350 F180
G1 X137.111 Y160.000 F650
G0 Z5.000
G0 X126.000 Y156.000
G0 Z0.500
G1 Z-1.500 F180
G1 X126.000 Y156.000 F650
G1 Z-3.000 F180
G1 X126.000 Y156.000 F650
G1 Z-4.500 F180
G1 X126.000 Y156.000 F650
G1 Z-6.000 F180
G1 X126.000 Y156.000 F650
G1 Z-6.350 F180
G1 X126.000 Y156.000 F650
G0 Z5.000
G0 X126.000 Y146.000
G0 Z0.500
G1 Z-1.500 F180
G1 X126.000 Y146.000 F650
G1 Z-3.000 F180
G1 X126.000 Y146.000 F650
G1 Z-4.500 F180
G1 X126.000 Y146.000 F650
G1 Z-6.000 F180
G1 X126.000 Y146.000 F650
G1 Z-6.350 F180
G1 X126.000 Y146.000 F650
G0 Z5.000
G0 X126.000 Y136.000
G0 Z0.500
G1 Z-1.500 F180
G1 X126.000 Y136.000 F650
G1 Z-3.000 F180
G1 X126.000 Y136.000 F650
G1 Z-4.500 F180
G1 X126.000 Y136.000 F650
G1 Z-6.000 F180
G1 X126.000 Y136.000 F650
G1 Z-6.350 F180
G1 X126.000 Y136.000 F650
G0 Z5.000
G0 X126.000 Y126.000
G0 Z0.500
G1 Z-1.500 F180
G1 X126.000 Y126.000 F650
G1 Z-3.000 F180
G1 X126.000 Y126.000 F650
G1 Z-4.500 F180
G1 X126.000 Y126.000 F650
G1 Z-6.000 F180
G1 X126.000 Y126.000 F650
G1 Z-6.350 F180
G1 X126.000 Y126.000 F650
G0 Z5.000
G0 X126.000 Y116.000
G0 Z0.500
G1 Z-1.500 F180
G1 X126.000 Y116.000 F650
G1 Z-3.000 F180
G1 X126.000 Y116.000 F650
G1 Z-4.500 F180
G1 X126.000 Y116.000 F650
G1 Z-6.000 F180
G1 X126.000 Y116.000 F650
G1 Z-6.350 F180
G1 X126.000 Y116.000 F650
G0 Z5.000
G0 X126.000 Y106.000
G0 Z0.500
G1 Z-1.500 F180
G1 X126.000 Y106.000 F650
G1 Z-3.000 F180
G1 X126.000 Y106.000 F650
G1 Z-4.500 F180
G1 X126.000 Y106.000 F650
G1 Z-6.000 F180
G1 X126.000 Y106.000 F650
G1 Z-6.350 F180
G1 X126.000 Y106.000 F650
G0 Z5.000
(relief holes for bottom)
G0 X6.000 Y186.000
G0 Z0.500
G1 Z-1.500 F180
G1 X6.000 Y186.000 F650
G1 Z-3.000 F180
G1 X6.000 Y186.000 F650
G1 Z-4.500 F180
G1 X6.000 Y186.000 F650
G1 Z-6.000 F180
G1 X6.000 Y186.000 F650
G1 Z-6.350 F180
G1 X6.000 Y186.000 F650
G0 Z5.000
G0 X16.667 Y186.000
G0 Z0.500
G1 Z-1.500 F180
G1 X16.667 Y186.000 F650
G1 Z-3.000 F180
G1 X16.667 Y186.000 F650
G1 Z-4.500 F180
G1 X16.667 Y186.000 F650
G1 Z-6.000 F180
G1 X16.667 Y186.000 F650
G1 Z-6.350 F180
G1 X16.667 Y186.000 F650
G0 Z5.000
G0 X27.333 Y186.000
G0 Z0.500
G1 Z-1.500 F180
G1 X27.333 Y186.000 F650
G1 Z-3.000 F180
G1 X27.333 Y186.000 F650
G1 Z-4.500 F180
G1 X27.333 Y186.000 F650
G1 Z-6.000 F180
G1 X27.333 Y186.000 F650
G1 Z-6.350 F180
G1 X27.333 Y186.000 F650
G0 Z5.000
G0 X38.000 Y186.000
G0 Z0.500
G1 Z-1.500 F180
G1 X38.000 Y186.000 F650
G1 Z-3.000 F180
G1 X38.000 Y186.000 F650
G1 Z-4.500 F180
G1 X38.000 Y186.000 F650
G1 Z-6.000 F180
G1 X38.000 Y186.000 F650
G1 Z-6.350 F180
G1 X38.000 Y186.000 F650
G0 Z5.000
G0 X48.667 Y186.000
G0 Z0.500
G1 Z-1.500 F180
G1 X48.667 Y186.000 F650
G1 Z-3.000 F180
G1 X48.667 Y186.000 F650
G1 Z-4.500 F180
G1 X48.667 Y186.000 F650
G1 Z-6.000 F180
G1 X48.667 Y186.000 F650
G1 Z-6.350 F180
G1 X48.667 Y186.000 F650
G0 Z5.000
G0 X59.333 Y186.000
G0 Z0.500
G1 Z-1.500 F180
G1 X59.333 Y186.000 F650
G1 Z-3.000 F180
G1 X59.333 Y186.000 F650
G1 Z-4.500 F180
G1 X59.333 Y186.000 F650
G1 Z-6.000 F180
G1 X59.333 Y186.000 F650
G1 Z-6.350 F180
G1 X59.333 Y186.000 F650
G0 Z5.000
G0 X70.000 Y186.000
G0 Z0.500
G1 Z-1.500 F180
G1 X70.000 Y186.000 F650
G1 Z-3.000 F180
G1 X70.000 Y186.000 F650
G1 Z-4.500 F180
G1 X70.000 Y186.000 F650
G1 Z-6.000 F180
G1 X70.000 Y186.000 F650
G1 Z-6.350 F180
G1 X70.000 Y186.000 F650
G0 Z5.000
G0 X80.667 Y186.000
G0 Z0.500
G1 Z-1.500 F180
G1 X80.667 Y186.000 F650
G1 Z-3.000 F180
G1 X80.667 Y186.000 F650
G1 Z-4.500 F180
G1 X80.667 Y186.000 F650
G1 Z-6.000 F180
G1 X80.667 Y186.000 F650
G1 Z-6.350 F180
G1 X80.667 Y186.000 F650
G0 Z5.000
G0 X91.333 Y186.000
G0 Z0.500
G1 Z-1.500 F180
G1 X91.333 Y186.000 F650
G1 Z-3.000 F180
G1 X91.333 Y186.000 F650
G1 Z-4.500 F180
G1 X91.333 Y186.000 F650
G1 Z-6.000 F180
G1 X91.333 Y186.000 F650
G1 Z-6.350 F180
G1 X91.333 Y186.000 F650
G0 Z5.000
G0 X102.000 Y186.000
G0 Z0.500
G1 Z-1.500 F180
G1 X102.000 Y186.000 F650
G1 Z-3.000 F180
G1 X102.000 Y186.000 F650
G1 Z-4.500 F180
G1 X102.000 Y186.000 F650
G1 Z-6.000 F180
G1 X102.000 Y186.000 F650
G1 Z-6.350 F180
G1 X102.000 Y186.000 F650
G0 Z5.000
G0 X112.667 Y186.000
G0 Z0.500
G1 Z-1.500 F180
G1 X112.667 Y186.000 F650
G1 Z-3.000 F180
G1 X112.667 Y186.000 F650
G1 Z-4.500 F180
G1 X112.667 Y186.000 F650
G1 Z-6.000 F180
G1 X112.667 Y186.000 F650
G1 Z-6.350 F180
G1 X112.667 Y186.000 F650
G0 Z5.000
G0 X123.333 Y186.000
G0 Z0.500
G1 Z-1.500 F180
G1 X123.333 Y186.000 F650
G1 Z-3.000 F180
G1 X123.333 Y186.000 F650
G1 Z-4.500 F180
G1 X123.333 Y186.000 F650
G1 Z-6.000 F180
G1 X123.333 Y186.000 F650
G1 Z-6.350 F180
G1 X123.333 Y186.000 F650
G0 Z5.000
G0 X134.000 Y186.000
G0 Z0.500
G1 Z-1.500 F180
G1 X134.000 Y186.000 F650
G1 Z-3.000 F180
G1 X134.000 Y186.000 F650
G1 Z-4.500 F180
G1 X134.000 Y186.000 F650
G1 Z-6.000 F180
G1 X134.000 Y186.000 F650
G1 Z-6.350 F180
G1 X134.000 Y186.000 F650
G0 Z5.000
G0 X144.667 Y186.000
G0 Z0.500
G1 Z-1.500 F180
G1 X144.667 Y186.000 F650
G1 Z-3.000 F180
G1 X144.667 Y186.000 F650
G1 Z-4.500 F180
G1 X144.667 Y186.000 F650
G1 Z-6.000 F180
G1 X144.667 Y186.000 F650
G1 Z-6.350 F180
G1 X144.667 Y186.000 F650
G0 Z5.000
G0 X155.333 Y186.000
G0 Z0.500
G1 Z-1.500 F180
G1 X155.333 Y186.000 F650
G1 Z-3.000 F180
G1 X155.333 Y186.000 F650
G1 Z-4.500 F180
G1 X155.333 Y186.000 F650
G1 Z-6.000 F180
G1 X155.333 Y186.000 F650
G1 Z-6.350 F180
G1 X155.333 Y186.000 F650
G0 Z5.000
G0 X166.000 Y186.000
G0 Z0.500
G1 Z-1.500 F180
G1 X166.000 Y186.000 F650
G1 Z-3.000 F180
G1 X166.000 Y186.000 F650
G1 Z-4.500 F180
G1 X166.000 Y186.000 F650
G1 Z-6.000 F180
G1 X166.000 Y186.000 F650
G1 Z-6.350 F180
G1 X166.000 Y186.000 F650
G0 Z5.000
G0 X166.000 Y197.111
G0 Z0.500
G1 Z-1.500 F180
G1 X166.000 Y197.111 F650
G1 Z-3.000 F180
G1 X166.000 Y197.111 F650
G1 Z-4.500 F180
G1 X166.000 Y197.111 F650
G1 Z-6.000 F180
G1 X166.000 Y197.111 F650
G1 Z-6.350 F180
G1 X166.000 Y197.111 F650
G0 Z5.000
G0 X166.000 Y208.222
G0 Z0.500
G1 Z-1.500 F180
G1 X166.000 Y208.222 F650
G1 Z-3.000 F180
G1 X166.000 Y208.222 F650
G1 Z-4.500 F180
G1 X166.000 Y208.222 F650
G1 Z-6.000 F180
G1 X166.000 Y208.222 F650
G1 Z-6.350 F180
G1 X166.000 Y208.222 F650
G0 Z5.000
G0 X166.000 Y219.333
G0 Z0.500
G1 Z-1.500 F180
G1 X166.000 Y219.333 F650
G1 Z-3.000 F180
G1 X166.000 Y219.333 F650
G1 Z-4.500 F180
G1 X166.000 Y219.333 F650
G1 Z-6.000 F180
G1 X166.000 Y219.333 F650
G1 Z-6.350 F180
G1 X166.000 Y219.333 F650
G0 Z5.000
G0 X166.000 Y230.444
G0 Z0.500
G1 Z-1.500 F180
G1 X166.000 Y230.444 F650
G1 Z-3.000 F180
G1 X166.000 Y230.444 F650
G1 Z-4.500 F180
G1 X166.000 Y230.444 F650
G1 Z-6.000 F180
G1 X166.000 Y230.444 F650
G1 Z-6.350 F180
G1 X166.000 Y230.444 F650
G0 Z5.000
G0 X166.000 Y241.556
G0 Z0.500
G1 Z-1.500 F180
G1 X166.000 Y241.556 F650
G1 Z-3.000 F180
G1 X166.000 Y241.556 F650
G1 Z-4.500 F180
G1 X166.000 Y241.556 F650
G1 Z-6.000 F180
G1 X166.000 Y241.556 F650
G1 Z-6.350 F180
G1 X166.000 Y241.556 F650
G0 Z5.000
G0 X166.000 Y252.667
G0 Z0.500
G1 Z-1.500 F180
G1 X166.000 Y252.667 F650
G1 Z-3.000 F180
G1 X166.000 Y252.667 F650
G1 Z-4.500 F180
G1 X166.000 Y252.667 F650
G1 Z-6.000 F180
G1 X166.000 Y252.667 F650
G1 Z-6.350 F180
G1 X166.000 Y252.667 F650
G0 Z5.000
G0 X166.000 Y263.778
G0 Z0.500
G1 Z-1.500 F180
G1 X166.000 Y263.778 F650
G1 Z-3.000 F180
G1 X166.000 Y263.778 F650
G1 Z-4.500 F180
G1 X166.000 Y263.778 F650
G1 Z-6.000 F180
G1 X166.000 Y263.778 F650
G1 Z-6.350 F180
G1 X166.000 Y263.778 F650
G0 Z5.000
G0 X166.000 Y274.889
G0 Z0.500
G1 Z-1.500 F180
G1 X166.000 Y274.889 F650
G1 Z-3.000 F180
G1 X166.000 Y274.889 F650
G1 Z-4.500 F180
G1 X166.000 Y274.889 F650
G1 Z-6.000 F180
G1 X166.000 Y274.889 F650
G1 Z-6.350 F180
G1 X166.000 Y274.889 F650
G0 Z5.000
G0 X166.000 Y286.000
G0 Z0.500
G1 Z-1.500 F180
G1 X166.000 Y286.000 F650
G1 Z-3.000 F180
G1 X166.000 Y286.000 F650
G1 Z-4.500 F180
G1 X166.000 Y286.000 F650
G1 Z-6.000 F180
G1 X166.000 Y286.000 F650
G1 Z-6.350 F180
G1 X166.000 Y286.000 F650
G0 Z5.000
G0 X155.333 Y286.000
G0 Z0.500
G1 Z-1.500 F180
G1 X155.333 Y286.000 F650
G1 Z-3.000 F180
G1 X155.333 Y286.000 F650
G1 Z-4.500 F180
G1 X155.333 Y286.000 F650
G1 Z-6.000 F180
G1 X155.333 Y286.000 F650
G1 Z-6.350 F180
G1 X155.333 Y286.000 F650
G0 Z5.000
G0 X144.667 Y286.000
G0 Z0.500
G1 Z-1.500 F180
G1 X144.667 Y286.000 F650
G1 Z-3.000 F180
G1 X144.667 Y286.000 F650
G1 Z-4.500 F180
G1 X144.667 Y286.000 F650
G1 Z-6.000 F180
G1 X144.667 Y286.000 F650
G1 Z-6.350 F180
G1 X144.667 Y286.000 F650
G0 Z5.000
G0 X134.000 Y286.000
G0 Z0.500
G1 Z-1.500 F180
G1 X134.000 Y286.000 F650
G1 Z-3.000 F180
G1 X134.000 Y286.000 F650
G1 Z-4.500 F180
G1 X134.000 Y286.000 F650
G1 Z-6.000 F180
G1 X134.000 Y286.000 F650
G1 Z-6.350 F180
G1 X134.000 Y286.000 F650
G0 Z5.000
G0 X123.333 Y286.000
G0 Z0.500
G1 Z-1.500 F180
G1 X123.333 Y286.000 F650
G1 Z-3.000 F180
G1 X123.333 Y286.000 F650
G1 Z-4.500 F180
G1 X123.333 Y286.000 F650
G1 Z-6.000 F180
G1 X123.333 Y286.000 F650
G1 Z-6.350 F180
G1 X123.333 Y286.000 F650
G0 Z5.000
G0 X112.667 Y286.000
G0 Z0.500
G1 Z-1.500 F180
G1 X112.667 Y286.000 F650
G1 Z-3.000 F180
G1 X112.667 Y286.000 F650
G1 Z-4.500 F180
G1 X112.667 Y286.000 F650
G1 Z-6.000 F180
G1 X112.667 Y286.000 F650
G1 Z-6.350 F180
G1 X112.667 Y286.000 F650
G0 Z5.000
G0 X102.000 Y286.000
G0 Z0.500
G1 Z-1.500 F180
G1 X102.000 Y286.000 F650
G1 Z-3.000 F180
G1 X102.000 Y286.000 F650
G1 Z-4.500 F180
G1 X102.000 Y286.000 F650
G1 Z-6.000 F180
G1 X102.000 Y286.000 F650
G1 Z-6.350 F180
G1 X102.000 Y286.000 F650
G0 Z5.000
G0 X91.333 Y286.000
G0 Z0.500
G1 Z-1.500 F180
G1 X91.333 Y286.000 F650
G1 Z-3.000 F180
G1 X91.333 Y286.000 F650
G1 Z-4.500 F180
G1 X91.333 Y286.000 F650
G1 Z-6.000 F180
G1 X91.333 Y286.000 F650
G1 Z-6.350 F180
G1 X91.333 Y286.000 F650
G0 Z5.000
G0 X80.667 Y286.000
G0 Z0.500
G1 Z-1.500 F180
G1 X80.667 Y286.000 F650
G1 Z-3.000 F180
G1 X80.667 Y286.000 F650
G1 Z-4.500 F180
G1 X80.667 Y286.000 F650
G1 Z-6.000 F180
G1 X80.667 Y286.000 F650
G1 Z-6.350 F180
G1 X80.667 Y286.000 F650
G0 Z5.000
G0 X70.000 Y286.000
G0 Z0.500
G1 Z-1.500 F180
G1 X70.000 Y286.000 F650
G1 Z-3.000 F180
G1 X70.000 Y286.000 F650
G1 Z-4.500 F180
G1 X70.000 Y286.000 F650
G1 Z-6.000 F180
G1 X70.000 Y286.000 F650
G1 Z-6.350 F180
G1 X70.000 Y286.000 F650
G0 Z5.000
G0 X59.333 Y286.000
G0 Z0.500
G1 Z-1.500 F180
G1 X59.333 Y286.000 F650
G1 Z-3.000 F180
G1 X59.333 Y286.000 F650
G1 Z-4.500 F180
G1 X59.333 Y286.000 F650
G1 Z-6.000 F180
G1 X59.333 Y286.000 F650
G1 Z-6.350 F180
G1 X59.333 Y286.000 F650
G0 Z5.000
G0 X48.667 Y286.000
G0 Z0.500
G1 Z-1.500 F180
G1 X48.667 Y286.000 F650
G1 Z-3.000 F180
G1 X48.667 Y286.000 F650
G1 Z-4.500 F180
G1 X48.667 Y286.000 F650
G1 Z-6.000 F180
G1 X48.667 Y286.000 F650
G1 Z-6.350 F180
G1 X48.667 Y286.000 F650
G0 Z5.000
G0 X38.000 Y286.000
G0 Z0.500
G1 Z-1.500 F180
G1 X38.000 Y286.000 F650
G1 Z-3.000 F180
G1 X38.000 Y286.000 F650
G1 Z-4.500 F180
G1 X38.000 Y286.000 F650
G1 Z-6.000 F180
G1 X38.000 Y286.000 F650
G1 Z-6.350 F180
G1 X38.000 Y286.000 F650
G0 Z5.000
G0 X27.333 Y286.000
G0 Z0.500
G1 Z-1.500 F180
G1 X27.333 Y286.000 F650
G1 Z-3.000 F180
G1 X27.333 Y286.000 F650
G1 Z-4.500 F180
G1 X27.333 Y286.000 F650
G1 Z-6.000 F180
G1 X27.333 Y286.000 F650
G1 Z-6.350 F180
G1 X27.333 Y286.000 F650
G0 Z5.000
G0 X16.667 Y286.000
G0 Z0.500
G1 Z-1.500 F180
G1 X16.667 Y286.000 F650
G1 Z-3.000 F180
G1 X16.667 Y286.000 F650
G1 Z-4.500 F180
G1 X16.667 Y286.000 F650
G1 Z-6.000 F180
G1 X16.667 Y286.000 F650
G1 Z-6.350 F180
G1 X16.667 Y286.000 F650
G0 Z5.000
G0 X6.000 Y286.000
G0 Z0.500
G1 Z-1.500 F180
G1 X6.000 Y286.000 F650
G1 Z-3.000 F180
G1 X6.000 Y286.000 F650
G1 Z-4.500 F180
G1 X6.000 Y286.000 F650
G1 Z-6.000 F180
G1 X6.000 Y286.000 F650
G1 Z-6.350 F180
G1 X6.000 Y286.000 F650
G0 Z5.000
G0 X6.000 Y274.889
G0 Z0.500
G1 Z-1.500 F180
G1 X6.000 Y274.889 F650
G1 Z-3.000 F180
G1 X6.000 Y274.889 F650
G1 Z-4.500 F180
G1 X6.000 Y274.889 F650
G1 Z-6.000 F180
G1 X6.000 Y274.889 F650
G1 Z-6.350 F180
G1 X6.000 Y274.889 F650
G0 Z5.000
G0 X6.000 Y263.778
G0 Z0.500
G1 Z-1.500 F180
G1 X6.000 Y263.778 F650
G1 Z-3.000 F180
G1 X6.000 Y263.778 F650
G1 Z-4.500 F180
G1 X6.000 Y263.778 F650
G1 Z-6.000 F180
G1 X6.000 Y263.778 F650
G1 Z-6.350 F180
G1 X6.000 Y263.778 F650
G0 Z5.000
G0 X6.000 Y252.667
G0 Z0.500
G1 Z-1.500 F180
G1 X6.000 Y252.667 F650
G1 Z-3.000 F180
G1 X6.000 Y252.667 F650
G1 Z-4.500 F180
G1 X6.000 Y252.667 F650
G1 Z-6.000 F180
G1 X6.000 Y252.667 F650
G1 Z-6.350 F180
G1 X6.000 Y252.667 F650
G0 Z5.000
G0 X6.000 Y241.556
G0 Z0.500
G1 Z-1.500 F180
G1 X6.000 Y241.556 F650
G1 Z-3.000 F180
G1 X6.000 Y241.556 F650
G1 Z-4.500 F180
G1 X6.000 Y241.556 F650
G1 Z-6.000 F180
G1 X6.000 Y241.556 F650
G1 Z-6.350 F180
G1 X6.000 Y241.556 F650
G0 Z5.000
G0 X6.000 Y230.444
G0 Z0.500
G1 Z-1.500 F180
G1 X6.000 Y230.444 F650
G1 Z-3.000 F180
G1 X6.000 Y230.444 F650
G1 Z-4.500 F180
G1 X6.000 Y230.444 F650
G1 Z-6.000 F180
G1 X6.000 Y230.444 F650
G1 Z-6.350 F180
G1 X6.000 Y230.444 F650
G0 Z5.000
G0 X6.000 Y219.333
G0 Z0.500
G1 Z-1.500 F180
G1 X6.000 Y219.333 F650
G1 Z-3.000 F180
G1 X6.000 Y219.333 F650
G1 Z-4.500 F180
G1 X6.000 Y219.333 F650
G1 Z-6.000 F180
G1 X6.000 Y219.333 F650
G1 Z-6.350 F180
G1 X6.000 Y219.333 F650
G0 Z5.000
G0 X6.000 Y208.222
G0 Z0.500
G1 Z-1.500 F180
G1 X6.000 Y208.222 F650
G1 Z-3.000 F180
G1 X6.000 Y208.222 F650
G1 Z-4.500 F180
G1 X6.000 Y208.222 F650
G1 Z-6.000 F180
G1 X6.000 Y208.222 F650
G1 Z-6.350 F180
G1 X6.000 Y208.222 F650
G0 Z5.000
G0 X6.000 Y197.111
G0 Z0.500
G1 Z-1.500 F180
G1 X6.000 Y197.111 F650
G1 Z-3.000 F180
G1 X6.000 Y197.111 F650
G1 Z-4.500 F180
G1 X6.000 Y197.111 F650
G1 Z-6.000 F180
G1 X6.000 Y197.111 F650
G1 Z-6.350 F180
G1 X6.000 Y197.111 F650
G0 Z5.000
(relief holes for top)
G0 X196.667 Y186.000
G0 Z0.500
G1 Z-1.500 F180
G1 X196.667 Y186.000 F650
G1 Z-3.000 F180
G1 X196.667 Y186.000 F650
G1 Z-4.500 F180
G1 X196.667 Y186.000 F650
G1 Z-6.000 F180
G1 X196.667 Y186.000 F650
G1 Z-6.350 F180
G1 X196.667 Y186.000 F650
G0 Z5.000
G0 X207.333 Y186.000
G0 Z0.500
G1 Z-1.500 F180
G1 X207.333 Y186.000 F650
G1 Z-3.000 F180
G1 X207.333 Y186.000 F650
G1 Z-4.500 F180
G1 X207.333 Y186.000 F650
G1 Z-6.000 F180
G1 X207.333 Y186.000 F650
G1 Z-6.350 F180
G1 X207.333 Y186.000 F650
G0 Z5.000
G0 X218.000 Y186.000
G0 Z0.500
G1 Z-1.500 F180
G1 X218.000 Y186.000 F650
G1 Z-3.000 F180
G1 X218.000 Y186.000 F650
G1 Z-4.500 F180
G1 X218.000 Y186.000 F650
G1 Z-6.000 F180
G1 X218.000 Y186.000 F650
G1 Z-6.350 F180
G1 X218.000 Y186.000 F650
G0 Z5.000
G0 X228.667 Y186.000
G0 Z0.500
G1 Z-1.500 F180
G1 X228.667 Y186.000 F650
G1 Z-3.000 F180
G1 X228.667 Y186.000 F650
G1 Z-4.500 F180
G1 X228.667 Y186.000 F650
G1 Z-6.000 F180
G1 X228.667 Y186.000 F650
G1 Z-6.350 F180
G1 X228.667 Y186.000 F650
G0 Z5.000
G0 X239.333 Y186.000
G0 Z0.500
G1 Z-1.500 F180
G1 X239.333 Y186.000 F650
G1 Z-3.000 F180
G1 X239.333 Y186.000 F650
G1 Z-4.500 F180
G1 X239.333 Y186.000 F650
G1 Z-6.000 F180
G1 X239.333 Y186.000 F650
G1 Z-6.350 F180
G1 X239.333 Y186.000 F650
G0 Z5.000
G0 X250.000 Y186.000
G0 Z0.500
G1 Z-1.500 F180
G1 X250.000 Y186.000 F650
G1 Z-3.000 F180
G1 X250.000 Y186.000 F650
G1 Z-4.500 F180
G1 X250.000 Y186.000 F650
G1 Z-6.000 F180
G1 X250.000 Y186.000 F650
G1 Z-6.350 F180
G1 X250.000 Y186.000 F650
G0 Z5.000
G0 X260.667 Y186.000
G0 Z0.500
G1 Z-1.500 F180
G1 X260.667 Y186.000 F650
G1 Z-3.000 F180
G1 X260.667 Y186.000 F650
G1 Z-4.500 F180
G1 X260.667 Y186.000 F650
G1 Z-6.000 F180
G1 X260.667 Y186.000 F650
G1 Z-6.350 F180
G1 X260.667 Y186.000 F650
G0 Z5.000
G0 X271.333 Y186.000
G0 Z0.500
G1 Z-1.500 F180
G1 X271.333 Y186.000 F650
G1 Z-3.000 F180
G1 X271.333 Y186.000 F650
G1 Z-4.500 F180
G1 X271.333 Y186.000 F650
G1 Z-6.000 F180
G1 X271.333 Y186.000 F650
G1 Z-6.350 F180
G1 X271.333 Y186.000 F650
G0 Z5.000
G0 X282.000 Y186.000
G0 Z0.500
G1 Z-1.500 F180
G1 X282.000 Y186.000 F650
G1 Z-3.000 F180
G1 X282.000 Y186.000 F650
G1 Z-4.500 F180
G1 X282.000 Y186.000 F650
G1 Z-6.000 F180
G1 X282.000 Y186.000 F650
G1 Z-6.350 F180
G1 X282.000 Y186.000 F650
G0 Z5.000
G0 X292.667 Y186.000
G0 Z0.500
G1 Z-1.500 F180
G1 X292.667 Y186.000 F650
G1 Z-3.000 F180
G1 X292.667 Y186.000 F650
G1 Z-4.500 F180
G1 X292.667 Y186.000 F650
G1 Z-6.000 F180
G1 X292.667 Y186.000 F650
G1 Z-6.350 F180
G1 X292.667 Y186.000 F650
G0 Z5.000
G0 X303.333 Y186.000
G0 Z0.500
G1 Z-1.500 F180
G1 X303.333 Y186.000 F650
G1 Z-3.000 F180
G1 X303.333 Y186.000 F650
G1 Z-4.500 F180
G1 X303.333 Y186.000 F650
G1 Z-6.000 F180
G1 X303.333 Y186.000 F650
G1 Z-6.350 F180
G1 X303.333 Y186.000 F650
G0 Z5.000
G0 X314.000 Y186.000
G0 Z0.500
G1 Z-1.500 F180
G1 X314.000 Y186.000 F650
G1 Z-3.000 F180
G1 X314.000 Y186.000 F650
G1 Z-4.500 F180
G1 X314.000 Y186.000 F650
G1 Z-6.000 F180
G1 X314.000 Y186.000 F650
G1 Z-6.350 F180
G1 X314.000 Y186.000 F650
G0 Z5.000
G0 X324.667 Y186.000
G0 Z0.500
G1 Z-1.500 F180
G1 X324.667 Y186.000 F650
G1 Z-3.000 F180
G1 X324.667 Y186.000 F650
G1 Z-4.500 F180
G1 X324.667 Y186.000 F650
G1 Z-6.000 F180
G1 X324.667 Y186.000 F650
G1 Z-6.350 F180
G1 X324.667 Y186.000 F650
G0 Z5.000
G0 X335.333 Y186.000
G0 Z0.500
G1 Z-1.500 F180
G1 X335.333 Y186.000 F650
G1 Z-3.000 F180
G1 X335.333 Y186.000 F650
G1 Z-4.500 F180
G1 X335.333 Y186.000 F650
G1 Z-6.000 F180
G1 X335.333 Y186.000 F650
G1 Z-6.350 F180
G1 X335.333 Y186.000 F650
G0 Z5.000
G0 X340.000 Y191.111
G0 Z0.500
G1 Z-1.500 F180
G1 X340.000 Y191.111 F650
G1 Z-3.000 F180
G1 X340.000 Y191.111 F650
G1 Z-4.500 F180
G1 X340.000 Y191.111 F650
G1 Z-6.000 F180
G1 X340.000 Y191.111 F650
G1 Z-6.350 F180
G1 X340.000 Y191.111 F650
G0 Z5.000
G0 X340.000 Y202.222
G0 Z0.500
G1 Z-1.500 F180
G1 X340.000 Y202.222 F650
G1 Z-3.000 F180
G1 X340.000 Y202.222 F650
G1 Z-4.500 F180
G1 X340.000 Y202.222 F650
G1 Z-6.000 F180
G1 X340.000 Y202.222 F650
G1 Z-6.350 F180
G1 X340.000 Y202.222 F650
G0 Z5.000
G0 X340.000 Y213.333
G0 Z0.500
G1 Z-1.500 F180
G1 X340.000 Y213.333 F650
G1 Z-3.000 F180
G1 X340.000 Y213.333 F650
G1 Z-4.500 F180
G1 X340.000 Y213.333 F650
G1 Z-6.000 F180
G1 X340.000 Y213.333 F650
G1 Z-6.350 F180
G1 X340.000 Y213.333 F650
G0 Z5.000
G0 X340.000 Y224.444
G0 Z0.500
G1 Z-1.500 F180
G1 X340.000 Y224.444 F650
G1 Z-3.000 F180
G1 X340.000 Y224.444 F650
G1 Z-4.500 F180
G1 X340.000 Y224.444 F650
G1 Z-6.000 F180
G1 X340.000 Y224.444 F650
G1 Z-6.350 F180
G1 X340.000 Y224.444 F650
G0 Z5.000
G0 X340.000 Y235.556
G0 Z0.500
G1 Z-1.500 F180
G1 X340.000 Y235.556 F650
G1 Z-3.000 F180
G1 X340.000 Y235.556 F650
G1 Z-4.500 F180
G1 X340.000 Y235.556 F650
G1 Z-6.000 F180
G1 X340.000 Y235.556 F650
G1 Z-6.350 F180
G1 X340.000 Y235.556 F650
G0 Z5.000
G0 X340.000 Y246.667
G0 Z0.500
G1 Z-1.500 F180
G1 X340.000 Y246.667 F650
G1 Z-3.000 F180
G1 X340.000 Y246.667 F650
G1 Z-4.500 F180
G1 X340.000 Y246.667 F650
G1 Z-6.000 F180
G1 X340.000 Y246.667 F650
G1 Z-6.350 F180
G1 X340.000 Y246.667 F650
G0 Z5.000
G0 X340.000 Y257.778
G0 Z0.500
G1 Z-1.500 F180
G1 X340.000 Y257.778 F650
G1 Z-3.000 F180
G1 X340.000 Y257.778 F650
G1 Z-4.500 F180
G1 X340.000 Y257.778 F650
G1 Z-6.000 F180
G1 X340.000 Y257.778 F650
G1 Z-6.350 F180
G1 X340.000 Y257.778 F650
G0 Z5.000
G0 X340.000 Y268.889
G0 Z0.500
G1 Z-1.500 F180
G1 X340.000 Y268.889 F650
G1 Z-3.000 F180
G1 X340.000 Y268.889 F650
G1 Z-4.500 F180
G1 X340.000 Y268.889 F650
G1 Z-6.000 F180
G1 X340.000 Y268.889 F650
G1 Z-6.350 F180
G1 X340.000 Y268.889 F650
G0 Z5.000
G0 X335.333 Y274.000
G0 Z0.500
G1 Z-1.500 F180
G1 X335.333 Y274.000 F650
G1 Z-3.000 F180
G1 X335.333 Y274.000 F650
G1 Z-4.500 F180
G1 X335.333 Y274.000 F650
G1 Z-6.000 F180
G1 X335.333 Y274.000 F650
G1 Z-6.350 F180
G1 X335.333 Y274.000 F650
G0 Z5.000
G0 X324.667 Y274.000
G0 Z0.500
G1 Z-1.500 F180
G1 X324.667 Y274.000 F650
G1 Z-3.000 F180
G1 X324.667 Y274.000 F650
G1 Z-4.500 F180
G1 X324.667 Y274.000 F650
G1 Z-6.000 F180
G1 X324.667 Y274.000 F650
G1 Z-6.350 F180
G1 X324.667 Y274.000 F650
G0 Z5.000
G0 X314.000 Y274.000
G0 Z0.500
G1 Z-1.500 F180
G1 X314.000 Y274.000 F650
G1 Z-3.000 F180
G1 X314.000 Y274.000 F650
G1 Z-4.500 F180
G1 X314.000 Y274.000 F650
G1 Z-6.000 F180
G1 X314.000 Y274.000 F650
G1 Z-6.350 F180
G1 X314.000 Y274.000 F650
G0 Z5.000
G0 X303.333 Y274.000
G0 Z0.500
G1 Z-1.500 F180
G1 X303.333 Y274.000 F650
G1 Z-3.000 F180
G1 X303.333 Y274.000 F650
G1 Z-4.500 F180
G1 X303.333 Y274.000 F650
G1 Z-6.000 F180
G1 X303.333 Y274.000 F650
G1 Z-6.350 F180
G1 X303.333 Y274.000 F650
G0 Z5.000
G0 X292.667 Y274.000
G0 Z0.500
G1 Z-1.500 F180
G1 X292.667 Y274.000 F650
G1 Z-3.000 F180
G1 X292.667 Y274.000 F650
G1 Z-4.500 F180
G1 X292.667 Y274.000 F650
G1 Z-6.000 F180
G1 X292.667 Y274.000 F650
G1 Z-6.350 F180
G1 X292.667 Y274.000 F650
G0 Z5.000
G0 X282.000 Y274.000
G0 Z0.500
G1 Z-1.500 F180
G1 X282.000 Y274.000 F650
G1 Z-3.000 F180
G1 X282.000 Y274.000 F650
G1 Z-4.500 F180
G1 X282.000 Y274.000 F650
G1 Z-6.000 F180
G1 X282.000 Y274.000 F650
G1 Z-6.350 F180
G1 X282.000 Y274.000 F650
G0 Z5.000
G0 X271.333 Y274.000
G0 Z0.500
G1 Z-1.500 F180
G1 X271.333 Y274.000 F650
G1 Z-3.000 F180
G1 X271.333 Y274.000 F650
G1 Z-4.500 F180
G1 X271.333 Y274.000 F650
G1 Z-6.000 F180
G1 X271.333 Y274.000 F650
G1 Z-6.350 F180
G1 X271.333 Y274.000 F650
G0 Z5.000
G0 X260.667 Y274.000
G0 Z0.500
G1 Z-1.500 F180
G1 X260.667 Y274.000 F650
G1 Z-3.000 F180
G1 X260.667 Y274.000 F650
G1 Z-4.500 F180
G1 X260.667 Y274.000 F650
G1 Z-6.000 F180
G1 X260.667 Y274.000 F650
G1 Z-6.350 F180
G1 X260.667 Y274.000 F650
G0 Z5.000
G0 X250.000 Y274.000
G0 Z0.500
G1 Z-1.500 F180
G1 X250.000 Y274.000 F650
G1 Z-3.000 F180
G1 X250.000 Y274.000 F650
G1 Z-4.500 F180
G1 X250.000 Y274.000 F650
G1 Z-6.000 F180
G1 X250.000 Y274.000 F650
G1 Z-6.350 F180
G1 X250.000 Y274.000 F650
G0 Z5.000
G0 X239.333 Y274.000
G0 Z0.500
G1 Z-1.500 F180
G1 X239.333 Y274.000 F650
G1 Z-3.000 F180
G1 X239.333 Y274.000 F650
G1 Z-4.500 F180
G1 X239.333 Y274.000 F650
G1 Z-6.000 F180
G1 X239.333 Y274.000 F650
G1 Z-6.350 F180
G1 X239.333 Y274.000 F650
G0 Z5.000
G0 X228.667 Y274.000
G0 Z0.500
G1 Z-1.500 F180
G1 X228.667 Y274.000 F650
G1 Z-3.000 F180
G1 X228.667 Y274.000 F650
G1 Z-4.500 F180
G1 X228.667 Y274.000 F650
G1 Z-6.000 F180
G1 X228.667 Y274.000 F650
G1 Z-6.350 F180
G1 X228.667 Y274.000 F650
G0 Z5.000
G0 X218.000 Y274.000
G0 Z0.500
G1 Z-1.500 F180
G1 X218.000 Y274.000 F650
G1 Z-3.000 F180
G1 X218.000 Y274.000 F650
G1 Z-4.500 F180
G1 X218.000 Y274.000 F650
G1 Z-6.000 F180
G1 X218.000 Y274.000 F650
G1 Z-6.350 F180
G1 X218.000 Y274.000 F650
G0 Z5.000
G0 X207.333 Y274.000
G0 Z0.500
G1 Z-1.500 F180
G1 X207.333 Y274.000 F650
G1 Z-3.000 F180
G1 X207.333 Y274.000 F650
G1 Z-4.500 F180
G1 X207.333 Y274.000 F650
G1 Z-6.000 F180
G1 X207.333 Y274.000 F650
G1 Z-6.350 F180
G1 X207.333 Y274.000 F650
G0 Z5.000
G0 X196.667 Y274.000
G0 Z0.500
G1 Z-1.500 F180
G1 X196.667 Y274.000 F650
G1 Z-3.000 F180
G1 X196.667 Y274.000 F650
G1 Z-4.500 F180
G1 X196.667 Y274.000 F650
G1 Z-6.000 F180
G1 X196.667 Y274.000 F650
G1 Z-6.350 F180
G1 X196.667 Y274.000 F650
G0 Z5.000
G0 X192.000 Y268.889
G0 Z0.500
G1 Z-1.500 F180
G1 X192.000 Y268.889 F650
G1 Z-3.000 F180
G1 X192.000 Y268.889 F650
G1 Z-4.500 F180
G1 X192.000 Y268.889 F650
G1 Z-6.000 F180
G1 X192.000 Y268.889 F650
G1 Z-6.350 F180
G1 X192.000 Y268.889 F650
G0 Z5.000
G0 X192.000 Y257.778
G0 Z0.500
G1 Z-1.500 F180
G1 X192.000 Y257.778 F650
G1 Z-3.000 F180
G1 X192.000 Y257.778 F650
G1 Z-4.500 F180
G1 X192.000 Y257.778 F650
G1 Z-6.000 F180
G1 X192.000 Y257.778 F650
G1 Z-6.350 F180
G1 X192.000 Y257.778 F650
G0 Z5.000
G0 X192.000 Y246.667
G0 Z0.500
G1 Z-1.500 F180
G1 X192.000 Y246.667 F650
G1 Z-3.000 F180
G1 X192.000 Y246.667 F650
G1 Z-4.500 F180
G1 X192.000 Y246.667 F650
G1 Z-6.000 F180
G1 X192.000 Y246.667 F650
G1 Z-6.350 F180
G1 X192.000 Y246.667 F650
G0 Z5.000
G0 X192.000 Y235.556
G0 Z0.500
G1 Z-1.500 F180
G1 X192.000 Y235.556 F650
G1 Z-3.000 F180
G1 X192.000 Y235.556 F650
G1 Z-4.500 F180
G1 X192.000 Y235.556 F650
G1 Z-6.000 F180
G1 X192.000 Y235.556 F650
G1 Z-6.350 F180
G1 X192.000 Y235.556 F650
G0 Z5.000
G0 X192.000 Y224.444
G0 Z0.500
G1 Z-1.500 F180
G1 X192.000 Y224.444 F650
G1 Z-3.000 F180
G1 X192.000 Y224.444 F650
G1 Z-4.500 F180
G1 X192.000 Y224.444 F650
G1 Z-6.000 F180
G1 X192.000 Y224.444 F650
G1 Z-6.350 F180
G1 X192.000 Y224.444 F650
G0 Z5.000
G0 X192.000 Y213.333
G0 Z0.500
G1 Z-1.500 F180
G1 X192.000 Y213.333 F650
G1 Z-3.000 F180
G1 X192.000 Y213.333 F650
G1 Z-4.500 F180
G1 X192.000 Y213.333 F650
G1 Z-6.000 F180
G1 X192.000 Y213.333 F650
G1 Z-6.350 F180
G1 X192.000 Y213.333 F650
G0 Z5.000
G0 X192.000 Y202.222
G0 Z0.500
G1 Z-1.500 F180
G1 X192.000 Y202.222 F650
G1 Z-3.000 F180
G1 X192.000 Y202.222 F650
G1 Z-4.500 F180
G1 X192.000 Y202.222 F650
G1 Z-6.000 F180
G1 X192.000 Y202.222 F650
G1 Z-6.350 F180
G1 X192.000 Y202.222 F650
G0 Z5.000
G0 X192.000 Y191.111
G0 Z0.500
G1 Z-1.500 F180
G1 X192.000 Y191.111 F650
G1 Z-3.000 F180
G1 X192.000 Y191.111 F650
G1 Z-4.500 F180
G1 X192.000 Y191.111 F650
G1 Z-6.000 F180
G1 X192.000 Y191.111 F650
G1 Z-6.350 F180
G1 X192.000 Y191.111 F650
G0 Z5.000
(profile cut with 3.175 mm cutter)
(front panel)
G0 X0.000 Y0.000
G0 Z0.500
G1 Z-1.500 F180
G1 F650
G1 X3.833 Y0.000
G1 X6.833 Y0.000
G1 X10.667 Y0.000
G1 X10.667 Y6.000
G1 X21.333 Y6.000
G1 X21.333 Y0.000
G1 X25.167 Y0.000
G1 X28.167 Y0.000
G1 X32.000 Y0.000
G1 X32.000 Y6.000
G1 X42.667 Y6.000
G1 X42.667 Y0.000
G1 X46.500 Y0.000
G1 X49.500 Y0.000
G1 X53.333 Y0.000
G1 X53.333 Y6.000
G1 X64.000 Y6.000
G1 X64.000 Y0.000
G1 X67.833 Y0.000
G1 X70.833 Y0.000
G1 X74.667 Y0.000
G1 X74.667 Y6.000
G1 X85.333 Y6.000
G1 X85.333 Y0.000
G1 X89.167 Y0.000
G1 X92.167 Y0.000
G1 X96.000 Y0.000
G1 X96.000 Y6.000
G1 X106.667 Y6.000
G1 X106.667 Y0.000
G1 X110.500 Y0.000
G1 X113.500 Y0.000
G1 X117.333 Y0.000
G1 X117.333 Y6.000
G1 X128.000 Y6.000
G1 X128.000 Y0.000
G1 X131.833 Y0.000
G1 X134.833 Y0.000
G1 X138.667 Y0.000
G1 X138.667 Y6.000
G1 X149.333 Y6.000
G1 X149.333 Y0.000
G1 X153.167 Y0.000
G1 X156.167 Y0.000
G1 X160.000 Y0.000
G1 X161.500 Y0.000
G1 X164.500 Y0.000
G1 X166.000 Y0.000
G1 X166.000 Y3.500
G1 X166.000 Y6.500
G1 X166.000 Y10.000
G1 X160.000 Y10.000
G1 X160.000 Y20.000
G1 X166.000 Y20.000
G1 X166.000 Y23.500
G1 X166.000 Y26.500
G1 X166.000 Y30.000
G1 X160.000 Y30.000
G1 X160.000 Y40.000
G1 X166.000 Y40.000
G1 X166.000 Y43.500
G1 X166.000 Y46.500
G1 X166.000 Y50.000
G1 X160.000 Y50.000
G1 X160.000 Y60.000
G1 X166.000 Y60.000
G1 X166.000 Y63.500
G1 X166.000 Y66.500
G1 X166.000 Y70.000
G1 X160.000 Y70.000
G1 X160.000 Y76.000
G1 X156.167 Y76.000
G1 X153.167 Y76.000
G1 X149.333 Y76.000
G1 X149.333 Y70.000
G1 X138.667 Y70.000
G1 X138.667 Y76.000
G1 X134.833 Y76.000
G1 X131.833 Y76.000
G1 X128.000 Y76.000
G1 X128.000 Y70.000
G1 X117.333 Y70.000
G1 X117.333 Y76.000
G1 X113.500 Y76.000
G1 X110.500 Y76.000
G1 X106.667 Y76.000
G1 X106.667 Y70.000
G1 X96.000 Y70.000
G1 X96.000 Y76.000
G1 X92.167 Y76.000
G1 X89.167 Y76.000
G1 X85.333 Y76.000
G1 X85.333 Y70.000
G1 X74.667 Y70.000
G1 X74.667 Y76.000
G1 X70.833 Y76.000
G1 X67.833 Y76.000
G1 X64.000 Y76.000
G1 X64.000 Y70.000
G1 X53.333 Y70.000
G1 X53.333 Y76.000
G1 X49.500 Y76.000
G1 X46.500 Y76.000
G1 X42.667 Y76.000
G1 X42.667 Y70.000
G1 X32.000 Y70.000
G1 X32.000 Y76.000
G1 X28.167 Y76.000
G1 X25.167 Y76.000
G1 X21.333 Y76.000
G1 X21.333 Y70.000
G1 X10.667 Y70.000
G1 X10.667 Y76.000
G1 X6.833 Y76.000
G1 X3.833 Y76.000
G1 X0.000 Y76.000
G1 X0.000 Y74.500
G1 X0.000 Y71.500
G1 X0.000 Y70.000
G1 X0.000 Y66.500
G1 X0.000 Y63.500
G1 X0.000 Y60.000
G1 X6.000 Y60.000
G1 X6.000 Y50.000
G1 X0.000 Y50.000
G1 X0.000 Y46.500
G1 X0.000 Y43.500
G1 X0.000 Y40.000
G1 X6.000 Y40.000
G1 X6.000 Y30.000
G1 X0.000 Y30.000
G1 X0.000 Y26.500
G1 X0.000 Y23.500
G1 X0.000 Y20.000
G1 X6.000 Y20.000
G1 X6.000 Y10.000
G1 X0.000 Y10.000
G1 X0.000 Y6.500
G1 X0.000 Y3.500
G1 X0.000 Y0.000
G0 Z5.000
G0 X0.000 Y0.000
G0 Z0.500
G1 Z-3.000 F180
G1 F650
G1 X3.833 Y0.000
G1 Z-1.500 F180
G1 X6.833 Y0.000
G1 Z-3.000 F180
G1 X10.667 Y0.000
G1 X10.667 Y6.000
G1 X21.333 Y6.000
G1 X21.333 Y0.000
G1 X25.167 Y0.000
G1 Z-1.500 F180
G1 X28.167 Y0.000
G1 Z-3.000 F180
G1 X32.000 Y0.000
G1 X32.000 Y6.000
G1 X42.667 Y6.000
G1 X42.667 Y0.000
G1 X46.500 Y0.000
G1 Z-1.500 F180
G1 X49.500 Y0.000
G1 Z-3.000 F180
G1 X53.333 Y0.000
G1 X53.333 Y6.000
G1 X64.000 Y6.000
G1 X64.000 Y0.000
G1 X67.833 Y0.000
G1 Z-1.500 F180
G1 X70.833 Y0.000
G1 Z-3.000 F180
G1 X74.667 Y0.000
G1 X74.667 Y6.000
G1 X85.333 Y6.000
G1 X85.333 Y0.000
G1 X89.167 Y0.000
G1 Z-1.500 F180
G1 X92.167 Y0.000
G1 Z-3.000 F180
G1 X96.000 Y0.000
G1 X96.000 Y6.000
G1 X106.667 Y6.000
G1 X106.667 Y0.000
G1 X110.500 Y0.000
G1 Z-1.500 F180
G1 X113.500 Y0.000
G1 Z-3.000 F180
G1 X117.333 Y0.000
G1 X117.333 Y6.000
G1 X128.000 Y6.000
G1 X128.000 Y0.000
G1 X131.833 Y0.000
G1 Z-1.500 F180
G1 X134.833 Y0.000
G1 Z-3.000 F180
G1 X138.667 Y0.000
G1 X138.667 Y6.000
G1 X149.333 Y6.000
G1 X149.333 Y0.000
G1 X153.167 Y0.000
G1 Z-1.500 F180
G1 X156.167 Y0.000
G1 Z-3.000 F180
G1 X160.000 Y0.000
G1 X161.500 Y0.000
G1 Z-1.500 F180
G1 X164.500 Y0.000
G1 Z-3.000 F180
G1 X166.000 Y0.000
G1 X166.000 Y3.500
G1 Z-1.500 F180
G1 X166.000 Y6.500
G1 Z-3.000 F180
G1 X166.000 Y10.000
G1 X160.000 Y10.000
G1 X160.000 Y20.000
G1 X166.000 Y20.000
G1 X166.000 Y23.500
G1 Z-1.500 F180
G1 X166.000 Y26.500
G1 Z-3.000 F180
G1 X166.000 Y30.000
G1 X160.000 Y30.000
G1 X160.000 Y40.000
G1 X166.000 Y40.000
G1 X166.000 Y43.500
G1 Z-1.500 F180
G1 X166.000 Y46.500
G1 Z-3.000 F180
G1 X166.000 Y50.000
G1 X160.000 Y50.000
G1 X160.000 Y60.000
G1 X166.000 Y60.000
G1 X166.000 Y63.500
G1 Z-1.500 F180
G1 X166.000 Y66.500
G1 Z-3.000 F180
G1 X166.000 Y70.000
G1 X160.000 Y70.000
G1 X160.000 Y76.000
G1 X156.167 Y76.000
G1 Z-1.500 F180
G1 X153.167 Y76.000
G1 Z-3.000 F180
G1 X149.333 Y76.000
G1 X149.333 Y70.000
G1 X138.667 Y70.000
G1 X138.667 Y76.000
G1 X134.833 Y76.000
G1 Z-1.500 F180
G1 X131.833 Y76.000
G1 Z-3.000 F180
G1 X128.000 Y76.000
G1 X128.000 Y70.000
G1 X117.333 Y70.000
G1 X117.333 Y76.000
G1 X113.500 Y76.000
G1 Z-1.500 F180
G1 X110.500 Y76.000
G1 Z-3.000 F180
G1 X106.667 Y76.000
G1 X106.667 Y70.000
G1 X96.000 Y70.000
G1 X96.000 Y76.000
G1 X92.167 Y76.000
G1 Z-1.500 F180
G1 X89.167 Y76.000
G1 Z-3.000 F180
G1 X85.333 Y76.000
G1 X85.333 Y70.000
G1 X74.667 Y70.000
G1 X74.667 Y76.000
G1 X70.833 Y76.000
G1 Z-1.500 F180
G1 X67.833 Y76.000
G1 Z-3.000 F180
G1 X64.000 Y76.000
G1 X64.000 Y70.000
G1 X53.333 Y70.000
G1 X53.333 Y76.000
G1 X49.500 Y76.000
G1 Z-1.500 F180
G1 X46.500 Y76.000
G1 Z-3.000 F180
G1 X42.667 Y76.000
G1 X42.667 Y70.000
G1 X32.000 Y70.000
G1 X32.000 Y76.000
G1 X28.167 Y76.000
G1 Z-1.500 F180
G1 X25.167 Y76.000
G1 Z-3.000 F180
G1 X21.333 Y76.000
G1 X21.333 Y70.000
G1 X10.667 Y70.000
G1 X10.667 Y76.000
G1 X6.833 Y76.000
G1 Z-1.500 F180
G1 X3.833 Y76.000
G1 Z-3.000 F180
G1 X0.000 Y76.000
G1 X0.000 Y74.500
G1 Z-1.500 F180
G1 X0.000 Y71.500
G1 Z-3.000 F180
G1 X0.000 Y70.000
G1 X0.000 Y66.500
G1 Z-1.500 F180
G1 X0.000 Y63.500
G1 Z-3.000 F180
G1 X0.000 Y60.000
G1 X6.000 Y60.000
G1 X6.000 Y50.000
G1 X0.000 Y50.000
G1 X0.000 Y46.500
G1 Z-1.500 F180
G1 X0.000 Y43.500
G1 Z-3.000 F180
G1 X0.000 Y40.000
G1 X6.000 Y40.000
G1 X6.000 Y30.000
G1 X0.000 Y30.000
G1 X0.000 Y26.500
G1 Z-1.500 F180
G1 X0.000 Y23.500
G1 Z-3.000 F180
G1 X0.000 Y20.000
G1 X6.000 Y20.000
G1 X6.000 Y10.000
G1 X0.000 Y10.000
G1 X0.000 Y6.500
G1 Z-1.500 F180
G1 X0.000 Y3.500
G1 Z-3.000 F180
G1 X0.000 Y0.000
G0 Z5.000
G0 X0.000 Y0.000
G0 Z0.500
G1 Z-4.500 F180
G1 F650
G1 X3.833 Y0.000
G1 Z-1.500 F180
G1 X6.833 Y0.000
G1 Z-4.500 F180
G1 X10.667 Y0.000
G1 X10.667 Y6.000
G1 X21.333 Y6.000
G1 X21.333 Y0.000
G1 X25.167 Y0.000
G1 Z-1.500 F180
G1 X28.167 Y0.000
G1 Z-4.500 F180
G1 X32.000 Y0.000
G1 X32.000 Y6.000
G1 X42.667 Y6.000
G1 X42.667 Y0.000
G1 X46.500 Y0.000
G1 Z-1.500 F180
G1 X49.500 Y0.000
G1 Z-4.500 F180
G1 X53.333 Y0.000
G1 X53.333 Y6.000
G1 X64.000 Y6.000
G1 X64.000 Y0.000
G1 X67.833 Y0.000
G1 Z-1.500 F180
G1 X70.833 Y0.000
G1 Z-4.500 F180
G1 X74.667 Y0.000
G1 X74.667 Y6.000
G1 X85.333 Y6.000
G1 X85.333 Y0.000
G1 X89.167 Y0.000
G1 Z-1.500 F180
G1 X92.167 Y0.000
G1 Z-4.500 F180
G1 X96.000 Y0.000
G1 X96.000 Y6.000
G1 X106.667 Y6.000
G1 X106.667 Y0.000
G1 X110.500 Y0.000
G1 Z-1.500 F180
G1 X113.500 Y0.000
G1 Z-4.500 F180
G1 X117.333 Y0.000
G1 X117.333 Y6.000
G1 X128.000 Y6.000
G1 X128.000 Y0.000
G1 X131.833 Y0.000
G1 Z-1.500 F180
G1 X134.833 Y0.000
G1 Z-4.500 F180
G1 X138.667 Y0.000
G1 X138.667 Y6.000
G1 X149.333 Y6.000
G1 X149.333 Y0.000
G1 X153.167 Y0.000
G1 Z-1.500 F180
G1 X156.167 Y0.000
G1 Z-4.500 F180
G1 X160.000 Y0.000
G1 X161.500 Y0.000
G1 Z-1.500 F180
G1 X164.500 Y0.000
G1 Z-4.500 F180
G1 X166.000 Y0.000
G1 X166.000 Y3.500
G1 Z-1.500 F180
G1 X166.000 Y6.500
G1 Z-4.500 F180
G1 X166.000 Y10.000
G1 X160.000 Y10.000
G1 X160.000 Y20.000
G1 X166.000 Y20.000
G1 X166.000 Y23.500
G1 Z-1.500 F180
G1 X166.000 Y26.500
G1 Z-4.500 F180
G1 X166.000 Y30.000
G1 X160.000 Y30.000
G1 X160.000 Y40.000
G1 X166.000 Y40.000
G1 X166.000 Y43.500
G1 Z-1.500 F180
G1 X166.000 Y46.500
G1 Z-4.500 F180
G1 X166.000 Y50.000
G1 X160.000 Y50.000
G1 X160.000 Y60.000
G1 X166.000 Y60.000
G1 X166.000 Y63.500
G1 Z-1.500 F180
G1 X166.000 Y66.500
G1 Z-4.500 F180
G1 X166.000 Y70.000
G1 X160.000 Y70.000
G1 X160.000 Y76.000
G1 X156.167 Y76.000
G1 Z-1.500 F180
G1 X153.167 Y76.000
G1 Z-4.500 F180
G1 X149.333 Y76.000
G1 X149.333 Y70.000
G1 X138.667 Y70.000
G1 X138.667 Y76.000
G1 X134.833 Y76.000
G1 Z-1.500 F180
G1 X131.833 Y76.000
G1 Z-4.500 F180
G1 X128.000 Y76.000
G1 X128.000 Y70.000
G1 X117.333 Y70.000
G1 X117.333 Y76.000
G1 X113.500 Y76.000
G1 Z-1.500 F180
G1 X110.500 Y76.000
G1 Z-4.500 F180
G1 X106.667 Y76.000
G1 X106.667 Y70.000
G1 X96.000 Y70.000
G1 X96.000 Y76.000
G1 X92.167 Y76.000
G1 Z-1.500 F180
G1 X89.167 Y76.000
G1 Z-4.500 F180
G1 X85.333 Y76.000
G1 X85.333 Y70.000
G1 X74.667 Y70.000
G1 X74.667 Y76.000
G1 X70.833 Y76.000
G1 Z-1.500 F180
G1 X67.833 Y76.000
G1 Z-4.500 F180
G1 X64.000 Y76.000
G1 X64.000 Y70.000
G1 X53.333 Y70.000
G1 X53.333 Y76.000
G1 X49.500 Y76.000
G1 Z-1.500 F180
G1 X46.500 Y76.000
G1 Z-4.500 F180
G1 X42.667 Y76.000
G1 X42.667 Y70.000
G1 X32.000 Y70.000
G1 X32.000 Y76.000
G1 X28.167 Y76.000
G1 Z-1.500 F180
G1 X25.167 Y76.000
G1 Z-4.500 F180
G1 X21.333 Y76.000
G1 X21.333 Y70.000
G1 X10.667 Y70.000
G1 X10.667 Y76.000
G1 X6.833 Y76.000
G1 Z-1.500 F180
G1 X3.833 Y76.000
G1 Z-4.500 F180
G1 X0.000 Y76.000
G1 X0.000 Y74.500
G1 Z-1.500 F180
G1 X0.000 Y71.500
G1 Z-4.500 F180
G1 X0.000 Y70.000
G1 X0.000 Y66.500
G1 Z-1.500 F180
G1 X0.000 Y63.500
G1 Z-4.500 F180
G1 X0.000 Y60.000
G1 X6.000 Y60.000
G1 X6.000 Y50.000
G1 X0.000 Y50.000
G1 X0.000 Y46.500
G1 Z-1.500 F180
G1 X0.000 Y43.500
G1 Z-4.500 F180
G1 X0.000 Y40.000
G1 X6.000 Y40.000
G1 X6.000 Y30.000
G1 X0.000 Y30.000
G1 X0.000 Y26.500
G1 Z-1.500 F180
G1 X0.000 Y23.500
G1 Z-4.500 F180
G1 X0.000 Y20.000
G1 X6.000 Y20.000
G1 X6.000 Y10.000
G1 X0.000 Y10.000
G1 X0.000 Y6.500
G1 Z-1.500 F180
G1 X0.000 Y3.500
G1 Z-4.500 F180
G1 X0.000 Y0.000
G0 Z5.000
G0 X0.000 Y0.000
G0 Z0.500
G1 Z-6.000 F180
G1 F650
G1 X3.833 Y0.000
G1 Z-1.500 F180
G1 X6.833 Y0.000
G1 Z-6.000 F180
G1 X10.667 Y0.000
G1 X10.667 Y6.000
G1 X21.333 Y6.000
G1 X21.333 Y0.000
G1 X25.167 Y0.000
G1 Z-1.500 F180
G1 X28.167 Y0.000
G1 Z-6.000 F180
G1 X32.000 Y0.000
G1 X32.000 Y6.000
G1 X42.667 Y6.000
G1 X42.667 Y0.000
G1 X46.500 Y0.000
G1 Z-1.500 F180
G1 X49.500 Y0.000
G1 Z-6.000 F180
G1 X53.333 Y0.000
G1 X53.333 Y6.000
G1 X64.000 Y6.000
G1 X64.000 Y0.000
G1 X67.833 Y0.000
G1 Z-1.500 F180
G1 X70.833 Y0.000
G1 Z-6.000 F180
G1 X74.667 Y0.000
G1 X74.667 Y6.000
G1 X85.333 Y6.000
G1 X85.333 Y0.000
G1 X89.167 Y0.000
G1 Z-1.500 F180
G1 X92.167 Y0.000
G1 Z-6.000 F180
G1 X96.000 Y0.000
G1 X96.000 Y6.000
G1 X106.667 Y6.000
G1 X106.667 Y0.000
G1 X110.500 Y0.000
G1 Z-1.500 F180
G1 X113.500 Y0.000
G1 Z-6.000 F180
G1 X117.333 Y0.000
G1 X117.333 Y6.000
G1 X128.000 Y6.000
G1 X128.000 Y0.000
G1 X131.833 Y0.000
G1 Z-1.500 F180
G1 X134.833 Y0.000
G1 Z-6.000 F180
G1 X138.667 Y0.000
G1 X138.667 Y6.000
G1 X149.333 Y6.000
G1 X149.333 Y0.000
G1 X153.167 Y0.000
G1 Z-1.500 F180
G1 X156.167 Y0.000
G1 Z-6.000 F180
G1 X160.000 Y0.000
G1 X161.500 Y0.000
G1 Z-1.500 F180
G1 X164.500 Y0.000
G1 Z-6.000 F180
G1 X166.000 Y0.000
G1 X166.000 Y3.500
G1 Z-1.500 F180
G1 X166.000 Y6.500
G1 Z-6.000 F180
G1 X166.000 Y10.000
G1 X160.000 Y10.000
G1 X160.000 Y20.000
G1 X166.000 Y20.000
G1 X166.000 Y23.500
G1 Z-1.500 F180
G1 X166.000 Y26.500
G1 Z-6.000 F180
G1 X166.000 Y30.000
G1 X160.000 Y30.000
G1 X160.000 Y40.000
G1 X166.000 Y40.000
G1 X166.000 Y43.500
G1 Z-1.500 F180
G1 X166.000 Y46.500
G1 Z-6.000 F180
G1 X166.000 Y50.000
G1 X160.000 Y50.000
G1 X160.000 Y60.000
G1 X166.000 Y60.000
G1 X166.000 Y63.500
G1 Z-1.500 F180
G1 X166.000 Y66.500
G1 Z-6.000 F180
G1 X166.000 Y70.000
G1 X160.000 Y70.000
G1 X160.000 Y76.000
G1 X156.167 Y76.000
G1 Z-1.500 F180
G1 X153.167 Y76.000
G1 Z-6.000 F180
G1 X149.333 Y76.000
G1 X149.333 Y70.000
G1 X138.667 Y70.000
G1 X138.667 Y76.000
G1 X134.833 Y76.000
G1 Z-1.500 F180
G1 X131.833 Y76.000
G1 Z-6.000 F180
G1 X128.000 Y76.000
G1 X128.000 Y70.000
G1 X117.333 Y70.000
G1 X117.333 Y76.000
G1 X113.500 Y76.000
G1 Z-1.500 F180
G1 X110.500 Y76.000
G1 Z-6.000 F180
G1 X106.667 Y76.000
G1 X106.667 Y70.000
G1 X96.000 Y70.000
G1 X96.000 Y76.000
G1 X92.167 Y76.000
G1 Z-1.500 F180
G1 X89.167 Y76.000
G1 Z-6.000 F180
G1 X85.333 Y76.000
G1 X85.333 Y70.000
G1 X74.667 Y70.000
G1 X74.667 Y76.000
G1 X70.833 Y76.000
G1 Z-1.500 F180
G1 X67.833 Y76.000
G1 Z-6.000 F180
G1 X64.000 Y76.000
G1 X64.000 Y70.000
G1 X53.333 Y70.000
G1 X53.333 Y76.000
G1 X49.500 Y76.000
G1 Z-1.500 F180
G1 X46.500 Y76.000
G1 Z-6.000 F180
G1 X42.667 Y76.000
G1 X42.667 Y70.000
G1 X32.000 Y70.000
G1 X32.000 Y76.000
G1 X28.167 Y76.000
G1 Z-1.500 F180
G1 X25.167 Y76.000
G1 Z-6.000 F180
G1 X21.333 Y76.000
G1 X21.333 Y70.000
G1 X10.667 Y70.000
G1 X10.667 Y76.000
G1 X6.833 Y76.000
G1 Z-1.500 F180
G1 X3.833 Y76.000
G1 Z-6.000 F180
G1 X0.000 Y76.000
G1 X0.000 Y74.500
G1 Z-1.500 F180
G1 X0.000 Y71.500
G1 Z-6.000 F180
G1 X0.000 Y70.000
G1 X0.000 Y66.500
G1 Z-1.500 F180
G1 X0.000 Y63.500
G1 Z-6.000 F180
G1 X0.000 Y60.000
G1 X6.000 Y60.000
G1 X6.000 Y50.000
G1 X0.000 Y50.000
G1 X0.000 Y46.500
G1 Z-1.500 F180
G1 X0.000 Y43.500
G1 Z-6.000 F180
G1 X0.000 Y40.000
G1 X6.000 Y40.000
G1 X6.000 Y30.000
G1 X0.000 Y30.000
G1 X0.000 Y26.500
G1 Z-1.500 F180
G1 X0.000 Y23.500
G1 Z-6.000 F180
G1 X0.000 Y20.000
G1 X6.000 Y20.000
G1 X6.000 Y10.000
G1 X0.000 Y10.000
G1 X0.000 Y6.500
G1 Z-1.500 F180
G1 X0.000 Y3.500
G1 Z-6.000 F180
G1 X0.000 Y0.000
G0 Z5.000
G0 X0.000 Y0.000
G0 Z0.500
G1 Z-6.350 F180
G1 F650
G1 X3.833 Y0.000
G1 Z-1.500 F180
G1 X6.833 Y0.000
G1 Z-6.350 F180
G1 X10.667 Y0.000
G1 X10.667 Y6.000
G1 X21.333 Y6.000
G1 X21.333 Y0.000
G1 X25.167 Y0.000
G1 Z-1.500 F180
G1 X28.167 Y0.000
G1 Z-6.350 F180
G1 X32.000 Y0.000
G1 X32.000 Y6.000
G1 X42.667 Y6.000
G1 X42.667 Y0.000
G1 X46.500 Y0.000
G1 Z-1.500 F180
G1 X49.500 Y0.000
G1 Z-6.350 F180
G1 X53.333 Y0.000
G1 X53.333 Y6.000
G1 X64.000 Y6.000
G1 X64.000 Y0.000
G1 X67.833 Y0.000
G1 Z-1.500 F180
G1 X70.833 Y0.000
G1 Z-6.350 F180
G1 X74.667 Y0.000
G1 X74.667 Y6.000
G1 X85.333 Y6.000
G1 X85.333 Y0.000
G1 X89.167 Y0.000
G1 Z-1.500 F180
G1 X92.167 Y0.000
G1 Z-6.350 F180
G1 X96.000 Y0.000
G1 X96.000 Y6.000
G1 X106.667 Y6.000
G1 X106.667 Y0.000
G1 X110.500 Y0.000
G1 Z-1.500 F180
G1 X113.500 Y0.000
G1 Z-6.350 F180
G1 X117.333 Y0.000
G1 X117.333 Y6.000
G1 X128.000 Y6.000
G1 X128.000 Y0.000
G1 X131.833 Y0.000
G1 Z-1.500 F180
G1 X134.833 Y0.000
G1 Z-6.350 F180
G1 X138.667 Y0.000
G1 X138.667 Y6.000
G1 X149.333 Y6.000
G1 X149.333 Y0.000
G1 X153.167 Y0.000
G1 Z-1.500 F180
G1 X156.167 Y0.000
G1 Z-6.350 F180
G1 X160.000 Y0.000
G1 X161.500 Y0.000
G1 Z-1.500 F180
G1 X164.500 Y0.000
G1 Z-6.350 F180
G1 X166.000 Y0.000
G1 X166.000 Y3.500
G1 Z-1.500 F180
G1 X166.000 Y6.500
G1 Z-6.350 F180
G1 X166.000 Y10.000
G1 X160.000 Y10.000
G1 X160.000 Y20.000
G1 X166.000 Y20.000
G1 X166.000 Y23.500
G1 Z-1.500 F180
G1 X166.000 Y26.500
G1 Z-6.350 F180
G1 X166.000 Y30.000
G1 X160.000 Y30.000
G1 X160.000 Y40.000
G1 X166.000 Y40.000
G1 X166.000 Y43.500
G1 Z-1.500 F180
G1 X166.000 Y46.500
G1 Z-6.350 F180
G1 X166.000 Y50.000
G1 X160.000 Y50.000
G1 X160.000 Y60.000
G1 X166.000 Y60.000
G1 X166.000 Y63.500
G1 Z-1.500 F180
G1 X166.000 Y66.500
G1 Z-6.350 F180
G1 X166.000 Y70.000
G1 X160.000 Y70.000
G1 X160.000 Y76.000
G1 X156.167 Y76.000
G1 Z-1.500 F180
G1 X153.167 Y76.000
G1 Z-6.350 F180
G1 X149.333 Y76.000
G1 X149.333 Y70.000
G1 X138.667 Y70.000
G1 X138.667 Y76.000
G1 X134.833 Y76.000
G1 Z-1.500 F180
G1 X131.833 Y76.000
G1 Z-6.350 F180
G1 X128.000 Y76.000
G1 X128.000 Y70.000
G1 X117.333 Y70.000
G1 X117.333 Y76.000
G1 X113.500 Y76.000
G1 Z-1.500 F180
G1 X110.500 Y76.000
G1 Z-6.350 F180
G1 X106.667 Y76.000
G1 X106.667 Y70.000
G1 X96.000 Y70.000
G1 X96.000 Y76.000
G1 X92.167 Y76.000
G1 Z-1.500 F180
G1 X89.167 Y76.000
G1 Z-6.350 F180
G1 X85.333 Y76.000
G1 X85.333 Y70.000
G1 X74.667 Y70.000
G1 X74.667 Y76.000
G1 X70.833 Y76.000
G1 Z-1.500 F180
G1 X67.833 Y76.000
G1 Z-6.350 F180
G1 X64.000 Y76.000
G1 X64.000 Y70.000
G1 X53.333 Y70.000
G1 X53.333 Y76.000
G1 X49.500 Y76.000
G1 Z-1.500 F180
G1 X46.500 Y76.000
G1 Z-6.350 F180
G1 X42.667 Y76.000
G1 X42.667 Y70.000
G1 X32.000 Y70.000
G1 X32.000 Y76.000
G1 X28.167 Y76.000
G1 Z-1.500 F180
G1 X25.167 Y76.000
G1 Z-6.350 F180
G1 X21.333 Y76.000
G1 X21.333 Y70.000
G1 X10.667 Y70.000
G1 X10.667 Y76.000
G1 X6.833 Y76.000
G1 Z-1.500 F180
G1 X3.833 Y76.000
G1 Z-6.350 F180
G1 X0.000 Y76.000
G1 X0.000 Y74.500
G1 Z-1.500 F180
G1 X0.000 Y71.500
G1 Z-6.350 F180
G1 X0.000 Y70.000
G1 X0.000 Y66.500
G1 Z-1.500 F180
G1 X0.000 Y63.500
G1 Z-6.350 F180
G1 X0.000 Y60.000
G1 X6.000 Y60.000
G1 X6.000 Y50.000
G1 X0.000 Y50.000
G1 X0.000 Y46.500
G1 Z-1.500 F180
G1 X0.000 Y43.500
G1 Z-6.350 F180
G1 X0.000 Y40.000
G1 X6.000 Y40.000
G1 X6.000 Y30.000
G1 X0.000 Y30.000
G1 X0.000 Y26.500
G1 Z-1.500 F180
G1 X0.000 Y23.500
G1 Z-6.350 F180
G1 X0.000 Y20.000
G1 X6.000 Y20.000
G1 X6.000 Y10.000
G1 X0.000 Y10.000
G1 X0.000 Y6.500
G1 Z-1.500 F180
G1 X0.000 Y3.500
G1 Z-6.350 F180
G1 X0.000 Y0.000
G0 Z5.000
(back panel)
G0 X180.000 Y0.000
G0 Z0.500
G1 Z-1.500 F180
G1 F650
G1 X183.833 Y0.000
G1 X186.833 Y0.000
G1 X190.667 Y0.000
G1 X190.667 Y6.000
G1 X201.333 Y6.000
G1 X201.333 Y0.000
G1 X205.167 Y0.000
G1 X208.167 Y0.000
G1 X212.000 Y0.000
G1 X212.000 Y6.000
G1 X222.667 Y6.000
G1 X222.667 Y0.000
G1 X226.500 Y0.000
G1 X229.500 Y0.000
G1 X233.333 Y0.000
G1 X233.333 Y6.000
G1 X244.000 Y6.000
G1 X244.000 Y0.000
G1 X247.833 Y0.000
G1 X250.833 Y0.000
G1 X254.667 Y0.000
G1 X254.667 Y6.000
G1 X265.333 Y6.000
G1 X265.333 Y0.000
G1 X269.167 Y0.000
G1 X272.167 Y0.000
G1 X276.000 Y0.000
G1 X276.000 Y6.000
G1 X286.667 Y6.000
G1 X286.667 Y0.000
G1 X290.500 Y0.000
G1 X293.500 Y0.000
G1 X297.333 Y0.000
G1 X297.333 Y6.000
G1 X308.000 Y6.000
G1 X308.000 Y0.000
G1 X311.833 Y0.000
G1 X314.833 Y0.000
G1 X318.667 Y0.000
G1 X318.667 Y6.000
G1 X329.333 Y6.000
G1 X329.333 Y0.000
G1 X333.167 Y0.000
G1 X336.167 Y0.000
G1 X340.000 Y0.000
G1 X341.500 Y0.000
G1 X344.500 Y0.000
G1 X346.000 Y0.000
G1 X346.000 Y3.500
G1 X346.000 Y6.500
G1 X346.000 Y10.000
G1 X340.000 Y10.000
G1 X340.000 Y20.000
G1 X346.000 Y20.000
G1 X346.000 Y23.500
G1 X346.000 Y26.500
G1 X346.000 Y30.000
G1 X340.000 Y30.000
G1 X340.000 Y40.000
G1 X346.000 Y40.000
G1 X346.000 Y43.500
G1 X346.000 Y46.500
G1 X346.000 Y50.000
G1 X340.000 Y50.000
G1 X340.000 Y60.000
G1 X346.000 Y60.000
G1 X346.000 Y63.500
G1 X346.000 Y66.500
G1 X346.000 Y70.000
G1 X340.000 Y70.000
G1 X340.000 Y76.000
G1 X336.167 Y76.000
G1 X333.167 Y76.000
G1 X329.333 Y76.000
G1 X329.333 Y70.000
G1 X318.667 Y70.000
G1 X318.667 Y76.000
G1 X314.833 Y76.000
G1 X311.833 Y76.000
G1 X308.000 Y76.000
G1 X308.000 Y70.000
G1 X297.333 Y70.000
G1 X297.333 Y76.000
G1 X293.500 Y76.000
G1 X290.500 Y76.000
G1 X286.667 Y76.000
G1 X286.667 Y70.000
G1 X276.000 Y70.000
G1 X276.000 Y76.000
G1 X272.167 Y76.000
G1 X269.167 Y76.000
G1 X265.333 Y76.000
G1 X265.333 Y70.000
G1 X254.667 Y70.000
G1 X254.667 Y76.000
G1 X250.833 Y76.000
G1 X247.833 Y76.000
G1 X244.000 Y76.000
G1 X244.000 Y70.000
G1 X233.333 Y70.000
G1 X233.333 Y76.000
G1 X229.500 Y76.000
G1 X226.500 Y76.000
G1 X222.667 Y76.000
G1 X222.667 Y70.000
G1 X212.000 Y70.000
G1 X212.000 Y76.000
G1 X208.167 Y76.000
G1 X205.167 Y76.000
G1 X201.333 Y76.000
G1 X201.333 Y70.000
G1 X190.667 Y70.000
G1 X190.667 Y76.000
G1 X186.833 Y76.000
G1 X183.833 Y76.000
G1 X180.000 Y76.000
G1 X180.000 Y74.500
G1 X180.000 Y71.500
G1 X180.000 Y70.000
G1 X180.000 Y66.500
G1 X180.000 Y63.500
G1 X180.000 Y60.000
G1 X186.000 Y60.000
G1 X186.000 Y50.000
G1 X180.000 Y50.000
G1 X180.000 Y46.500
G1 X180.000 Y43.500
G1 X180.000 Y40.000
G1 X186.000 Y40.000
G1 X186.000 Y30.000
G1 X180.000 Y30.000
G1 X180.000 Y26.500
G1 X180.000 Y23.500
G1 X180.000 Y20.000
G1 X186.000 Y20.000
G1 X186.000 Y10.000
G1 X180.000 Y10.000
G1 X180.000 Y6.500
G1 X180.000 Y3.500
G1 X180.000 Y0.000
G0 Z5.000
G0 X180.000 Y0.000
G0 Z0.500
G1 Z-3.000 F180
G1 F650
G1 X183.833 Y0.000
G1 Z-1.500 F180
G1 X186.833 Y0.000
G1 Z-3.000 F180
G1 X190.667 Y0.000
G1 X190.667 Y6.000
G1 X201.333 Y6.000
G1 X201.333 Y0.000
G1 X205.167 Y0.000
G1 Z-1.500 F180
G1 X208.167 Y0.000
G1 Z-3.000 F180
G1 X212.000 Y0.000
G1 X212.000 Y6.000
G1 X222.667 Y6.000
G1 X222.667 Y0.000
G1 X226.500 Y0.000
G1 Z-1.500 F180
G1 X229.500 Y0.000
G1 Z-3.000 F180
G1 X233.333 Y0.000
G1 X233.333 Y6.000
G1 X244.000 Y6.000
G1 X244.000 Y0.000
G1 X247.833 Y0.000
G1 Z-1.500 F180
G1 X250.833 Y0.000
G1 Z-3.000 F180
G1 X254.667 Y0.000
G1 X254.667 Y6.000
G1 X265.333 Y6.000
G1 X265.333 Y0.000
G1 X269.167 Y0.000
G1 Z-1.500 F180
G1 X272.167 Y0.000
G1 Z-3.000 F180
G1 X276.000 Y0.000
G1 X276.000 Y6.000
G1 X286.667 Y6.000
G1 X286.667 Y0.000
G1 X290.500 Y0.000
G1 Z-1.500 F180
G1 X293.500 Y0.000
G1 Z-3.000 F180
G1 X297.333 Y0.000
G1 X297.333 Y6.000
G1 X308.000 Y6.000
G1 X308.000 Y0.000
G1 X311.833 Y0.000
G1 Z-1.500 F180
G1 X314.833 Y0.000
G1 Z-3.000 F180
G1 X318.667 Y0.000
G1 X318.667 Y6.000
G1 X329.333 Y6.000
G1 X329.333 Y0.000
G1 X333.167 Y0.000
G1 Z-1.500 F180
G1 X336.167 Y0.000
G1 Z-3.000 F180
G1 X340.000 Y0.000
G1 X341.500 Y0.000
G1 Z-1.500 F180
G1 X344.500 Y0.000
G1 Z-3.000 F180
G1 X346.000 Y0.000
G1 X346.000 Y3.500
G1 Z-1.500 F180
G1 X346.000 Y6.500
G1 Z-3.000 F180
G1 X346.000 Y10.000
G1 X340.000 Y10.000
G1 X340.000 Y20.000
G1 X346.000 Y20.000
G1 X346.000 Y23.500
G1 Z-1.500 F180
G1 X346.000 Y26.500
G1 Z-3.000 F180
G1 X346.000 Y30.000
G1 X340.000 Y30.000
G1 X340.000 Y40.000
G1 X346.000 Y40.000
G1 X346.000 Y43.500
G1 Z-1.500 F180
G1 X346.000 Y46.500
G1 Z-3.000 F180
G1 X346.000 Y50.000
G1 X340.000 Y50.000
G1 X340.000 Y60.000
G1 X346.000 Y60.000
G1 X346.000 Y63.500
G1 Z-1.500 F180
G1 X346.000 Y66.500
G1 Z-3.000 F180
G1 X346.000 Y70.000
G1 X340.000 Y70.000
G1 X340.000 Y76.000
G1 X336.167 Y76.000
G1 Z-1.500 F180
G1 X333.167 Y76.000
G1 Z-3.000 F180
G1 X329.333 Y76.000
G1 X329.333 Y70.000
G1 X318.667 Y70.000
G1 X318.667 Y76.000
G1 X314.833 Y76.000
G1 Z-1.500 F180
G1 X311.833 Y76.000
G1 Z-3.000 F180
G1 X308.000 Y76.000
G1 X308.000 Y70.000
G1 X297.333 Y70.000
G1 X297.333 Y76.000
G1 X293.500 Y76.000
G1 Z-1.500 F180
G1 X290.500 Y76.000
G1 Z-3.000 F180
G1 X286.667 Y76.000
G1 X286.667 Y70.000
G1 X276.000 Y70.000
G1 X276.000 Y76.000
G1 X272.167 Y76.000
G1 Z-1.500 F180
G1 X269.167 Y76.000
G1 Z-3.000 F180
G1 X265.333 Y76.000
G1 X265.333 Y70.000
G1 X254.667 Y70.000
G1 X254.667 Y76.000
G1 X250.833 Y76.000
G1 Z-1.500 F180
G1 X247.833 Y76.000
G1 Z-3.000 F180
G1 X244.000 Y76.000
G1 X244.000 Y70.000
G1 X233.333 Y70.000
G1 X233.333 Y76.000
G1 X229.500 Y76.000
G1 Z-1.500 F180
G1 X226.500 Y76.000
G1 Z-3.000 F180
G1 X222.667 Y76.000
G1 X222.667 Y70.000
G1 X212.000 Y70.000
G1 X212.000 Y76.000
G1 X208.167 Y76.000
G1 Z-1.500 F180
G1 X205.167 Y76.000
G1 Z-3.000 F180
G1 X201.333 Y76.000
G1 X201.333 Y70.000
G1 X190.667 Y70.000
G1 X190.667 Y76.000
G1 X186.833 Y76.000
G1 Z-1.500 F180
G1 X183.833 Y76.000
G1 Z-3.000 F180
G1 X180.000 Y76.000
G1 X180.000 Y74.500
G1 Z-1.500 F180
G1 X180.000 Y71.500
G1 Z-3.000 F180
G1 X180.000 Y70.000
G1 X180.000 Y66.500
G1 Z-1.500 F180
G1 X180.000 Y63.500
G1 Z-3.000 F180
G1 X180.000 Y60.000
G1 X186.000 Y60.000
G1 X186.000 Y50.000
G1 X180.000 Y50.000
G1 X180.000 Y46.500
G1 Z-1.500 F180
G1 X180.000 Y43.500
G1 Z-3.000 F180
G1 X180.000 Y40.000
G1 X186.000 Y40.000
G1 X186.000 Y30.000
G1 X180.000 Y30.000
G1 X180.000 Y26.500
G1 Z-1.500 F180
G1 X180.000 Y23.500
G1 Z-3.000 F180
G1 X180.000 Y20.000
G1 X186.000 Y20.000
G1 X186.000 Y10.000
G1 X180.000 Y10.000
G1 X180.000 Y6.500
G1 Z-1.500 F180
G1 X180.000 Y3.500
G1 Z-3.000 F180
G1 X180.000 Y0.000
G0 Z5.000
G0 X180.000 Y0.000
G0 Z0.500
G1 Z-4.500 F180
G1 F650
G1 X183.833 Y0.000
G1 Z-1.500 F180
G1 X186.833 Y0.000
G1 Z-4.500 F180
G1 X190.667 Y0.000
G1 X190.667 Y6.000
G1 X201.333 Y6.000
G1 X201.333 Y0.000
G1 X205.167 Y0.000
G1 Z-1.500 F180
G1 X208.167 Y0.000
G1 Z-4.500 F180
G1 X212.000 Y0.000
G1 X212.000 Y6.000
G1 X222.667 Y6.000
G1 X222.667 Y0.000
G1 X226.500 Y0.000
G1 Z-1.500 F180
G1 X229.500 Y0.000
G1 Z-4.500 F180
G1 X233.333 Y0.000
G1 X233.333 Y6.000
G1 X244.000 Y6.000
G1 X244.000 Y0.000
G1 X247.833 Y0.000
G1 Z-1.500 F180
G1 X250.833 Y0.000
G1 Z-4.500 F180
G1 X254.667 Y0.000
G1 X254.667 Y6.000
G1 X265.333 Y6.000
G1 X265.333 Y0.000
G1 X269.167 Y0.000
G1 Z-1.500 F180
G1 X272.167 Y0.000
G1 Z-4.500 F180
G1 X276.000 Y0.000
G1 X276.000 Y6.000
G1 X286.667 Y6.000
G1 X286.667 Y0.000
G1 X290.500 Y0.000
G1 Z-1.500 F180
G1 X293.500 Y0.000
G1 Z-4.500 F180
G1 X297.333 Y0.000
G1 X297.333 Y6.000
G1 X308.000 Y6.000
G1 X308.000 Y0.000
G1 X311.833 Y0.000
G1 Z-1.500 F180
G1 X314.833 Y0.000
G1 Z-4.500 F180
G1 X318.667 Y0.000
G1 X318.667 Y6.000
G1 X329.333 Y6.000
G1 X329.333 Y0.000
G1 X333.167 Y0.000
G1 Z-1.500 F180
G1 X336.167 Y0.000
G1 Z-4.500 F180
G1 X340.000 Y0.000
G1 X341.500 Y0.000
G1 Z-1.500 F180
G1 X344.500 Y0.000
G1 Z-4.500 F180
G1 X346.000 Y0.000
G1 X346.000 Y3.500
G1 Z-1.500 F180
G1 X346.000 Y6.500
G1 Z-4.500 F180
G1 X346.000 Y10.000
G1 X340.000 Y10.000
G1 X340.000 Y20.000
G1 X346.000 Y20.000
G1 X346.000 Y23.500
G1 Z-1.500 F180
G1 X346.000 Y26.500
G1 Z-4.500 F180
G1 X346.000 Y30.000
G1 X340.000 Y30.000
G1 X340.000 Y40.000
G1 X346.000 Y40.000
G1 X346.000 Y43.500
G1 Z-1.500 F180
G1 X346.000 Y46.500
G1 Z-4.500 F180
G1 X346.000 Y50.000
G1 X340.000 Y50.000
G1 X340.000 Y60.000
G1 X346.000 Y60.000
G1 X346.000 Y63.500
G1 Z-1.500 F180
G1 X346.000 Y66.500
G1 Z-4.500 F180
G1 X346.000 Y70.000
G1 X340.000 Y70.000
G1 X340.000 Y76.000
G1 X336.167 Y76.000
G1 Z-1.500 F180
G1 X333.167 Y76.000
G1 Z-4.500 F180
G1 X329.333 Y76.000
G1 X329.333 Y70.000
G1 X318.667 Y70.000
G1 X318.667 Y76.000
G1 X314.833 Y76.000
G1 Z-1.500 F180
G1 X311.833 Y76.000
G1 Z-4.500 F180
G1 X308.000 Y76.000
G1 X308.000 Y70.000
G1 X297.333 Y70.000
G1 X297.333 Y76.000
G1 X293.500 Y76.000
G1 Z-1.500 F180
G1 X290.500 Y76.000
G1 Z-4.500 F180
G1 X286.667 Y76.000
G1 X286.667 Y70.000
G1 X276.000 Y70.000
G1 X276.000 Y76.000
G1 X272.167 Y76.000
G1 Z-1.500 F180
G1 X269.167 Y76.000
G1 Z-4.500 F180
G1 X265.333 Y76.000
G1 X265.333 Y70.000
G1 X254.667 Y70.000
G1 X254.667 Y76.000
G1 X250.833 Y76.000
G1 Z-1.500 F180
G1 X247.833 Y76.000
G1 Z-4.500 F180
G1 X244.000 Y76.000
G1 X244.000 Y70.000
G1 X233.333 Y70.000
G1 X233.333 Y76.000
G1 X229.500 Y76.000
G1 Z-1.500 F180
G1 X226.500 Y76.000
G1 Z-4.500 F180
G1 X222.667 Y76.000
G1 X222.667 Y70.000
G1 X212.000 Y70.000
G1 X212.000 Y76.000
G1 X208.167 Y76.000
G1 Z-1.500 F180
G1 X205.167 Y76.000
G1 Z-4.500 F180
G1 X201.333 Y76.000
G1 X201.333 Y70.000
G1 X190.667 Y70.000
G1 X190.667 Y76.000
G1 X186.833 Y76.000
G1 Z-1.500 F180
G1 X183.833 Y76.000
G1 Z-4.500 F180
G1 X180.000 Y76.000
G1 X180.000 Y74.500
G1 Z-1.500 F180
G1 X180.000 Y71.500
G1 Z-4.500 F180
G1 X180.000 Y70.000
G1 X180.000 Y66.500
G1 Z-1.500 F180
G1 X180.000 Y63.500
G1 Z-4.500 F180
G1 X180.000 Y60.000
G1 X186.000 Y60.000
G1 X186.000 Y50.000
G1 X180.000 Y50.000
G1 X180.000 Y46.500
G1 Z-1.500 F180
G1 X180.000 Y43.500
G1 Z-4.500 F180
G1 X180.000 Y40.000
G1 X186.000 Y40.000
G1 X186.000 Y30.000
G1 X180.000 Y30.000
G1 X180.000 Y26.500
G1 Z-1.500 F180
G1 X180.000 Y23.500
G1 Z-4.500 F180
G1 X180.000 Y20.000
G1 X186.000 Y20.000
G1 X186.000 Y10.000
G1 X180.000 Y10.000
G1 X180.000 Y6.500
G1 Z-1.500 F180
G1 X180.000 Y3.500
G1 Z-4.500 F180
G1 X180.000 Y0.000
G0 Z5.000
G0 X180.000 Y0.000
G0 Z0.500
G1 Z-6.000 F180
G1 F650
G1 X183.833 Y0.000
G1 Z-1.500 F180
G1 X186.833 Y0.000
G1 Z-6.000 F180
G1 X190.667 Y0.000
G1 X190.667 Y6.000
G1 X201.333 Y6.000
G1 X201.333 Y0.000
G1 X205.167 Y0.000
G1 Z-1.500 F180
G1 X208.167 Y0.000
G1 Z-6.000 F180
G1 X212.000 Y0.000
G1 X212.000 Y6.000
G1 X222.667 Y6.000
G1 X222.667 Y0.000
G1 X226.500 Y0.000
G1 Z-1.500 F180
G1 X229.500 Y0.000
G1 Z-6.000 F180
G1 X233.333 Y0.000
G1 X233.333 Y6.000
G1 X244.000 Y6.000
G1 X244.000 Y0.000
G1 X247.833 Y0.000
G1 Z-1.500 F180
G1 X250.833 Y0.000
G1 Z-6.000 F180
G1 X254.667 Y0.000
G1 X254.667 Y6.000
G1 X265.333 Y6.000
G1 X265.333 Y0.000
G1 X269.167 Y0.000
G1 Z-1.500 F180
G1 X272.167 Y0.000
G1 Z-6.000 F180
G1 X276.000 Y0.000
G1 X276.000 Y6.000
G1 X286.667 Y6.000
G1 X286.667 Y0.000
G1 X290.500 Y0.000
G1 Z-1.500 F180
G1 X293.500 Y0.000
G1 Z-6.000 F180
G1 X297.333 Y0.000
G1 X297.333 Y6.000
G1 X308.000 Y6.000
G1 X308.000 Y0.000
G1 X311.833 Y0.000
G1 Z-1.500 F180
G1 X314.833 Y0.000
G1 Z-6.000 F180
G1 X318.667 Y0.000
G1 X318.667 Y6.000
G1 X329.333 Y6.000
G1 X329.333 Y0.000
G1 X333.167 Y0.000
G1 Z-1.500 F180
G1 X336.167 Y0.000
G1 Z-6.000 F180
G1 X340.000 Y0.000
G1 X341.500 Y0.000
G1 Z-1.500 F180
G1 X344.500 Y0.000
G1 Z-6.000 F180
G1 X346.000 Y0.000
G1 X346.000 Y3.500
G1 Z-1.500 F180
G1 X346.000 Y6.500
G1 Z-6.000 F180
G1 X346.000 Y10.000
G1 X340.000 Y10.000
G1 X340.000 Y20.000
G1 X346.000 Y20.000
G1 X346.000 Y23.500
G1 Z-1.500 F180
G1 X346.000 Y26.500
G1 Z-6.000 F180
G1 X346.000 Y30.000
G1 X340.000 Y30.000
G1 X340.000 Y40.000
G1 X346.000 Y40.000
G1 X346.000 Y43.500
G1 Z-1.500 F180
G1 X346.000 Y46.500
G1 Z-6.000 F180
G1 X346.000 Y50.000
G1 X340.000 Y50.000
G1 X340.000 Y60.000
G1 X346.000 Y60.000
G1 X346.000 Y63.500
G1 Z-1.500 F180
G1 X346.000 Y66.500
G1 Z-6.000 F180
G1 X346.000 Y70.000
G1 X340.000 Y70.000
G1 X340.000 Y76.000
G1 X336.167 Y76.000
G1 Z-1.500 F180
G1 X333.167 Y76.000
G1 Z-6.000 F180
G1 X329.333 Y76.000
G1 X329.333 Y70.000
G1 X318.667 Y70.000
G1 X318.667 Y76.000
G1 X314.833 Y76.000
G1 Z-1.500 F180
G1 X311.833 Y76.000
G1 Z-6.000 F180
G1 X308.000 Y76.000
G1 X308.000 Y70.000
G1 X297.333 Y70.000
G1 X297.333 Y76.000
G1 X293.500 Y76.000
G1 Z-1.500 F180
G1 X290.500 Y76.000
G1 Z-6.000 F180
G1 X286.667 Y76.000
G1 X286.667 Y70.000
G1 X276.000 Y70.000
G1 X276.000 Y76.000
G1 X272.167 Y76.000
G1 Z-1.500 F180
G1 X269.167 Y76.000
G1 Z-6.000 F180
G1 X265.333 Y76.000
G1 X265.333 Y70.000
G1 X254.667 Y70.000
G1 X254.667 Y76.000
G1 X250.833 Y76.000
G1 Z-1.500 F180
G1 X247.833 Y76.000
G1 Z-6.000 F180
G1 X244.000 Y76.000
G1 X244.000 Y70.000
G1 X233.333 Y70.000
G1 X233.333 Y76.000
G1 X229.500 Y76.000
G1 Z-1.500 F180
G1 X226.500 Y76.000
G1 Z-6.000 F180
G1 X222.667 Y76.000
G1 X222.667 Y70.000
G1 X212.000 Y70.000
G1 X212.000 Y76.000
G1 X208.167 Y76.000
G1 Z-1.500 F180
G1 X205.167 Y76.000
G1 Z-6.000 F180
G1 X201.333 Y76.000
G1 X201.333 Y70.000
G1 X190.667 Y70.000
G1 X190.667 Y76.000
G1 X186.833 Y76.000
G1 Z-1.500 F180
G1 X183.833 Y76.000
G1 Z-6.000 F180
G1 X180.000 Y76.000
G1 X180.000 Y74.500
G1 Z-1.500 F180
G1 X180.000 Y71.500
G1 Z-6.000 F180
G1 X180.000 Y70.000
G1 X180.000 Y66.500
G1 Z-1.500 F180
G1 X180.000 Y63.500
G1 Z-6.000 F180
G1 X180.000 Y60.000
G1 X186.000 Y60.000
G1 X186.000 Y50.000
G1 X180.000 Y50.000
G1 X180.000 Y46.500
G1 Z-1.500 F180
G1 X180.000 Y43.500
G1 Z-6.000 F180
G1 X180.000 Y40.000
G1 X186.000 Y40.000
G1 X186.000 Y30.000
G1 X180.000 Y30.000
G1 X180.000 Y26.500
G1 Z-1.500 F180
G1 X180.000 Y23.500
G1 Z-6.000 F180
G1 X180.000 Y20.000
G1 X186.000 Y20.000
G1 X186.000 Y10.000
G1 X180.000 Y10.000
G1 X180.000 Y6.500
G1 Z-1.500 F180
G1 X180.000 Y3.500
G1 Z-6.000 F180
G1 X180.000 Y0.000
G0 Z5.000
G0 X180.000 Y0.000
G0 Z0.500
G1 Z-6.350 F180
G1 F650
G1 X183.833 Y0.000
G1 Z-1.500 F180
G1 X186.833 Y0.000
G1 Z-6.350 F180
G1 X190.667 Y0.000
G1 X190.667 Y6.000
G1 X201.333 Y6.000
G1 X201.333 Y0.000
G1 X205.167 Y0.000
G1 Z-1.500 F180
G1 X208.167 Y0.000
G1 Z-6.350 F180
G1 X212.000 Y0.000
G1 X212.000 Y6.000
G1 X222.667 Y6.000
G1 X222.667 Y0.000
G1 X226.500 Y0.000
G1 Z-1.500 F180
G1 X229.500 Y0.000
G1 Z-6.350 F180
G1 X233.333 Y0.000
G1 X233.333 Y6.000
G1 X244.000 Y6.000
G1 X244.000 Y0.000
G1 X247.833 Y0.000
G1 Z-1.500 F180
G1 X250.833 Y0.000
G1 Z-6.350 F180
G1 X254.667 Y0.000
G1 X254.667 Y6.000
G1 X265.333 Y6.000
G1 X265.333 Y0.000
G1 X269.167 Y0.000
G1 Z-1.500 F180
G1 X272.167 Y0.000
G1 Z-6.350 F180
G1 X276.000 Y0.000
G1 X276.000 Y6.000
G1 X286.667 Y6.000
G1 X286.667 Y0.000
G1 X290.500 Y0.000
G1 Z-1.500 F180
G1 X293.500 Y0.000
G1 Z-6.350 F180
G1 X297.333 Y0.000
G1 X297.333 Y6.000
G1 X308.000 Y6.000
G1 X308.000 Y0.000
G1 X311.833 Y0.000
G1 Z-1.500 F180
G1 X314.833 Y0.000
G1 Z-6.350 F180
G1 X318.667 Y0.000
G1 X318.667 Y6.000
G1 X329.333 Y6.000
G1 X329.333 Y0.000
G1 X333.167 Y0.000
G1 Z-1.500 F180
G1 X336.167 Y0.000
G1 Z-6.350 F180
G1 X340.000 Y0.000
G1 X341.500 Y0.000
G1 Z-1.500 F180
G1 X344.500 Y0.000
G1 Z-6.350 F180
G1 X346.000 Y0.000
G1 X346.000 Y3.500
G1 Z-1.500 F180
G1 X346.000 Y6.500
G1 Z-6.350 F180
G1 X346.000 Y10.000
G1 X340.000 Y10.000
G1 X340.000 Y20.000
G1 X346.000 Y20.000
G1 X346.000 Y23.500
G1 Z-1.500 F180
G1 X346.000 Y26.500
G1 Z-6.350 F180
G1 X346.000 Y30.000
G1 X340.000 Y30.000
G1 X340.000 Y40.000
G1 X346.000 Y40.000
G1 X346.000 Y43.500
G1 Z-1.500 F180
G1 X346.000 Y46.500
G1 Z-6.350 F180
G1 X346.000 Y50.000
G1 X340.000 Y50.000
G1 X340.000 Y60.000
G1 X346.000 Y60.000
G1 X346.000 Y63.500
G1 Z-1.500 F180
G1 X346.000 Y66.500
G1 Z-6.350 F180
G1 X346.000 Y70.000
G1 X340.000 Y70.000
G1 X340.000 Y76.000
G1 X336.167 Y76.000
G1 Z-1.500 F180
G1 X333.167 Y76.000
G1 Z-6.350 F180
G1 X329.333 Y76.000
G1 X329.333 Y70.000
G1 X318.667 Y70.000
G1 X318.667 Y76.000
G1 X314.833 Y76.000
G1 Z-1.500 F180
G1 X311.833 Y76.000
G1 Z-6.350 F180
G1 X308.000 Y76.000
G1 X308.000 Y70.000
G1 X297.333 Y70.000
G1 X297.333 Y76.000
G1 X293.500 Y76.000
G1 Z-1.500 F180
G1 X290.500 Y76.000
G1 Z-6.350 F180
G1 X286.667 Y76.000
G1 X286.667 Y70.000
G1 X276.000 Y70.000
G1 X276.000 Y76.000
G1 X272.167 Y76.000
G1 Z-1.500 F180
G1 X269.167 Y76.000
G1 Z-6.350 F180
G1 X265.333 Y76.000
G1 X265.333 Y70.000
G1 X254.667 Y70.000
G1 X254.667 Y76.000
G1 X250.833 Y76.000
G1 Z-1.500 F180
G1 X247.833 Y76.000
G1 Z-6.350 F180
G1 X244.000 Y76.000
G1 X244.000 Y70.000
G1 X233.333 Y70.000
G1 X233.333 Y76.000
G1 X229.500 Y76.000
G1 Z-1.500 F180
G1 X226.500 Y76.000
G1 Z-6.350 F180
G1 X222.667 Y76.000
G1 X222.667 Y70.000
G1 X212.000 Y70.000
G1 X212.000 Y76.000
G1 X208.167 Y76.000
G1 Z-1.500 F180
G1 X205.167 Y76.000
G1 Z-6.350 F180
G1 X201.333 Y76.000
G1 X201.333 Y70.000
G1 X190.667 Y70.000
G1 X190.667 Y76.000
G1 X186.833 Y76.000
G1 Z-1.500 F180
G1 X183.833 Y76.000
G1 Z-6.350 F180
G1 X180.000 Y76.000
G1 X180.000 Y74.500
G1 Z-1.500 F180
G1 X180.000 Y71.500
G1 Z-6.350 F180
G1 X180.000 Y70.000
G1 X180.000 Y66.500
G1 Z-1.500 F180
G1 X180.000 Y63.500
G1 Z-6.350 F180
G1 X180.000 Y60.000
G1 X186.000 Y60.000
G1 X186.000 Y50.000
G1 X180.000 Y50.000
G1 X180.000 Y46.500
G1 Z-1.500 F180
G1 X180.000 Y43.500
G1 Z-6.350 F180
G1 X180.000 Y40.000
G1 X186.000 Y40.000
G1 X186.000 Y30.000
G1 X180.000 Y30.000
G1 X180.000 Y26.500
G1 Z-1.500 F180
G1 X180.000 Y23.500
G1 Z-6.350 F180
G1 X180.000 Y20.000
G1 X186.000 Y20.000
G1 X186.000 Y10.000
G1 X180.000 Y10.000
G1 X180.000 Y6.500
G1 Z-1.500 F180
G1 X180.000 Y3.500
G1 Z-6.350 F180
G1 X180.000 Y0.000
G0 Z5.000
(left panel)
G0 X6.000 Y96.000
G0 Z0.500
G1 Z-1.500 F180
G1 F650
G1 X6.000 Y90.000
G1 X10.056 Y90.000
G1 X13.056 Y90.000
G1 X17.111 Y90.000
G1 X17.111 Y96.000
G1 X28.222 Y96.000
G1 X28.222 Y90.000
G1 X32.278 Y90.000
G1 X35.278 Y90.000
G1 X39.333 Y90.000
G1 X39.333 Y96.000
G1 X50.444 Y96.000
G1 X50.444 Y90.000
G1 X54.500 Y90.000
G1 X57.500 Y90.000
G1 X61.556 Y90.000
G1 X61.556 Y96.000
G1 X72.667 Y96.000
G1 X72.667 Y90.000
G1 X76.722 Y90.000
G1 X79.722 Y90.000
G1 X83.778 Y90.000
G1 X83.778 Y96.000
G1 X94.889 Y96.000
G1 X94.889 Y90.000
G1 X98.944 Y90.000
G1 X101.944 Y90.000
G1 X106.000 Y90.000
G1 X106.000 Y91.500
G1 X106.000 Y94.500
G1 X106.000 Y96.000
G1 X106.000 Y99.500
G1 X106.000 Y102.500
G1 X106.000 Y106.000
G1 X100.000 Y106.000
G1 X100.000 Y116.000
G1 X106.000 Y116.000
G1 X106.000 Y119.500
G1 X106.000 Y122.500
G1 X106.000 Y126.000
G1 X100.000 Y126.000
G1 X100.000 Y136.000
G1 X106.000 Y136.000
G1 X106.000 Y139.500
G1 X106.000 Y142.500
G1 X106.000 Y146.000
G1 X100.000 Y146.000
G1 X100.000 Y156.000
G1 X106.000 Y156.000
G1 X106.000 Y159.500
G1 X106.000 Y162.500
G1 X106.000 Y166.000
G1 X101.944 Y166.000
G1 X98.944 Y166.000
G1 X94.889 Y166.000
G1 X94.889 Y160.000
G1 X83.778 Y160.000
G1 X83.778 Y166.000
G1 X79.722 Y166.000
G1 X76.722 Y166.000
G1 X72.667 Y166.000
G1 X72.667 Y160.000
G1 X61.556 Y160.000
G1 X61.556 Y166.000
G1 X57.500 Y166.000
G1 X54.500 Y166.000
G1 X50.444 Y166.000
G1 X50.444 Y160.000
G1 X39.333 Y160.000
G1 X39.333 Y166.000
G1 X35.278 Y166.000
G1 X32.278 Y166.000
G1 X28.222 Y166.000
G1 X28.222 Y160.000
G1 X17.111 Y160.000
G1 X17.111 Y166.000
G1 X13.056 Y166.000
G1 X10.056 Y166.000
G1 X6.000 Y166.000
G1 X4.500 Y166.000
G1 X1.500 Y166.000
G1 X0.000 Y166.000
G1 X0.000 Y162.500
G1 X0.000 Y159.500
G1 X0.000 Y156.000
G1 X6.000 Y156.000
G1 X6.000 Y146.000
G1 X0.000 Y146.000
G1 X0.000 Y142.500
G1 X0.000 Y139.500
G1 X0.000 Y136.000
G1 X6.000 Y136.000
G1 X6.000 Y126.000
G1 X0.000 Y126.000
G1 X0.000 Y122.500
G1 X0.000 Y119.500
G1 X0.000 Y116.000
G1 X6.000 Y116.000
G1 X6.000 Y106.000
G1 X0.000 Y106.000
G1 X0.000 Y102.500
G1 X0.000 Y99.500
G1 X0.000 Y96.000
G1 X6.000 Y96.000
G0 Z5.000
G0 X6.000 Y96.000
G0 Z0.500
G1 Z-3.000 F180
G1 F650
G1 X6.000 Y90.000
G1 X10.056 Y90.000
G1 Z-1.500 F180
G1 X13.056 Y90.000
G1 Z-3.000 F180
G1 X17.111 Y90.000
G1 X17.111 Y96.000
G1 X28.222 Y96.000
G1 X28.222 Y90.000
G1 X32.278 Y90.000
G1 Z-1.500 F180
G1 X35.278 Y90.000
G1 Z-3.000 F180
G1 X39.333 Y90.000
G1 X39.333 Y96.000
G1 X50.444 Y96.000
G1 X50.444 Y90.000
G1 X54.500 Y90.000
G1 Z-1.500 F180
G1 X57.500 Y90.000
G1 Z-3.000 F180
G1 X61.556 Y90.000
G1 X61.556 Y96.000
G1 X72.667 Y96.000
G1 X72.667 Y90.000
G1 X76.722 Y90.000
G1 Z-1.500 F180
G1 X79.722 Y90.000
G1 Z-3.000 F180
G1 X83.778 Y90.000
G1 X83.778 Y96.000
G1 X94.889 Y96.000
G1 X94.889 Y90.000
G1 X98.944 Y90.000
G1 Z-1.500 F180
G1 X101.944 Y90.000
G1 Z-3.000 F180
G1 X106.000 Y90.000
G1 X106.000 Y91.500
G1 Z-1.500 F180
G1 X106.000 Y94.500
G1 Z-3.000 F180
G1 X106.000 Y96.000
G1 X106.000 Y99.500
G1 Z-1.500 F180
G1 X106.000 Y102.500
G1 Z-3.000 F180
G1 X106.000 Y106.000
G1 X100.000 Y106.000
G1 X100.000 Y116.000
G1 X106.000 Y116.000
G1 X106.000 Y119.500
G1 Z-1.500 F180
G1 X106.000 Y122.500
G1 Z-3.000 F180
G1 X106.000 Y126.000
G1 X100.000 Y126.000
G1 X100.000 Y136.000
G1 X106.000 Y136.000
G1 X106.000 Y139.500
G1 Z-1.500 F180
G1 X106.000 Y142.500
G1 Z-3.000 F180
G1 X106.000 Y146.000
G1 X100.000 Y146.000
G1 X100.000 Y156.000
G1 X106.000 Y156.000
G1 X106.000 Y159.500
G1 Z-1.500 F180
G1 X106.000 Y162.500
G1 Z-3.000 F180
G1 X106.000 Y166.000
G1 X101.944 Y166.000
G1 Z-1.500 F180
G1 X98.944 Y166.000
G1 Z-3.000 F180
G1 X94.889 Y166.000
G1 X94.889 Y160.000
G1 X83.778 Y160.000
G1 X83.778 Y166.000
G1 X79.722 Y166.000
G1 Z-1.500 F180
G1 X76.722 Y166.000
G1 Z-3.000 F180
G1 X72.667 Y166.000
G1 X72.667 Y160.000
G1 X61.556 Y160.000
G1 X61.556 Y166.000
G1 X57.500 Y166.000
G1 Z-1.500 F180
G1 X54.500 Y166.000
G1 Z-3.000 F180
G1 X50.444 Y166.000
G1 X50.444 Y160.000
G1 X39.333 Y160.000
G1 X39.333 Y166.000
G1 X35.278 Y166.000
G1 Z-1.500 F180
G1 X32.278 Y166.000
G1 Z-3.000 F180
G1 X28.222 Y166.000
G1 X28.222 Y160.000
G1 X17.111 Y160.000
G1 X17.111 Y166.000
G1 X13.056 Y166.000
G1 Z-1.500 F180
G1 X10.056 Y166.000
G1 Z-3.000 F180
G1 X6.000 Y166.000
G1 X4.500 Y166.000
G1 Z-1.500 F180
G1 X1.500 Y166.000
G1 Z-3.000 F180
G1 X0.000 Y166.000
G1 X0.000 Y162.500
G1 Z-1.500 F180
G1 X0.000 Y159.500
G1 Z-3.000 F180
G1 X0.000 Y156.000
G1 X6.000 Y156.000
G1 X6.000 Y146.000
G1 X0.000 Y146.000
G1 X0.000 Y142.500
G1 Z-1.500 F180
G1 X0.000 Y139.500
G1 Z-3.000 F180
G1 X0.000 Y136.000
G1 X6.000 Y136.000
G1 X6.000 Y126.000
G1 X0.000 Y126.000
G1 X0.000 Y122.500
G1 Z-1.500 F180
G1 X0.000 Y119.500
G1 Z-3.000 F180
G1 X0.000 Y116.000
G1 X6.000 Y116.000
G1 X6.000 Y106.000
G1 X0.000 Y106.000
G1 X0.000 Y102.500
G1 Z-1.500 F180
G1 X0.000 Y99.500
G1 Z-3.000 F180
G1 X0.000 Y96.000
G1 X6.000 Y96.000
G0 Z5.000
G0 X6.000 Y96.000
G0 Z0.500
G1 Z-4.500 F180
G1 F650
G1 X6.000 Y90.000
G1 X10.056 Y90.000
G1 Z-1.500 F180
G1 X13.056 Y90.000
G1 Z-4.500 F180
G1 X17.111 Y90.000
G1 X17.111 Y96.000
G1 X28.222 Y96.000
G1 X28.222 Y90.000
G1 X32.278 Y90.000
G1 Z-1.500 F180
G1 X35.278 Y90.000
G1 Z-4.500 F180
G1 X39.333 Y90.000
G1 X39.333 Y96.000
G1 X50.444 Y96.000
G1 X50.444 Y90.000
G1 X54.500 Y90.000
G1 Z-1.500 F180
G1 X57.500 Y90.000
G1 Z-4.500 F180
G1 X61.556 Y90.000
G1 X61.556 Y96.000
G1 X72.667 Y96.000
G1 X72.667 Y90.000
G1 X76.722 Y90.000
G1 Z-1.500 F180
G1 X79.722 Y90.000
G1 Z-4.500 F180
G1 X83.778 Y90.000
G1 X83.778 Y96.000
G1 X94.889 Y96.000
G1 X94.889 Y90.000
G1 X98.944 Y90.000
G1 Z-1.500 F180
G1 X101.944 Y90.000
G1 Z-4.500 F180
G1 X106.000 Y90.000
G1 X106.000 Y91.500
G1 Z-1.500 F180
G1 X106.000 Y94.500
G1 Z-4.500 F180
G1 X106.000 Y96.000
G1 X106.000 Y99.500
G1 Z-1.500 F180
G1 X106.000 Y102.500
G1 Z-4.500 F180
G1 X106.000 Y106.000
G1 X100.000 Y106.000
G1 X100.000 Y116.000
G1 X106.000 Y116.000
G1 X106.000 Y119.500
G1 Z-1.500 F180
G1 X106.000 Y122.500
G1 Z-4.500 F180
G1 X106.000 Y126.000
G1 X100.000 Y126.000
G1 X100.000 Y136.000
G1 X106.000 Y136.000
G1 X106.000 Y139.500
G1 Z-1.500 F180
G1 X106.000 Y142.500
G1 Z-4.500 F180
G1 X106.000 Y146.000
G1 X100.000 Y146.000
G1 X100.000 Y156.000
G1 X106.000 Y156.000
G1 X106.000 Y159.500
G1 Z-1.500 F180
G1 X106.000 Y162.500
G1 Z-4.500 F180
G1 X106.000 Y166.000
G1 X101.944 Y166.000
G1 Z-1.500 F180
G1 X98.944 Y166.000
G1 Z-4.500 F180
G1 X94.889 Y166.000
G1 X94.889 Y160.000
G1 X83.778 Y160.000
G1 X83.778 Y166.000
G1 X79.722 Y166.000
G1 Z-1.500 F180
G1 X76.722 Y166.000
G1 Z-4.500 F180
G1 X72.667 Y166.000
G1 X72.667 Y160.000
G1 X61.556 Y160.000
G1 X61.556 Y166.000
G1 X57.500 Y166.000
G1 Z-1.500 F180
G1 X54.500 Y166.000
G1 Z-4.500 F180
G1 X50.444 Y166.000
G1 X50.444 Y160.000
G1 X39.333 Y160.000
G1 X39.333 Y166.000
G1 X35.278 Y166.000
G1 Z-1.500 F180
G1 X32.278 Y166.000
G1 Z-4.500 F180
G1 X28.222 Y166.000
G1 X28.222 Y160.000
G1 X17.111 Y160.000
G1 X17.111 Y166.000
G1 X13.056 Y166.000
G1 Z-1.500 F180
G1 X10.056 Y166.000
G1 Z-4.500 F180
G1 X6.000 Y166.000
G1 X4.500 Y166.000
G1 Z-1.500 F180
G1 X1.500 Y166.000
G1 Z-4.500 F180
G1 X0.000 Y166.000
G1 X0.000 Y162.500
G1 Z-1.500 F180
G1 X0.000 Y159.500
G1 Z-4.500 F180
G1 X0.000 Y156.000
G1 X6.000 Y156.000
G1 X6.000 Y146.000
G1 X0.000 Y146.000
G1 X0.000 Y142.500
G1 Z-1.500 F180
G1 X0.000 Y139.500
G1 Z-4.500 F180
G1 X0.000 Y136.000
G1 X6.000 Y136.000
G1 X6.000 Y126.000
G1 X0.000 Y126.000
G1 X0.000 Y122.500
G1 Z-1.500 F180
G1 X0.000 Y119.500
G1 Z-4.500 F180
G1 X0.000 Y116.000
G1 X6.000 Y116.000
G1 X6.000 Y106.000
G1 X0.000 Y106.000
G1 X0.000 Y102.500
G1 Z-1.500 F180
G1 X0.000 Y99.500
G1 Z-4.500 F180
G1 X0.000 Y96.000
G1 X6.000 Y96.000
G0 Z5.000
G0 X6.000 Y96.000
G0 Z0.500
G1 Z-6.000 F180
G1 F650
G1 X6.000 Y90.000
G1 X10.056 Y90.000
G1 Z-1.500 F180
G1 X13.056 Y90.000
G1 Z-6.000 F180
G1 X17.111 Y90.000
G1 X17.111 Y96.000
G1 X28.222 Y96.000
G1 X28.222 Y90.000
G1 X32.278 Y90.000
G1 Z-1.500 F180
G1 X35.278 Y90.000
G1 Z-6.000 F180
G1 X39.333 Y90.000
G1 X39.333 Y96.000
G1 X50.444 Y96.000
G1 X50.444 Y90.000
G1 X54.500 Y90.000
G1 Z-1.500 F180
G1 X57.500 Y90.000
G1 Z-6.000 F180
G1 X61.556 Y90.000
G1 X61.556 Y96.000
G1 X72.667 Y96.000
G1 X72.667 Y90.000
G1 X76.722 Y90.000
G1 Z-1.500 F180
G1 X79.722 Y90.000
G1 Z-6.000 F180
G1 X83.778 Y90.000
G1 X83.778 Y96.000
G1 X94.889 Y96.000
G1 X94.889 Y90.000
G1 X98.944 Y90.000
G1 Z-1.500 F180
G1 X101.944 Y90.000
G1 Z-6.000 F180
G1 X106.000 Y90.000
G1 X106.000 Y91.500
G1 Z-1.500 F180
G1 X106.000 Y94.500
G1 Z-6.000 F180
G1 X106.000 Y96.000
G1 X106.000 Y99.500
G1 Z-1.500 F180
G1 X106.000 Y102.500
G1 Z-6.000 F180
G1 X106.000 Y106.000
